;FLAVOR:Marlin
;TIME:6666
;Filament used: 0m
;Layer height: 0.2
;MINX:2.14748e+06
;MINY:2.14748e+06
;MINZ:2.14748e+06
;MAXX:-2.14748e+06
;MAXY:-2.14748e+06
;MAXZ:-2.14748e+06

;Generated with Cura_SteamEngine 4.13.0
M104 S260
M105
M109 S260
M82 ;absolute extrusion mode
START_PRINT BED_TEMP={material_bed_temperature_layer_0} EXTRUDER_TEMP={material_print_temperature_layer_0}
G92 E0
G92 E0
G1 F2880 E-7
;LAYER_COUNT:390
;LAYER:0
M107
G1 F600 Z0.55
G0 F3600 X49.737 Y47.606 Z0.55
;TYPE:SKIRT
G1 F600 Z0.3
G1 F2520 E0
G1 F1800 X50.224 Y47.135 E0.01274
G1 X50.657 Y46.771 E0.02338
G1 X51.137 Y46.473 E0.03401
G1 X51.655 Y46.245 E0.04466
G1 X52.199 Y46.092 E0.05529
G1 X52.87 Y46.012 E0.068
G1 X53.513 Y46 E0.0801
G1 X95.35 Y46 E0.86707
G1 X96.052 Y46.01 E0.88028
G1 X96.615 Y46.058 E0.89091
G1 X97.166 Y46.185 E0.90155
G1 X97.694 Y46.389 E0.91219
G1 X98.187 Y46.664 E0.92281
G1 X98.715 Y47.077 E0.93542
G1 X99.104 Y47.448 E0.94553
G1 X101.39 Y49.732 E1.00632
G1 X101.848 Y50.204 E1.01869
G1 X102.212 Y50.637 E1.02933
G1 X102.511 Y51.117 E1.03997
G1 X102.74 Y51.633 E1.05059
G1 X102.894 Y52.178 E1.06124
G1 X102.971 Y52.714 E1.07143
G1 X103 Y53.513 E1.08647
G1 X103 Y95.35 E1.87344
G1 X102.99 Y96.052 E1.88665
G1 X102.942 Y96.615 E1.89728
G1 X102.815 Y97.166 E1.90792
G1 X102.611 Y97.694 E1.91856
G1 X102.336 Y98.187 E1.92918
G1 X101.923 Y98.715 E1.94179
G1 X101.527 Y99.129 E1.95257
G1 X99.273 Y101.383 E2.01253
G1 X98.779 Y101.862 E2.02547
G1 X98.347 Y102.226 E2.0361
G1 X97.867 Y102.525 E2.04674
G1 X97.35 Y102.753 E2.05736
G1 X96.806 Y102.907 E2.068
G1 X96.13 Y102.988 E2.08081
G1 X95.487 Y103 E2.0929
G1 X53.65 Y103 E2.87988
G1 X52.948 Y102.99 E2.89309
G1 X52.385 Y102.942 E2.90372
G1 X51.834 Y102.815 E2.91435
G1 X51.306 Y102.611 E2.925
G1 X50.813 Y102.336 E2.93562
G1 X50.285 Y101.923 E2.94823
G1 X49.859 Y101.516 E2.95931
G1 X47.606 Y99.263 E3.01925
G1 X47.135 Y98.776 E3.03199
G1 X46.771 Y98.343 E3.04263
G1 X46.473 Y97.863 E3.05326
G1 X46.245 Y97.345 E3.0639
G1 X46.092 Y96.801 E3.07453
G1 X46.012 Y96.13 E3.08725
G1 X46 Y95.487 E3.09934
G1 X46 Y53.65 E3.88632
G1 X46.01 Y52.948 E3.89953
G1 X46.058 Y52.385 E3.91015
G1 X46.185 Y51.834 E3.92079
G1 X46.389 Y51.306 E3.93144
G1 X46.664 Y50.813 E3.94206
G1 X47.077 Y50.285 E3.95467
G1 X47.473 Y49.871 E3.96544
G1 X49.737 Y47.606 E4.02568
G0 F3600 X50.015 Y47.893
G1 F1800 X50.502 Y47.422 E4.03843
G1 X50.914 Y47.079 E4.04851
G1 X51.373 Y46.801 E4.05861
G1 X51.868 Y46.594 E4.0687
G1 X52.388 Y46.463 E4.07879
G1 X53.031 Y46.407 E4.09093
G1 X53.518 Y46.4 E4.10009
G1 X95.344 Y46.4 E4.88686
G1 X96.046 Y46.41 E4.90007
G1 X96.58 Y46.458 E4.91015
G1 X97.102 Y46.584 E4.92025
G1 X97.598 Y46.787 E4.93033
G1 X98.059 Y47.061 E4.94042
G1 X98.595 Y47.512 E4.9536
G1 X98.856 Y47.765 E4.96044
G1 X101.103 Y50.011 E5.0202
G1 X101.561 Y50.483 E5.03257
G1 X101.904 Y50.895 E5.04265
G1 X102.183 Y51.353 E5.05274
G1 X102.391 Y51.847 E5.06282
G1 X102.555 Y52.595 E5.07723
G1 X102.595 Y53.109 E5.08693
G1 X102.6 Y53.518 E5.09462
G1 X102.6 Y95.344 E5.88139
G1 X102.59 Y96.046 E5.8946
G1 X102.542 Y96.58 E5.90468
G1 X102.416 Y97.102 E5.91478
G1 X102.213 Y97.598 E5.92486
G1 X101.939 Y98.059 E5.93495
G1 X101.488 Y98.595 E5.94813
G1 X101.214 Y98.878 E5.95554
G1 X98.995 Y101.096 E6.01455
G1 X98.501 Y101.575 E6.0275
G1 X98.089 Y101.918 E6.03758
G1 X97.631 Y102.197 E6.04767
G1 X97.137 Y102.404 E6.05775
G1 X96.617 Y102.536 E6.06784
G1 X96.117 Y102.588 E6.07729
G1 X95.482 Y102.6 E6.08924
G1 X53.656 Y102.6 E6.87601
G1 X52.954 Y102.59 E6.88922
G1 X52.42 Y102.542 E6.8993
G1 X51.898 Y102.416 E6.9094
G1 X51.402 Y102.213 E6.91948
G1 X50.941 Y101.939 E6.92957
G1 X50.405 Y101.488 E6.94275
G1 X50.113 Y101.204 E6.95041
G1 X47.893 Y98.985 E7.00945
G1 X47.422 Y98.498 E7.0222
G1 X47.079 Y98.086 E7.03228
G1 X46.801 Y97.627 E7.04238
G1 X46.594 Y97.132 E7.05247
G1 X46.463 Y96.612 E7.06256
G1 X46.407 Y95.969 E7.0747
G1 X46.4 Y95.482 E7.08386
G1 X46.4 Y53.656 E7.87063
G1 X46.41 Y52.954 E7.88384
G1 X46.458 Y52.42 E7.89392
G1 X46.584 Y51.898 E7.90402
G1 X46.787 Y51.402 E7.9141
G1 X47.061 Y50.941 E7.92419
G1 X47.512 Y50.405 E7.93737
G1 X47.786 Y50.123 E7.94476
G1 X50.015 Y47.893 E8.00407
G0 F3600 X50.293 Y48.181
G1 F1800 X50.78 Y47.71 E8.01682
G1 X51.17 Y47.388 E8.02633
G1 X51.606 Y47.132 E8.03584
G1 X52.077 Y46.948 E8.04535
G1 X52.571 Y46.84 E8.05487
G1 X53.114 Y46.805 E8.0651
G1 X53.523 Y46.8 E8.0728
G1 X95.339 Y46.8 E8.85938
G1 X96.041 Y46.81 E8.87258
G1 X96.544 Y46.857 E8.88209
G1 X97.034 Y46.983 E8.8916
G1 X97.497 Y47.185 E8.90111
G1 X97.924 Y47.456 E8.91062
G1 X98.323 Y47.805 E8.92059
G1 X98.573 Y48.048 E8.92715
G1 X100.816 Y50.29 E8.9868
G1 X101.274 Y50.762 E8.99918
G1 X101.596 Y51.151 E9.00867
G1 X101.853 Y51.586 E9.01818
G1 X102.038 Y52.057 E9.0277
G1 X102.158 Y52.639 E9.03888
G1 X102.2 Y53.523 E9.05552
G1 X102.2 Y95.339 E9.8421
G1 X102.19 Y96.041 E9.85531
G1 X102.143 Y96.544 E9.86481
G1 X102.017 Y97.034 E9.87433
G1 X101.815 Y97.497 E9.88383
G1 X101.544 Y97.924 E9.89335
G1 X101.195 Y98.323 E9.90332
G1 X100.931 Y98.595 E9.91045
G1 X98.717 Y100.808 E9.96933
G1 X98.223 Y101.287 E9.98228
G1 X97.833 Y101.61 E9.9918
G1 X97.397 Y101.866 E10.00131
G1 X96.927 Y102.051 E10.01081
G1 X96.433 Y102.16 E10.02033
G1 X95.886 Y102.195 E10.03064
G1 X95.477 Y102.2 E10.03833
G1 X53.661 Y102.2 E10.82492
G1 X52.959 Y102.19 E10.83812
G1 X52.456 Y102.143 E10.84762
G1 X51.966 Y102.017 E10.85714
G1 X51.503 Y101.815 E10.86664
G1 X51.076 Y101.544 E10.87616
G1 X50.677 Y101.195 E10.88613
G1 X50.396 Y100.921 E10.89351
G1 X48.181 Y98.707 E10.95242
G1 X47.71 Y98.22 E10.96517
G1 X47.388 Y97.83 E10.97468
G1 X47.132 Y97.394 E10.98419
G1 X46.948 Y96.923 E10.9937
G1 X46.84 Y96.429 E11.00321
G1 X46.805 Y95.886 E11.01345
G1 X46.8 Y95.477 E11.02114
G1 X46.8 Y53.661 E11.80772
G1 X46.81 Y52.959 E11.82093
G1 X46.857 Y52.456 E11.83043
G1 X46.983 Y51.966 E11.83995
G1 X47.185 Y51.503 E11.84945
G1 X47.456 Y51.076 E11.85897
G1 X47.805 Y50.677 E11.86894
G1 X48.069 Y50.406 E11.87605
G1 X50.293 Y48.181 E11.93523
G1 F2880 E4.93523
G1 F600 Z0.55
;MESH:./spigen-pd2101-mount/spigen-pd2101-mount.stl
G0 F3600 X53.4 Y53.4 Z0.55
;TYPE:WALL-INNER
G1 F600 Z0.3
G1 F2520 E11.93523
G1 F1200 X53.4 Y83.6 E12.50331
G1 X95.6 Y83.6 E13.29712
G1 X95.6 Y53.4 E13.86519
G1 X53.4 Y53.4 E14.659
G0 F3600 X53.33 Y53.33
G0 X53.372 Y83.628
G0 X95.714 Y98.308
G0 X95.752 Y98.4
G1 F1200 X53.248 Y98.4 E15.45852
G1 X50.6 Y95.752 E15.52897
G1 X50.6 Y53.248 E16.32849
G1 X53.248 Y50.6 E16.39893
G1 X95.752 Y50.6 E17.19846
G1 X98.4 Y53.248 E17.2689
G1 X98.4 Y95.752 E18.06842
G1 X95.752 Y98.4 E18.13887
G0 F3600 X95.918 Y98.8
;TYPE:WALL-OUTER
G1 F1200 X53.082 Y98.8 E18.94463
G1 X50.2 Y95.918 E19.0213
G1 X50.2 Y53.082 E19.82707
G1 X53.082 Y50.2 E19.90374
G1 X95.918 Y50.2 E20.70951
G1 X98.8 Y53.082 E20.78617
G1 X98.8 Y95.918 E21.59194
G1 X95.918 Y98.8 E21.66861
G0 F3600 X95.718 Y98.8
G0 X95.718 Y98.3
G0 X53.372 Y83.628
G0 X53.372 Y53.372
G0 X53.8 Y53.8
G1 F1200 X53.8 Y83.2 E22.22164
G1 X95.2 Y83.2 E23.0004
G1 X95.2 Y53.8 E23.55343
G1 X53.8 Y53.8 E24.33219
G0 F3600 X53.8 Y54
G0 X53.3 Y54
G0 X53.01 Y53.01
;TYPE:SKIN
G1 F1200 X53.01 Y83.99 E24.91494
G1 X95.99 Y83.99 E25.72341
G1 X95.99 Y53.01 E26.30617
G1 X53.01 Y53.01 E27.11464
G0 F3600 X50.99 Y53.408
G1 F1200 X53.408 Y50.99 E27.17897
G1 X95.592 Y50.99 E27.97247
G1 X98.01 Y53.408 E28.0368
G1 X98.01 Y95.592 E28.8303
G1 X95.592 Y98.01 E28.89462
G1 X53.408 Y98.01 E29.68813
G1 X50.99 Y95.592 E29.75245
G1 X50.99 Y53.408 E30.54596
G0 F3600 X53.705 Y97.828
G1 F1200 X51.17 Y95.293 E30.61339
G0 F3600 X51.17 Y94.728
G1 F1200 X54.271 Y97.828 E30.69587
G0 F3600 X54.836 Y97.828
G1 F1200 X51.17 Y94.162 E30.7934
G0 F3600 X51.17 Y93.596
G1 F1200 X55.402 Y97.828 E30.90598
G0 F3600 X55.968 Y97.828
G1 F1200 X51.17 Y93.031 E31.0336
G0 F3600 X51.17 Y92.465
G1 F1200 X56.533 Y97.828 E31.17627
G0 F3600 X57.099 Y97.828
G1 F1200 X51.17 Y91.899 E31.33399
G0 F3600 X51.17 Y91.334
G1 F1200 X57.665 Y97.828 E31.50676
G0 F3600 X58.23 Y97.828
G1 F1200 X51.17 Y90.768 E31.69457
G0 F3600 X51.17 Y90.202
G1 F1200 X58.796 Y97.828 E31.89744
G0 F3600 X59.362 Y97.828
G1 F1200 X51.17 Y89.637 E32.11535
G0 F3600 X51.17 Y89.071
G1 F1200 X59.928 Y97.828 E32.34832
G0 F3600 X60.493 Y97.828
G1 F1200 X51.17 Y88.505 E32.59633
G0 F3600 X51.17 Y87.94
G1 F1200 X61.059 Y97.828 E32.85939
G0 F3600 X61.625 Y97.828
G1 F1200 X51.17 Y87.374 E33.1375
G0 F3600 X51.17 Y86.808
G1 F1200 X62.19 Y97.828 E33.43065
G0 F3600 X62.756 Y97.828
G1 F1200 X51.17 Y86.242 E33.73887
G0 F3600 X51.17 Y85.677
G1 F1200 X63.322 Y97.828 E34.06212
G0 F3600 X63.887 Y97.828
G1 F1200 X51.17 Y85.111 E34.40042
G0 F3600 X51.17 Y84.545
G1 F1200 X64.453 Y97.828 E34.75378
G0 F3600 X65.019 Y97.828
G1 F1200 X51.17 Y83.98 E35.12218
G0 F3600 X51.17 Y83.414
G1 F1200 X65.584 Y97.828 E35.50562
G0 F3600 X66.15 Y97.828
G1 F1200 X51.17 Y82.848 E35.90412
G0 F3600 X51.17 Y82.283
G1 F1200 X52.83 Y83.942 E35.94827
G0 F3600 X53.057 Y84.169
G1 F1200 X66.716 Y97.828 E36.31163
G0 F3600 X67.281 Y97.828
G1 F1200 X53.622 Y84.169 E36.67498
G0 F3600 X54.188 Y84.169
G1 F1200 X67.847 Y97.828 E37.03834
G0 F3600 X68.413 Y97.828
G1 F1200 X54.754 Y84.169 E37.4017
G0 F3600 X55.319 Y84.169
G1 F1200 X68.978 Y97.828 E37.76506
G0 F3600 X69.544 Y97.828
G1 F1200 X55.885 Y84.169 E38.12842
G0 F3600 X56.451 Y84.169
G1 F1200 X70.11 Y97.828 E38.49178
G0 F3600 X70.676 Y97.828
G1 F1200 X57.016 Y84.169 E38.85515
G0 F3600 X57.582 Y84.169
G1 F1200 X71.241 Y97.828 E39.21851
G0 F3600 X71.807 Y97.828
G1 F1200 X58.148 Y84.169 E39.58187
G0 F3600 X58.713 Y84.169
G1 F1200 X72.373 Y97.828 E39.94524
G0 F3600 X72.938 Y97.828
G1 F1200 X59.279 Y84.169 E40.3086
G0 F3600 X59.845 Y84.169
G1 F1200 X73.504 Y97.828 E40.67196
G0 F3600 X74.07 Y97.828
G1 F1200 X60.41 Y84.169 E41.03533
G0 F3600 X60.976 Y84.169
G1 F1200 X74.635 Y97.828 E41.39869
G0 F3600 X75.201 Y97.828
G1 F1200 X61.542 Y84.169 E41.76205
G0 F3600 X62.108 Y84.169
G1 F1200 X75.767 Y97.828 E42.1254
G0 F3600 X76.332 Y97.828
G1 F1200 X62.673 Y84.169 E42.48876
G0 F3600 X63.239 Y84.169
G1 F1200 X76.898 Y97.828 E42.85212
G0 F3600 X77.464 Y97.828
G1 F1200 X63.805 Y84.169 E43.21548
G0 F3600 X64.37 Y84.169
G1 F1200 X78.029 Y97.828 E43.57884
G0 F3600 X78.595 Y97.828
G1 F1200 X64.936 Y84.169 E43.9422
G0 F3600 X65.502 Y84.169
G1 F1200 X79.161 Y97.828 E44.30556
G0 F3600 X79.726 Y97.828
G1 F1200 X66.067 Y84.169 E44.66892
G0 F3600 X66.633 Y84.169
G1 F1200 X80.292 Y97.828 E45.03227
G0 F3600 X80.858 Y97.828
G1 F1200 X67.199 Y84.169 E45.39563
G0 F3600 X67.764 Y84.169
G1 F1200 X81.424 Y97.828 E45.759
G0 F3600 X81.989 Y97.828
G1 F1200 X68.33 Y84.169 E46.12236
G0 F3600 X68.896 Y84.169
G1 F1200 X82.555 Y97.828 E46.48572
G0 F3600 X83.121 Y97.828
G1 F1200 X69.461 Y84.169 E46.84909
G0 F3600 X70.027 Y84.169
G1 F1200 X83.686 Y97.828 E47.21245
G0 F3600 X84.252 Y97.828
G1 F1200 X70.593 Y84.169 E47.57581
G0 F3600 X71.158 Y84.169
G1 F1200 X84.818 Y97.828 E47.93918
G0 F3600 X85.383 Y97.828
G1 F1200 X71.724 Y84.169 E48.30254
G0 F3600 X72.29 Y84.169
G1 F1200 X85.949 Y97.828 E48.6659
G0 F3600 X86.515 Y97.828
G1 F1200 X72.856 Y84.169 E49.02926
G0 F3600 X73.421 Y84.169
G1 F1200 X87.08 Y97.828 E49.39262
G0 F3600 X87.646 Y97.828
G1 F1200 X73.987 Y84.169 E49.75598
G0 F3600 X74.553 Y84.169
G1 F1200 X88.212 Y97.828 E50.11934
G0 F3600 X88.777 Y97.828
G1 F1200 X75.118 Y84.169 E50.48269
G0 F3600 X75.684 Y84.169
G1 F1200 X89.343 Y97.828 E50.84605
G0 F3600 X89.909 Y97.828
G1 F1200 X76.25 Y84.169 E51.20941
G0 F3600 X76.815 Y84.169
G1 F1200 X90.475 Y97.828 E51.57278
G0 F3600 X91.04 Y97.828
G1 F1200 X77.381 Y84.169 E51.93614
G0 F3600 X77.947 Y84.169
G1 F1200 X91.606 Y97.828 E52.2995
G0 F3600 X92.172 Y97.828
G1 F1200 X78.512 Y84.169 E52.66287
G0 F3600 X79.078 Y84.169
G1 F1200 X92.737 Y97.828 E53.02623
G0 F3600 X93.303 Y97.828
G1 F1200 X79.644 Y84.169 E53.38959
G0 F3600 X80.209 Y84.169
G1 F1200 X93.869 Y97.828 E53.75296
G0 F3600 X94.434 Y97.828
G1 F1200 X80.775 Y84.169 E54.11632
G0 F3600 X81.341 Y84.169
G1 F1200 X95 Y97.828 E54.47968
G0 F3600 X95.542 Y97.804
G1 F1200 X81.907 Y84.169 E54.8424
G0 F3600 X82.472 Y84.169
G1 F1200 X95.824 Y97.522 E55.19761
G0 F3600 X96.107 Y97.239
G1 F1200 X83.038 Y84.169 E55.54528
G0 F3600 X83.604 Y84.169
G1 F1200 X96.39 Y96.956 E55.88543
G0 F3600 X96.673 Y96.673
G1 F1200 X84.169 Y84.169 E56.21806
G0 F3600 X84.735 Y84.169
G1 F1200 X96.956 Y96.39 E56.54317
G0 F3600 X97.239 Y96.107
G1 F1200 X85.301 Y84.169 E56.86074
G0 F3600 X85.866 Y84.169
G1 F1200 X97.522 Y95.824 E57.17081
G0 F3600 X97.804 Y95.542
G1 F1200 X86.432 Y84.169 E57.47334
G0 F3600 X86.998 Y84.169
G1 F1200 X97.828 Y95 E57.76145
G0 F3600 X97.828 Y94.434
G1 F1200 X87.563 Y84.169 E58.03452
G0 F3600 X88.129 Y84.169
G1 F1200 X97.828 Y93.869 E58.29255
G0 F3600 X97.828 Y93.303
G1 F1200 X88.695 Y84.169 E58.53552
G0 F3600 X89.26 Y84.169
G1 F1200 X97.828 Y92.737 E58.76345
G0 F3600 X97.828 Y92.172
G1 F1200 X89.826 Y84.169 E58.97633
G0 F3600 X90.392 Y84.169
G1 F1200 X97.828 Y91.606 E59.17416
G0 F3600 X97.828 Y91.04
G1 F1200 X90.957 Y84.169 E59.35694
G0 F3600 X91.523 Y84.169
G1 F1200 X97.828 Y90.475 E59.52468
G0 F3600 X97.828 Y89.909
G1 F1200 X92.089 Y84.169 E59.67737
G0 F3600 X92.655 Y84.169
G1 F1200 X97.828 Y89.343 E59.81499
G0 F3600 X97.828 Y88.777
G1 F1200 X93.22 Y84.169 E59.93758
G0 F3600 X93.786 Y84.169
G1 F1200 X97.828 Y88.212 E60.04511
G0 F3600 X97.828 Y87.646
G1 F1200 X94.352 Y84.169 E60.1376
G0 F3600 X94.917 Y84.169
G1 F1200 X97.828 Y87.08 E60.21504
G0 F3600 X97.828 Y86.515
G1 F1200 X95.483 Y84.169 E60.27743
G0 F3600 X96.049 Y84.169
G1 F1200 X97.828 Y85.949 E60.32477
G0 F3600 X97.828 Y85.383
G1 F1200 X96.169 Y83.724 E60.3689
G0 F3600 X96.169 Y83.158
G1 F1200 X97.828 Y84.818 E60.41305
G0 F3600 X97.828 Y84.252
G1 F1200 X96.169 Y82.592 E60.4572
G0 F3600 X96.169 Y82.027
G1 F1200 X97.828 Y83.686 E60.50133
G0 F3600 X97.828 Y83.121
G1 F1200 X96.169 Y81.461 E60.54547
G0 F3600 X96.169 Y80.895
G1 F1200 X97.828 Y82.555 E60.58962
G0 F3600 X97.828 Y81.989
G1 F1200 X96.169 Y80.33 E60.63375
G0 F3600 X96.169 Y79.764
G1 F1200 X97.828 Y81.424 E60.6779
G0 F3600 X97.828 Y80.858
G1 F1200 X96.169 Y79.198 E60.72205
G0 F3600 X96.169 Y78.633
G1 F1200 X97.828 Y80.292 E60.76618
G0 F3600 X97.828 Y79.726
G1 F1200 X96.169 Y78.067 E60.81031
G0 F3600 X96.169 Y77.501
G1 F1200 X97.828 Y79.161 E60.85446
G0 F3600 X97.828 Y78.595
G1 F1200 X96.169 Y76.936 E60.89859
G0 F3600 X96.169 Y76.37
G1 F1200 X97.828 Y78.029 E60.94272
G0 F3600 X97.828 Y77.464
G1 F1200 X96.169 Y75.804 E60.98687
G0 F3600 X96.169 Y75.238
G1 F1200 X97.828 Y76.898 E61.03102
G0 F3600 X97.828 Y76.332
G1 F1200 X96.169 Y74.673 E61.07515
G0 F3600 X96.169 Y74.107
G1 F1200 X97.828 Y75.767 E61.1193
G0 F3600 X97.828 Y75.201
G1 F1200 X96.169 Y73.541 E61.16344
G0 F3600 X96.169 Y72.976
G1 F1200 X97.828 Y74.635 E61.20758
G0 F3600 X97.828 Y74.07
G1 F1200 X96.169 Y72.41 E61.25172
G0 F3600 X96.169 Y71.844
G1 F1200 X97.828 Y73.504 E61.29587
G0 F3600 X97.828 Y72.938
G1 F1200 X96.169 Y71.279 E61.34
G0 F3600 X96.169 Y70.713
G1 F1200 X97.828 Y72.373 E61.38415
G0 F3600 X97.828 Y71.807
G1 F1200 X96.169 Y70.147 E61.42829
G0 F3600 X96.169 Y69.582
G1 F1200 X97.828 Y71.241 E61.47243
G0 F3600 X97.828 Y70.676
G1 F1200 X96.169 Y69.016 E61.51657
G0 F3600 X96.169 Y68.45
G1 F1200 X97.828 Y70.11 E61.56072
G0 F3600 X97.828 Y69.544
G1 F1200 X96.169 Y67.885 E61.60485
G0 F3600 X96.169 Y67.319
G1 F1200 X97.828 Y68.978 E61.64898
G0 F3600 X97.828 Y68.413
G1 F1200 X96.169 Y66.753 E61.69313
G0 F3600 X96.169 Y66.188
G1 F1200 X97.828 Y67.847 E61.73726
G0 F3600 X97.828 Y67.281
G1 F1200 X96.169 Y65.622 E61.7814
G0 F3600 X96.169 Y65.056
G1 F1200 X97.828 Y66.716 E61.82554
G0 F3600 X97.828 Y66.15
G1 F1200 X96.169 Y64.49 E61.86969
G0 F3600 X96.169 Y63.925
G1 F1200 X97.828 Y65.584 E61.91382
G0 F3600 X97.828 Y65.019
G1 F1200 X96.169 Y63.359 E61.95797
G0 F3600 X96.169 Y62.793
G1 F1200 X97.828 Y64.453 E62.00211
G0 F3600 X97.828 Y63.887
G1 F1200 X96.169 Y62.228 E62.04625
G0 F3600 X96.169 Y61.662
G1 F1200 X97.828 Y63.322 E62.09039
G0 F3600 X97.828 Y62.756
G1 F1200 X96.169 Y61.096 E62.13454
G0 F3600 X96.169 Y60.531
G1 F1200 X97.828 Y62.19 E62.17867
G0 F3600 X97.828 Y61.625
G1 F1200 X96.169 Y59.965 E62.22282
G0 F3600 X96.169 Y59.399
G1 F1200 X97.828 Y61.059 E62.26697
