;FLAVOR:Marlin
;TIME:6666
;Filament used: 0m
;Layer height: 0.2
;MINX:2.14748e+06
;MINY:2.14748e+06
;MINZ:2.14748e+06
;MAXX:-2.14748e+06
;MAXY:-2.14748e+06
;MAXZ:-2.14748e+06
;TARGET_MACHINE.NAME:Unknown

;Generated with Cura_SteamEngine 5.9.0
M104 S260
M105
M109 S260
M82 ;absolute extrusion mode
START_PRINT BED_TEMP={material_bed_temperature_layer_0} EXTRUDER_TEMP={material_print_temperature_layer_0}
G92 E0
G92 E0
G1 F2880 E-7
;LAYER_COUNT:389
;LAYER:0
M107
G1 F600 Z0.55
G0 F3600 X100 Y48.342 Z0.55
;TYPE:SKIRT
G1 F600 Z0.3
G1 F2520 E0
G1 F1800 X99.139 Y47.482 E0.02289
G1 X98.512 Y46.881 E0.03923
G1 X97.925 Y46.509 E0.0523
G1 X97.297 Y46.229 E0.06523
G1 X96.747 Y46.083 E0.07594
G1 X96.087 Y46.012 E0.08843
G1 X95.351 Y46 E0.10227
G1 X53.548 Y46 E0.88861
G1 X52.588 Y46.018 E0.90667
G1 X51.907 Y46.166 E0.91978
G1 X51.318 Y46.385 E0.9316
G1 X50.767 Y46.696 E0.9435
G1 X50.249 Y47.112 E0.956
G1 X49.737 Y47.605 E0.96937
G1 X47.32 Y50.027 E1.03373
G1 X46.819 Y50.595 E1.04798
G1 X46.48 Y51.128 E1.05986
G1 X46.229 Y51.703 E1.07166
G1 X46.083 Y52.253 E1.08237
G1 X46.012 Y52.913 E1.09485
G1 X46 Y53.649 E1.1087
G1 X46 Y95.454 E1.89508
G1 X46.019 Y96.429 E1.91342
G1 X46.169 Y97.108 E1.9265
G1 X46.392 Y97.698 E1.93836
G1 X46.743 Y98.302 E1.95151
G1 X47.102 Y98.743 E1.9622
G1 X47.614 Y99.272 E1.97605
G1 X48.343 Y100 E1.99543
G0 F3600 X48.91 Y100
G1 F1800 X47.901 Y98.993 E2.02224
G1 X47.41 Y98.487 E2.03551
G1 X47.087 Y98.098 E2.04502
G1 X46.765 Y97.554 E2.05691
G1 X46.56 Y97.022 E2.06763
G1 X46.418 Y96.38 E2.08
G1 X46.4 Y95.446 E2.09757
G1 X46.4 Y53.655 E2.88369
G1 X46.41 Y52.953 E2.89689
G1 X46.47 Y52.356 E2.90818
G1 X46.616 Y51.806 E2.91888
G1 X46.818 Y51.343 E2.92839
G1 X47.157 Y50.81 E2.94027
G1 X47.603 Y50.31 E2.95287
G1 X50.015 Y47.893 E3.0171
G1 X50.502 Y47.422 E3.02985
G1 X50.967 Y47.043 E3.04113
G1 X51.46 Y46.759 E3.05183
G1 X51.992 Y46.557 E3.06254
G1 X52.635 Y46.417 E3.07492
G1 X53.555 Y46.4 E3.09222
G1 X95.345 Y46.4 E3.87832
G1 X96.047 Y46.41 E3.89152
G1 X96.644 Y46.47 E3.90281
G1 X97.194 Y46.616 E3.91351
G1 X97.711 Y46.847 E3.92417
G1 X98.263 Y47.197 E3.93646
G1 X98.856 Y47.765 E3.95191
G1 X100 Y48.908 E3.98233
G0 F3600 X100 Y49.474
G1 F1800 X98.573 Y48.048 E4.02027
G1 X98.014 Y47.513 E4.03483
G1 X97.497 Y47.185 E4.04635
G1 X97.034 Y46.983 E4.05585
G1 X96.544 Y46.857 E4.06537
G1 X96.041 Y46.81 E4.07487
G1 X95.339 Y46.8 E4.08807
G1 X53.562 Y46.8 E4.87392
G1 X52.682 Y46.816 E4.89048
G1 X52.077 Y46.948 E4.90213
G1 X51.606 Y47.132 E4.91164
G1 X51.17 Y47.388 E4.92115
G1 X50.78 Y47.71 E4.93066
G1 X50.293 Y48.181 E4.94341
G1 X47.886 Y50.593 E5.00751
G1 X47.456 Y51.076 E5.01967
G1 X47.185 Y51.503 E5.02918
G1 X46.983 Y51.966 E5.03869
G1 X46.857 Y52.456 E5.0482
G1 X46.81 Y52.959 E5.05771
G1 X46.8 Y53.661 E5.07091
G1 X46.8 Y95.438 E5.85676
G1 X46.817 Y96.331 E5.87356
G1 X46.951 Y96.936 E5.88522
G1 X47.137 Y97.407 E5.89474
G1 X47.395 Y97.842 E5.90426
G1 X47.718 Y98.231 E5.91377
G1 X48.188 Y98.714 E5.92644
G1 X49.477 Y100 E5.96069
G1 F2880 E-1.03931
G1 F600 Z0.55
;MESH:./spigen-pd2101-mount/spigen-pd2101-mount.stl
G0 F3600 X95.747 Y98.4 Z0.55
;TYPE:WALL-INNER
G1 F600 Z0.3
G1 F2520 E5.96069
G1 F1200 X98.4 Y95.747 E6.03127
G1 X98.4 Y53.249 E6.83068
G1 X95.747 Y50.6 E6.9012
G1 X53.249 Y50.601 E7.70061
G1 X50.601 Y53.249 E7.77106
G1 X50.6 Y95.747 E8.57047
G1 X53.249 Y98.4 E8.64099
G1 X95.747 Y98.4 E9.4404
G0 F3600 X95.626 Y98.098
G0 X95.91 Y83.414
G0 X95.435 Y83.414
G1 F1200 X95.283 Y83.53 E9.444
G1 X95.094 Y83.6 E9.44779
G1 X53.906 Y83.6 E10.22256
G1 X53.717 Y83.53 E10.22635
G1 X53.565 Y83.414 E10.22995
G1 X53.446 Y83.231 E10.23405
G1 X53.4 Y83.077 E10.23708
G1 X53.402 Y53.949 E10.78499
G1 X53.486 Y53.689 E10.79013
G1 X53.689 Y53.486 E10.79553
G1 X53.949 Y53.402 E10.80067
G1 X95.051 Y53.401 E11.57382
G1 X95.31 Y53.485 E11.57894
G1 X95.514 Y53.689 E11.58437
G1 X95.598 Y53.949 E11.58951
G1 X95.6 Y83.077 E12.13742
G1 X95.554 Y83.231 E12.14045
G1 X95.435 Y83.414 E12.14455
G0 F3600 X95.198 Y83.035
;TYPE:WALL-OUTER
G1 F1200 X95.145 Y83.138 E12.14673
G1 X95.044 Y83.196 E12.14892
G1 X53.956 Y83.196 E12.92181
G1 X53.855 Y83.138 E12.924
G1 X53.802 Y83.035 E12.92618
G1 X53.8 Y53.983 E13.47266
G1 X53.896 Y53.828 E13.47609
G1 X53.983 Y53.8 E13.47781
G1 X95.017 Y53.8 E14.24969
G1 X95.172 Y53.896 E14.25312
G1 X95.2 Y53.983 E14.25483
G1 X95.198 Y83.035 E14.80132
G0 F3600 X95.145 Y83.138
G0 X95.072 Y83.18
G0 X95.072 Y83.91
G0 X95.626 Y98.098
G0 X95.913 Y98.8
G1 F1200 X98.8 Y95.913 E14.87812
G1 X98.8 Y53.083 E15.68378
G1 X95.913 Y50.2 E15.76052
G1 X53.083 Y50.201 E16.56618
G1 X50.201 Y53.083 E16.64285
G1 X50.2 Y95.913 E17.4485
G1 X53.083 Y98.8 E17.52525
G1 X95.913 Y98.8 E18.33091
G0 F3600 X96.054 Y98.659
G0 X95.626 Y98.098
G0 X95.435 Y83.91
G0 X95.435 Y83.876
;TYPE:SKIN
G1 F1200 X95.681 Y83.7 E18.3366
G1 X95.888 Y83.406 E18.34336
G1 X95.978 Y83.135 E18.34873
G1 X95.976 Y53.919 E18.8983
G1 X95.828 Y53.48 E18.90701
G1 X95.542 Y53.19 E18.91468
G1 X95.077 Y53.02 E18.92399
G1 X53.918 Y53.02 E19.69821
G1 X53.454 Y53.19 E19.70751
G1 X53.168 Y53.481 E19.71518
G1 X53.02 Y53.918 E19.72386
G1 X53.022 Y83.135 E20.27345
G1 X53.083 Y83.351 E20.27767
G1 X53.268 Y83.65 E20.28429
G1 X53.561 Y83.876 E20.29125
G1 X53.876 Y83.98 E20.29749
G1 X95.12 Y83.98 E21.07331
G1 X95.435 Y83.876 E21.07955
G0 F3600 X95.435 Y83.91
G0 X95.585 Y98.02
G1 F1200 X53.408 Y98.02 E21.87292
G1 X50.98 Y95.585 E21.9376
G1 X50.98 Y53.407 E22.731
G1 X53.407 Y50.98 E22.79556
G1 X95.585 Y50.98 E23.58895
G1 X98.02 Y53.408 E23.65363
G1 X98.02 Y95.585 E24.44701
G1 X95.585 Y98.02 E24.51178
G0 F3600 X53.696 Y97.82
G1 F1200 X51.18 Y95.304 E24.57871
G0 F3600 X51.18 Y94.738
G1 F1200 X54.262 Y97.82 E24.6607
G0 F3600 X54.828 Y97.82
G1 F1200 X51.18 Y94.172 E24.75775
G0 F3600 X51.18 Y93.607
G1 F1200 X55.393 Y97.82 E24.86982
G0 F3600 X55.959 Y97.82
G1 F1200 X51.18 Y93.041 E24.99695
G0 F3600 X51.18 Y92.475
G1 F1200 X56.525 Y97.82 E25.13914
G0 F3600 X57.09 Y97.82
G1 F1200 X51.18 Y91.91 E25.29636
G0 F3600 X51.18 Y91.344
G1 F1200 X57.656 Y97.82 E25.46864
G0 F3600 X58.222 Y97.82
G1 F1200 X51.18 Y90.778 E25.65597
G0 F3600 X51.18 Y90.213
G1 F1200 X58.787 Y97.82 E25.85833
G0 F3600 X59.353 Y97.82
G1 F1200 X51.18 Y89.647 E26.07575
G0 F3600 X51.18 Y89.081
G1 F1200 X59.919 Y97.82 E26.30823
G0 F3600 X60.484 Y97.82
G1 F1200 X51.18 Y88.516 E26.55573
G0 F3600 X51.18 Y87.95
G1 F1200 X61.05 Y97.82 E26.8183
G0 F3600 X61.616 Y97.82
G1 F1200 X51.18 Y87.384 E27.09592
G0 F3600 X51.18 Y86.819
G1 F1200 X62.182 Y97.82 E27.38858
G0 F3600 X62.747 Y97.82
G1 F1200 X51.18 Y86.253 E27.69629
G0 F3600 X51.18 Y85.687
G1 F1200 X63.313 Y97.82 E28.01905
G0 F3600 X63.879 Y97.82
G1 F1200 X51.18 Y85.122 E28.35686
G0 F3600 X51.18 Y84.556
G1 F1200 X64.444 Y97.82 E28.70971
G0 F3600 X65.01 Y97.82
G1 F1200 X51.18 Y83.99 E29.07762
G0 F3600 X51.18 Y83.424
G1 F1200 X65.576 Y97.82 E29.46058
G0 F3600 X66.141 Y97.82
G1 F1200 X51.18 Y82.859 E29.85857
G0 F3600 X51.18 Y82.293
G1 F1200 X66.707 Y97.82 E30.27163
G0 F3600 X67.273 Y97.82
G1 F1200 X53.5 Y84.047 E30.63802
G0 F3600 X54.198 Y84.18
G1 F1200 X67.838 Y97.82 E31.00087
G0 F3600 X68.404 Y97.82
G1 F1200 X54.764 Y84.18 E31.36372
G0 F3600 X55.33 Y84.18
G1 F1200 X68.97 Y97.82 E31.72658
G0 F3600 X69.535 Y97.82
G1 F1200 X55.895 Y84.18 E32.08943
G0 F3600 X56.461 Y84.18
G1 F1200 X70.101 Y97.82 E32.45228
G0 F3600 X70.667 Y97.82
G1 F1200 X57.027 Y84.18 E32.81514
G0 F3600 X57.592 Y84.18
G1 F1200 X71.233 Y97.82 E33.178
G0 F3600 X71.798 Y97.82
G1 F1200 X58.158 Y84.18 E33.54086
G0 F3600 X58.724 Y84.18
G1 F1200 X72.364 Y97.82 E33.90371
G0 F3600 X72.93 Y97.82
G1 F1200 X59.289 Y84.18 E34.26658
G0 F3600 X59.855 Y84.18
G1 F1200 X73.495 Y97.82 E34.62943
G0 F3600 X74.061 Y97.82
G1 F1200 X60.421 Y84.18 E34.99228
G0 F3600 X60.987 Y84.18
G1 F1200 X74.627 Y97.82 E35.35514
G0 F3600 X75.192 Y97.82
G1 F1200 X61.552 Y84.18 E35.71799
G0 F3600 X62.118 Y84.18
G1 F1200 X75.758 Y97.82 E36.08084
G0 F3600 X76.324 Y97.82
G1 F1200 X62.684 Y84.18 E36.4437
G0 F3600 X63.249 Y84.18
G1 F1200 X76.889 Y97.82 E36.80655
G0 F3600 X77.455 Y97.82
G1 F1200 X63.815 Y84.18 E37.1694
G0 F3600 X64.381 Y84.18
G1 F1200 X78.021 Y97.82 E37.53226
G0 F3600 X78.586 Y97.82
G1 F1200 X64.946 Y84.18 E37.89511
G0 F3600 X65.512 Y84.18
G1 F1200 X79.152 Y97.82 E38.25796
G0 F3600 X79.718 Y97.82
G1 F1200 X66.078 Y84.18 E38.62082
G0 F3600 X66.643 Y84.18
G1 F1200 X80.283 Y97.82 E38.98367
G0 F3600 X80.849 Y97.82
G1 F1200 X67.209 Y84.18 E39.34652
G0 F3600 X67.775 Y84.18
G1 F1200 X81.415 Y97.82 E39.70938
G0 F3600 X81.981 Y97.82
G1 F1200 X68.34 Y84.18 E40.07224
G0 F3600 X68.906 Y84.18
G1 F1200 X82.546 Y97.82 E40.4351
G0 F3600 X83.112 Y97.82
G1 F1200 X69.472 Y84.18 E40.79795
G0 F3600 X70.038 Y84.18
G1 F1200 X83.678 Y97.82 E41.1608
G0 F3600 X84.243 Y97.82
G1 F1200 X70.603 Y84.18 E41.52365
G0 F3600 X71.169 Y84.18
G1 F1200 X84.809 Y97.82 E41.88651
G0 F3600 X85.375 Y97.82
G1 F1200 X71.735 Y84.18 E42.24936
G0 F3600 X72.3 Y84.18
G1 F1200 X85.94 Y97.82 E42.61221
G0 F3600 X86.506 Y97.82
G1 F1200 X72.866 Y84.18 E42.97507
G0 F3600 X73.432 Y84.18
G1 F1200 X87.072 Y97.82 E43.33792
G0 F3600 X87.637 Y97.82
G1 F1200 X73.997 Y84.18 E43.70077
G0 F3600 X74.563 Y84.18
G1 F1200 X88.203 Y97.82 E44.06363
G0 F3600 X88.769 Y97.82
G1 F1200 X75.129 Y84.18 E44.42648
G0 F3600 X75.694 Y84.18
G1 F1200 X89.334 Y97.82 E44.78933
G0 F3600 X89.9 Y97.82
G1 F1200 X76.26 Y84.18 E45.15219
G0 F3600 X76.826 Y84.18
G1 F1200 X90.466 Y97.82 E45.51504
G0 F3600 X91.032 Y97.82
G1 F1200 X77.391 Y84.18 E45.87791
G0 F3600 X77.957 Y84.18
G1 F1200 X91.597 Y97.82 E46.24076
G0 F3600 X92.163 Y97.82
G1 F1200 X78.523 Y84.18 E46.60361
G0 F3600 X79.088 Y84.18
G1 F1200 X92.729 Y97.82 E46.96648
G0 F3600 X93.294 Y97.82
G1 F1200 X79.654 Y84.18 E47.32933
G0 F3600 X80.22 Y84.18
G1 F1200 X93.86 Y97.82 E47.69219
G0 F3600 X94.426 Y97.82
G1 F1200 X80.786 Y84.18 E48.05504
G0 F3600 X81.351 Y84.18
G1 F1200 X94.991 Y97.82 E48.41789
G0 F3600 X95.529 Y97.792
G1 F1200 X81.917 Y84.18 E48.78
G0 F3600 X82.483 Y84.18
G1 F1200 X95.812 Y97.509 E49.13458
G0 F3600 X96.095 Y97.226
G1 F1200 X83.048 Y84.18 E49.48165
G0 F3600 X83.614 Y84.18
G1 F1200 X96.378 Y96.944 E49.8212
G0 F3600 X96.661 Y96.661
G1 F1200 X84.18 Y84.18 E50.15322
G0 F3600 X84.745 Y84.18
G1 F1200 X96.944 Y96.378 E50.47772
G0 F3600 X97.226 Y96.095
G1 F1200 X85.311 Y84.18 E50.79469
G0 F3600 X85.877 Y84.18
G1 F1200 X97.509 Y95.812 E51.10412
G0 F3600 X97.792 Y95.529
G1 F1200 X86.442 Y84.18 E51.40605
G0 F3600 X87.008 Y84.18
G1 F1200 X97.82 Y94.991 E51.69365
G0 F3600 X97.82 Y94.426
G1 F1200 X87.574 Y84.18 E51.96622
G0 F3600 X88.139 Y84.18
G1 F1200 X97.82 Y93.86 E52.22374
G0 F3600 X97.82 Y93.294
G1 F1200 X88.705 Y84.18 E52.46621
G0 F3600 X89.271 Y84.18
G1 F1200 X97.82 Y92.729 E52.69363
G0 F3600 X97.82 Y92.163
G1 F1200 X89.837 Y84.18 E52.90599
G0 F3600 X90.402 Y84.18
G1 F1200 X97.82 Y91.597 E53.10332
G0 F3600 X97.82 Y91.032
G1 F1200 X90.968 Y84.18 E53.28559
G0 F3600 X91.534 Y84.18
G1 F1200 X97.82 Y90.466 E53.45281
G0 F3600 X97.82 Y89.9
G1 F1200 X92.099 Y84.18 E53.60499
G0 F3600 X92.665 Y84.18
G1 F1200 X97.82 Y89.334 E53.74211
G0 F3600 X97.82 Y88.769
G1 F1200 X93.231 Y84.18 E53.86419
G0 F3600 X93.796 Y84.18
G1 F1200 X97.82 Y88.203 E53.97122
G0 F3600 X97.82 Y87.637
G1 F1200 X94.362 Y84.18 E54.0632
G0 F3600 X94.928 Y84.18
G1 F1200 X97.82 Y87.072 E54.14013
G0 F3600 X97.82 Y86.506
G1 F1200 X95.407 Y84.093 E54.20433
G0 F3600 X95.765 Y83.885
G1 F1200 X97.82 Y85.94 E54.25899
G0 F3600 X97.82 Y85.375
G1 F1200 X96.005 Y83.56 E54.30728
G0 F3600 X96.175 Y83.164
G1 F1200 X97.82 Y84.809 E54.35104
G0 F3600 X97.82 Y84.243
G1 F1200 X96.175 Y82.599 E54.39478
G0 F3600 X96.175 Y82.033
G1 F1200 X97.82 Y83.678 E54.43854
G0 F3600 X97.82 Y83.112
G1 F1200 X96.175 Y81.467 E54.4823
G0 F3600 X96.175 Y80.902
G1 F1200 X97.82 Y82.546 E54.52605
G0 F3600 X97.82 Y81.981
G1 F1200 X96.175 Y80.336 E54.56981
G0 F3600 X96.175 Y79.77
G1 F1200 X97.82 Y81.415 E54.61357
G0 F3600 X97.82 Y80.849
G1 F1200 X96.175 Y79.204 E54.65733
G0 F3600 X96.175 Y78.639
G1 F1200 X97.82 Y80.283 E54.70108
G0 F3600 X97.82 Y79.718
G1 F1200 X96.175 Y78.073 E54.74484
G0 F3600 X96.175 Y77.507
G1 F1200 X97.82 Y79.152 E54.7886
G0 F3600 X97.82 Y78.586
G1 F1200 X96.175 Y76.942 E54.83235
G0 F3600 X96.175 Y76.376
G1 F1200 X97.82 Y78.021 E54.87611
G0 F3600 X97.82 Y77.455
G1 F1200 X96.175 Y75.81 E54.91987
G0 F3600 X96.175 Y75.245
G1 F1200 X97.82 Y76.889 E54.96362
G0 F3600 X97.82 Y76.324
G1 F1200 X96.175 Y74.679 E55.00738
G0 F3600 X96.175 Y74.113
G1 F1200 X97.82 Y75.758 E55.05114
G0 F3600 X97.82 Y75.192
G1 F1200 X96.175 Y73.548 E55.09489
G0 F3600 X96.175 Y72.982
G1 F1200 X97.82 Y74.627 E55.13865
G0 F3600 X97.82 Y74.061
G1 F1200 X96.175 Y72.416 E55.18241
G0 F3600 X96.175 Y71.851
G1 F1200 X97.82 Y73.495 E55.22615
G0 F3600 X97.82 Y72.93
G1 F1200 X96.175 Y71.285 E55.26991
G0 F3600 X96.175 Y70.719
G1 F1200 X97.82 Y72.364 E55.31367
G0 F3600 X97.82 Y71.798
G1 F1200 X96.175 Y70.153 E55.35744
G0 F3600 X96.175 Y69.588
G1 F1200 X97.82 Y71.233 E55.4012
G0 F3600 X97.82 Y70.667
G1 F1200 X96.175 Y69.022 E55.44496
G0 F3600 X96.175 Y68.456
G1 F1200 X97.82 Y70.101 E55.48872
G0 F3600 X97.82 Y69.535
G1 F1200 X96.175 Y67.891 E55.53246
G0 F3600 X96.175 Y67.325
G1 F1200 X97.82 Y68.97 E55.57622
G0 F3600 X97.82 Y68.404
G1 F1200 X96.175 Y66.759 E55.61998
G0 F3600 X96.175 Y66.194
G1 F1200 X97.82 Y67.838 E55.66373
G0 F3600 X97.82 Y67.273
G1 F1200 X96.175 Y65.628 E55.70749
G0 F3600 X96.175 Y65.062
G1 F1200 X97.82 Y66.707 E55.75125
G0 F3600 X97.82 Y66.141
G1 F1200 X96.175 Y64.497 E55.795
G0 F3600 X96.175 Y63.931
G1 F1200 X97.82 Y65.576 E55.83876
G0 F3600 X97.82 Y65.01
G1 F1200 X96.175 Y63.365 E55.88252
G0 F3600 X96.175 Y62.8
G1 F1200 X97.82 Y64.444 E55.92627
G0 F3600 X97.82 Y63.879
G1 F1200 X96.175 Y62.234 E55.97003
G0 F3600 X96.175 Y61.668
G1 F1200 X97.82 Y63.313 E56.01379
G0 F3600 X97.82 Y62.747
G1 F1200 X96.175 Y61.103 E56.05754
G0 F3600 X96.175 Y60.537
G1 F1200 X97.82 Y62.182 E56.1013
G0 F3600 X97.82 Y61.616
G1 F1200 X96.175 Y59.971 E56.14506
G0 F3600 X96.175 Y59.405
G1 F1200 X97.82 Y61.05 E56.18882
G0 F3600 X97.82 Y60.484
G1 F1200 X96.175 Y58.84 E56.23257
G0 F3600 X96.175 Y58.274
G1 F1200 X97.82 Y59.919 E56.27633
G0 F3600 X97.82 Y59.353
G1 F1200 X96.175 Y57.708 E56.32009
G0 F3600 X96.175 Y57.143
G1 F1200 X97.82 Y58.787 E56.36383
G0 F3600 X97.82 Y58.222
G1 F1200 X96.175 Y56.577 E56.40759
G0 F3600 X96.175 Y56.011
G1 F1200 X97.82 Y57.656 E56.45136
G0 F3600 X97.82 Y57.09
G1 F1200 X96.175 Y55.446 E56.4951
G0 F3600 X96.175 Y54.88
G1 F1200 X97.82 Y56.525 E56.53886
G0 F3600 X97.82 Y55.959
G1 F1200 X96.175 Y54.314 E56.58262
G0 F3600 X96.096 Y53.669
G1 F1200 X97.82 Y55.393 E56.62849
G0 F3600 X97.82 Y54.828
G1 F1200 X94.172 Y51.18 E56.72553
G0 F3600 X93.607 Y51.18
G1 F1200 X95.314 Y52.887 E56.77094
G0 F3600 X94.682 Y52.821
G1 F1200 X93.041 Y51.18 E56.81459
G0 F3600 X92.475 Y51.18
G1 F1200 X94.116 Y52.821 E56.85825
G0 F3600 X93.55 Y52.821
G1 F1200 X91.91 Y51.18 E56.90189
G0 F3600 X91.344 Y51.18
G1 F1200 X92.985 Y52.821 E56.94554
G0 F3600 X92.419 Y52.821
G1 F1200 X90.778 Y51.18 E56.9892
G0 F3600 X90.213 Y51.18
G1 F1200 X91.853 Y52.821 E57.03284
G0 F3600 X91.287 Y52.821
G1 F1200 X89.647 Y51.18 E57.07648
G0 F3600 X89.081 Y51.18
G1 F1200 X90.722 Y52.821 E57.12013
G0 F3600 X90.156 Y52.821
G1 F1200 X88.516 Y51.18 E57.16377
G0 F3600 X87.95 Y51.18
G1 F1200 X89.59 Y52.821 E57.20741
G0 F3600 X89.025 Y52.821
G1 F1200 X87.384 Y51.18 E57.25107
G0 F3600 X86.819 Y51.18
G1 F1200 X88.459 Y52.821 E57.29471
G0 F3600 X87.893 Y52.821
G1 F1200 X86.253 Y51.18 E57.33835
G0 F3600 X85.687 Y51.18
G1 F1200 X87.328 Y52.821 E57.382
G0 F3600 X86.762 Y52.821
G1 F1200 X85.122 Y51.18 E57.42565
G0 F3600 X84.556 Y51.18
G1 F1200 X86.196 Y52.821 E57.46929
G0 F3600 X85.631 Y52.821
G1 F1200 X83.99 Y51.18 E57.51294
G0 F3600 X83.424 Y51.18
G1 F1200 X85.065 Y52.821 E57.55659
G0 F3600 X84.499 Y52.821
G1 F1200 X82.859 Y51.18 E57.60024
G0 F3600 X82.293 Y51.18
G1 F1200 X83.934 Y52.821 E57.64389
G0 F3600 X83.368 Y52.821
G1 F1200 X81.727 Y51.18 E57.68754
G0 F3600 X81.162 Y51.18
G1 F1200 X82.802 Y52.821 E57.73118
G0 F3600 X82.237 Y52.821
G1 F1200 X80.596 Y51.18 E57.77484
G0 F3600 X80.03 Y51.18
G1 F1200 X81.671 Y52.821 E57.81849
G0 F3600 X81.105 Y52.821
