;FLAVOR:Marlin
;TIME:6666
;Filament used: 0m
;Layer height: 0.2
;MINX:2.14748e+06
;MINY:2.14748e+06
;MINZ:2.14748e+06
;MAXX:-2.14748e+06
;MAXY:-2.14748e+06
;MAXZ:-2.14748e+06
;TARGET_MACHINE.NAME:Unknown

;Generated with Cura_SteamEngine 5.9.0
M104 S260
M105
M109 S260
M82 ;absolute extrusion mode
START_PRINT BED_TEMP={material_bed_temperature_layer_0} EXTRUDER_TEMP={material_print_temperature_layer_0}
G92 E0
G92 E0
G1 F2880 E-7
;LAYER_COUNT:49
;LAYER:0
M107
G1 F600 Z0.55
G0 F3600 X26.638 Y54.216 Z0.55
;TYPE:SKIRT
G1 F600 Z0.3
G1 F2520 E0
G1 F1800 X26.534 Y53.594 E0.01186
G1 X26.417 Y52.714 E0.02856
G1 X26.357 Y52.121 E0.03977
G1 X26.297 Y51.312 E0.05503
G1 X26.273 Y50.74 E0.0658
G1 X26.258 Y49.654 E0.08623
G1 X26.312 Y48.432 E0.10924
G1 X26.355 Y47.887 E0.11952
G1 X26.43 Y47.18 E0.1329
G1 X26.522 Y46.49 E0.14599
G1 X26.666 Y45.636 E0.16228
G1 X26.77 Y45.111 E0.17235
G1 X27.014 Y44.049 E0.19285
G1 X27.427 Y42.633 E0.22059
G1 X27.826 Y41.521 E0.24282
G1 X28.024 Y41.015 E0.25304
G1 X28.333 Y40.297 E0.26774
G1 X28.563 Y39.8 E0.27804
G1 X28.996 Y38.937 E0.2962
G1 X29.389 Y38.216 E0.31165
G1 X30.023 Y37.167 E0.33471
G1 X30.492 Y36.466 E0.35057
G1 X30.815 Y36.013 E0.36104
G1 X31.238 Y35.452 E0.37425
G1 X31.575 Y35.031 E0.3844
G1 X32.22 Y34.272 E0.40313
G1 X32.612 Y33.839 E0.41412
G1 X33.133 Y33.297 E0.42826
G1 X33.558 Y32.879 E0.43948
G1 X34.217 Y32.267 E0.45639
G1 X34.659 Y31.883 E0.46741
G1 X35.509 Y31.184 E0.48811
G1 X36.311 Y30.603 E0.50674
G1 X36.951 Y30.168 E0.52129
G1 X37.934 Y29.547 E0.54317
G1 X39.428 Y28.744 E0.57507
G1 X40.001 Y28.472 E0.587
G1 X41.119 Y27.982 E0.60996
G1 X42.057 Y27.624 E0.62885
G1 X42.699 Y27.411 E0.64157
G1 X43.431 Y27.186 E0.65598
G1 X44.136 Y26.996 E0.66971
G1 X45.087 Y26.773 E0.68809
G1 X46.358 Y26.54 E0.71239
G1 X47.012 Y26.448 E0.72482
G1 X48.059 Y26.34 E0.74462
G1 X48.939 Y26.284 E0.7612
G1 X49.676 Y26.262 E0.77507
G1 X50.428 Y26.26 E0.78922
G1 X51.97 Y26.34 E0.81826
G1 X52.594 Y26.401 E0.83006
G1 X53.61 Y26.531 E0.84932
G1 X55.068 Y26.803 E0.87722
G1 X56.331 Y27.117 E0.9017
G1 X57.252 Y27.392 E0.91978
G1 X58.008 Y27.651 E0.93482
G1 X59.013 Y28.039 E0.95508
G1 X59.956 Y28.447 E0.97441
G1 X60.644 Y28.781 E0.98879
G1 X61.414 Y29.184 E1.00514
G1 X62.351 Y29.721 E1.02546
G1 X62.936 Y30.093 E1.0385
G1 X63.81 Y30.701 E1.05852
G1 X64.755 Y31.394 E1.08057
G1 X65.398 Y31.929 E1.0963
G1 X65.912 Y32.384 E1.10921
G1 X66.528 Y32.959 E1.12507
G1 X67.226 Y33.652 E1.14357
G1 X68.17 Y34.718 E1.17035
G1 X68.711 Y35.388 E1.18655
G1 X69.293 Y36.167 E1.20484
G1 X69.69 Y36.741 E1.21797
G1 X69.984 Y37.194 E1.22813
G1 X70.806 Y38.57 E1.25828
G1 X71.105 Y39.134 E1.27029
G1 X71.491 Y39.92 E1.28676
G1 X71.747 Y40.487 E1.29846
G1 X72.051 Y41.236 E1.31367
G1 X72.236 Y41.853 E1.32578
G1 X72.328 Y42.559 E1.33918
G1 X72.337 Y56.66 E1.60442
G1 X72.325 Y57.406 E1.61846
G1 X72.25 Y58.082 E1.63125
G1 X72.065 Y58.73 E1.64393
G1 X71.747 Y59.519 E1.65993
G1 X71.31 Y60.476 E1.67972
G1 X70.623 Y61.754 E1.70701
G1 X69.744 Y63.202 E1.73888
G1 X69.151 Y64.029 E1.75802
G1 X68.652 Y64.691 E1.77361
G1 X67.857 Y65.648 E1.79701
G1 X66.945 Y66.631 E1.82224
G1 X66.524 Y67.045 E1.83334
G1 X65.847 Y67.678 E1.85078
G1 X65.441 Y68.031 E1.8609
G1 X64.667 Y68.668 E1.87975
G1 X63.88 Y69.247 E1.89813
G1 X62.867 Y69.947 E1.9213
G1 X62.138 Y70.401 E1.93745
G1 X61.322 Y70.867 E1.95513
G1 X60.603 Y71.239 E1.97035
G1 X60.082 Y71.49 E1.98123
G1 X59.106 Y71.925 E2.00133
G1 X58.354 Y72.223 E2.01655
G1 X57.204 Y72.624 E2.03946
G1 X56.059 Y72.956 E2.06188
G1 X55.035 Y73.203 E2.0817
G1 X54.171 Y73.373 E2.09826
G1 X53.304 Y73.51 E2.11477
G1 X52.58 Y73.598 E2.12849
G1 X51.865 Y73.663 E2.142
G1 X50.926 Y73.72 E2.15969
G1 X50.032 Y73.744 E2.17651
G1 X48.914 Y73.718 E2.19755
G1 X47.879 Y73.646 E2.21707
G1 X46.913 Y73.539 E2.23535
G1 X46.23 Y73.441 E2.24833
G1 X45.322 Y73.276 E2.26569
G1 X44.371 Y73.067 E2.284
G1 X43.394 Y72.803 E2.30304
G1 X42.842 Y72.637 E2.31388
G1 X42.074 Y72.376 E2.32914
G1 X40.97 Y71.953 E2.35138
G1 X39.551 Y71.326 E2.38056
G1 X38.723 Y70.892 E2.39815
G1 X37.991 Y70.479 E2.41396
G1 X37.044 Y69.892 E2.43492
G1 X36.554 Y69.567 E2.44598
G1 X35.487 Y68.789 E2.47082
G1 X34.892 Y68.306 E2.48523
G1 X33.814 Y67.374 E2.51204
G1 X33.027 Y66.598 E2.53283
G1 X32.631 Y66.181 E2.54364
G1 X32.047 Y65.532 E2.56007
G1 X31.681 Y65.098 E2.57075
G1 X31.18 Y64.469 E2.58587
G1 X30.843 Y64.02 E2.59643
G1 X30.361 Y63.341 E2.6121
G1 X30 Y62.794 E2.62442
G1 X29.612 Y62.162 E2.63837
G1 X29.317 Y61.646 E2.64955
G1 X28.733 Y60.559 E2.67277
G1 X28.3 Y59.624 E2.69215
G1 X28.033 Y59 E2.70492
G1 X27.728 Y58.217 E2.72072
G1 X27.54 Y57.685 E2.73134
G1 X27.313 Y56.99 E2.74509
G1 X27.131 Y56.365 E2.75733
G1 X26.905 Y55.491 E2.77431
G1 X26.788 Y54.971 E2.78434
G1 X26.638 Y54.216 E2.79882
G0 F3600 X27.295 Y55.403
G1 F1800 X27.18 Y54.893 E2.80865
G1 X27.033 Y54.15 E2.8229
G1 X26.929 Y53.528 E2.83476
G1 X26.815 Y52.674 E2.85097
G1 X26.756 Y52.091 E2.86199
G1 X26.697 Y51.295 E2.87701
G1 X26.673 Y50.734 E2.88757
G1 X26.658 Y49.672 E2.90755
G1 X26.711 Y48.463 E2.93031
G1 X26.753 Y47.929 E2.94039
G1 X26.826 Y47.233 E2.95355
G1 X26.917 Y46.556 E2.9664
G1 X27.058 Y45.714 E2.98246
G1 X27.16 Y45.2 E2.99232
G1 X27.398 Y44.161 E3.01237
G1 X27.804 Y42.768 E3.03966
G1 X28.199 Y41.667 E3.06166
G1 X28.392 Y41.173 E3.07164
G1 X28.696 Y40.465 E3.08613
G1 X28.921 Y39.979 E3.09621
G1 X29.347 Y39.128 E3.11411
G1 X29.731 Y38.423 E3.12921
G1 X30.356 Y37.389 E3.15194
G1 X30.818 Y36.698 E3.16757
G1 X31.134 Y36.254 E3.17783
G1 X31.551 Y35.702 E3.19084
G1 X31.88 Y35.29 E3.20076
G1 X32.517 Y34.54 E3.21927
G1 X32.9 Y34.116 E3.23001
G1 X33.413 Y33.582 E3.24394
G1 X33.83 Y33.172 E3.25494
G1 X34.479 Y32.569 E3.27161
G1 X34.913 Y32.192 E3.28242
G1 X35.744 Y31.508 E3.30267
G1 X36.536 Y30.934 E3.32107
G1 X37.165 Y30.506 E3.33538
G1 X38.148 Y29.885 E3.35725
G1 X39.6 Y29.105 E3.38825
G1 X40.162 Y28.838 E3.39996
G1 X41.262 Y28.356 E3.42255
G1 X42.183 Y28.004 E3.44109
G1 X42.817 Y27.793 E3.45366
G1 X43.535 Y27.572 E3.4678
G1 X44.227 Y27.385 E3.48128
G1 X45.159 Y27.166 E3.49929
G1 X46.414 Y26.936 E3.52329
G1 X47.053 Y26.846 E3.53543
G1 X48.084 Y26.739 E3.55492
G1 X48.951 Y26.684 E3.57127
G1 X49.677 Y26.662 E3.58493
G1 X50.429 Y26.66 E3.59907
G1 X51.931 Y26.738 E3.62737
G1 X52.543 Y26.798 E3.63893
G1 X53.559 Y26.928 E3.6582
G1 X54.972 Y27.191 E3.68524
G1 X56.216 Y27.5 E3.70935
G1 X57.123 Y27.771 E3.72715
G1 X57.864 Y28.024 E3.74188
G1 X58.854 Y28.406 E3.76184
G1 X59.781 Y28.807 E3.78084
G1 X60.469 Y29.141 E3.79523
G1 X61.215 Y29.531 E3.81106
G1 X62.136 Y30.059 E3.83103
G1 X62.721 Y30.431 E3.84407
G1 X63.574 Y31.024 E3.86362
G1 X64.499 Y31.702 E3.88519
G1 X65.133 Y32.229 E3.9007
G1 X65.639 Y32.676 E3.9134
G1 X66.246 Y33.243 E3.92902
G1 X66.944 Y33.936 E3.94752
G1 X67.859 Y34.969 E3.97348
G1 X68.391 Y35.627 E3.9894
G1 X68.964 Y36.394 E4.00741
G1 X69.354 Y36.959 E4.02032
G1 X69.648 Y37.412 E4.03048
G1 X70.453 Y38.758 E4.05998
G1 X70.746 Y39.31 E4.07174
G1 X71.127 Y40.085 E4.08798
G1 X71.377 Y40.638 E4.0994
G1 X71.669 Y41.354 E4.11394
G1 X71.839 Y41.905 E4.12479
G1 X71.931 Y42.611 E4.13818
G1 X71.937 Y56.654 E4.40234
G1 X71.927 Y57.365 E4.41571
G1 X71.865 Y57.972 E4.42719
G1 X71.68 Y58.62 E4.43987
G1 X71.383 Y59.353 E4.45474
G1 X70.946 Y60.31 E4.47453
G1 X70.281 Y61.547 E4.50095
G1 X69.419 Y62.969 E4.53223
G1 X68.832 Y63.788 E4.55119
G1 X68.344 Y64.435 E4.56643
G1 X67.549 Y65.392 E4.58983
G1 X66.665 Y66.346 E4.6143
G1 X66.251 Y66.753 E4.62522
G1 X65.585 Y67.376 E4.64237
G1 X65.187 Y67.722 E4.65229
G1 X64.43 Y68.346 E4.67075
G1 X63.653 Y68.918 E4.6889
G1 X62.655 Y69.608 E4.71172
G1 X61.94 Y70.054 E4.72757
G1 X61.138 Y70.512 E4.74494
G1 X60.429 Y70.879 E4.75996
G1 X59.919 Y71.125 E4.77061
G1 X58.958 Y71.553 E4.7904
G1 X58.222 Y71.845 E4.8053
G1 X57.072 Y72.246 E4.8282
G1 X55.965 Y72.567 E4.84989
G1 X54.941 Y72.814 E4.8697
G1 X54.108 Y72.978 E4.88567
G1 X53.255 Y73.113 E4.90192
G1 X52.544 Y73.2 E4.91539
G1 X51.841 Y73.264 E4.92867
G1 X50.915 Y73.32 E4.94612
G1 X50.041 Y73.344 E4.96256
G1 X48.942 Y73.319 E4.98324
G1 X47.923 Y73.248 E5.00246
G1 X46.97 Y73.143 E5.02049
G1 X46.301 Y73.047 E5.03321
G1 X45.408 Y72.885 E5.05028
G1 X44.457 Y72.676 E5.06859
G1 X43.509 Y72.42 E5.08706
G1 X42.97 Y72.258 E5.09765
G1 X42.217 Y72.003 E5.11261
G1 X41.132 Y71.587 E5.13446
G1 X39.713 Y70.96 E5.16365
G1 X38.92 Y70.544 E5.18049
G1 X38.202 Y70.139 E5.196
G1 X37.265 Y69.559 E5.21673
G1 X36.79 Y69.244 E5.22745
G1 X35.723 Y68.466 E5.25229
G1 X35.154 Y68.003 E5.26609
G1 X34.076 Y67.071 E5.29289
G1 X33.317 Y66.322 E5.31295
G1 X32.928 Y65.913 E5.32357
G1 X32.353 Y65.274 E5.33974
G1 X31.994 Y64.849 E5.3502
G1 X31.5 Y64.229 E5.36511
G1 X31.169 Y63.789 E5.37547
G1 X30.695 Y63.121 E5.39088
G1 X30.341 Y62.584 E5.40298
G1 X29.959 Y61.963 E5.41669
G1 X29.669 Y61.457 E5.42766
G1 X29.096 Y60.391 E5.45043
G1 X28.668 Y59.467 E5.46958
G1 X28.406 Y58.855 E5.48211
G1 X28.105 Y58.083 E5.49769
G1 X27.92 Y57.561 E5.50811
G1 X27.697 Y56.878 E5.52162
G1 X27.518 Y56.265 E5.53364
G1 X27.295 Y55.403 E5.55039
G0 F3600 X27.905 Y56.165
G1 F1800 X27.685 Y55.315 E5.5669
G1 X27.572 Y54.816 E5.57653
G1 X27.428 Y54.084 E5.59056
G1 X27.324 Y53.462 E5.60242
G1 X27.213 Y52.634 E5.61814
G1 X27.155 Y52.061 E5.62897
G1 X27.097 Y51.278 E5.64374
G1 X27.073 Y50.728 E5.65409
G1 X27.058 Y49.689 E5.67364
G1 X27.11 Y48.494 E5.69614
G1 X27.151 Y47.97 E5.70603
G1 X27.222 Y47.287 E5.71894
G1 X27.312 Y46.622 E5.73157
G1 X27.45 Y45.792 E5.74739
G1 X27.55 Y45.289 E5.75704
G1 X27.782 Y44.273 E5.77664
G1 X28.188 Y42.88 E5.80394
G1 X28.571 Y41.813 E5.82526
G1 X28.76 Y41.331 E5.835
G1 X29.059 Y40.633 E5.84928
G1 X29.279 Y40.158 E5.85913
G1 X29.698 Y39.319 E5.87677
G1 X30.073 Y38.63 E5.89153
G1 X30.689 Y37.611 E5.91393
G1 X31.144 Y36.93 E5.92933
G1 X31.453 Y36.495 E5.93937
G1 X31.863 Y35.952 E5.95217
G1 X32.185 Y35.549 E5.96187
G1 X32.814 Y34.808 E5.98015
G1 X33.189 Y34.393 E5.99068
G1 X33.693 Y33.867 E6.00438
G1 X34.102 Y33.465 E6.01517
G1 X34.742 Y32.871 E6.03159
G1 X35.167 Y32.501 E6.04219
G1 X35.979 Y31.832 E6.06198
G1 X36.761 Y31.265 E6.08015
G1 X37.379 Y30.844 E6.09422
G1 X38.362 Y30.223 E6.11609
G1 X39.772 Y29.466 E6.14619
G1 X40.322 Y29.204 E6.15765
G1 X41.405 Y28.73 E6.17989
G1 X42.326 Y28.378 E6.19844
G1 X42.935 Y28.175 E6.21051
G1 X43.64 Y27.958 E6.22439
G1 X44.319 Y27.774 E6.23762
G1 X45.231 Y27.559 E6.25525
G1 X46.47 Y27.332 E6.27894
G1 X47.095 Y27.244 E6.29081
G1 X48.109 Y27.138 E6.30999
G1 X48.963 Y27.084 E6.32609
G1 X49.678 Y27.062 E6.33954
G1 X50.43 Y27.06 E6.35369
G1 X51.892 Y27.136 E6.38123
G1 X52.492 Y27.195 E6.39257
G1 X53.508 Y27.325 E6.41183
G1 X54.876 Y27.579 E6.43801
G1 X56.101 Y27.883 E6.46175
G1 X56.994 Y28.15 E6.47928
G1 X57.72 Y28.397 E6.49371
G1 X58.695 Y28.773 E6.51336
G1 X59.607 Y29.167 E6.53205
G1 X60.284 Y29.495 E6.5462
G1 X61.016 Y29.878 E6.56174
G1 X61.922 Y30.397 E6.58138
G1 X62.493 Y30.759 E6.5941
G1 X63.338 Y31.347 E6.61346
G1 X64.243 Y32.01 E6.63457
G1 X64.877 Y32.537 E6.65008
G1 X65.366 Y32.968 E6.66234
G1 X65.964 Y33.527 E6.67773
G1 X66.662 Y34.22 E6.69624
G1 X67.548 Y35.22 E6.72137
G1 X68.071 Y35.867 E6.73702
G1 X68.635 Y36.621 E6.75473
G1 X69.019 Y37.177 E6.76744
G1 X69.305 Y37.617 E6.77731
G1 X70.1 Y38.945 E6.80643
G1 X70.387 Y39.487 E6.81796
G1 X70.763 Y40.25 E6.83396
G1 X71.007 Y40.789 E6.84509
G1 X71.288 Y41.476 E6.85905
G1 X71.442 Y41.957 E6.86856
G1 X71.534 Y42.663 E6.88195
G1 X71.537 Y56.648 E7.14501
G1 X71.527 Y57.359 E7.15839
G1 X71.48 Y57.862 E7.16789
G1 X71.295 Y58.51 E7.18057
G1 X71.019 Y59.187 E7.19432
G1 X70.582 Y60.144 E7.21411
G1 X69.939 Y61.34 E7.23965
G1 X69.094 Y62.736 E7.27035
G1 X68.513 Y63.547 E7.28911
G1 X68.036 Y64.18 E7.30402
G1 X67.256 Y65.12 E7.327
G1 X66.384 Y66.061 E7.35113
G1 X65.978 Y66.461 E7.36185
G1 X65.322 Y67.074 E7.37874
G1 X64.932 Y67.414 E7.38848
G1 X64.193 Y68.024 E7.4065
G1 X63.425 Y68.589 E7.42443
G1 X62.443 Y69.269 E7.4469
G1 X61.742 Y69.707 E7.46245
G1 X60.954 Y70.157 E7.47952
G1 X60.255 Y70.519 E7.49433
G1 X59.756 Y70.76 E7.50475
G1 X58.811 Y71.181 E7.52421
G1 X58.09 Y71.467 E7.5388
G1 X56.94 Y71.868 E7.56171
G1 X55.871 Y72.178 E7.58265
G1 X54.847 Y72.425 E7.60246
G1 X54.045 Y72.583 E7.61784
G1 X53.206 Y72.716 E7.63382
G1 X52.508 Y72.802 E7.64705
G1 X51.817 Y72.865 E7.6601
G1 X50.904 Y72.92 E7.67731
G1 X50.05 Y72.944 E7.69338
G1 X48.97 Y72.92 E7.7137
G1 X47.967 Y72.85 E7.73261
G1 X47.027 Y72.747 E7.7504
G1 X46.372 Y72.653 E7.76284
G1 X45.494 Y72.494 E7.77963
G1 X44.543 Y72.285 E7.79794
G1 X43.624 Y72.037 E7.81585
G1 X43.098 Y71.879 E7.82618
G1 X42.36 Y71.629 E7.84084
G1 X41.294 Y71.221 E7.86231
G1 X39.875 Y70.594 E7.89149
G1 X39.116 Y70.196 E7.90761
G1 X38.412 Y69.799 E7.92281
G1 X37.486 Y69.226 E7.9433
G1 X37.026 Y68.921 E7.95368
G1 X35.976 Y68.156 E7.97812
G1 X35.416 Y67.7 E7.9917
G1 X34.338 Y66.768 E8.01851
G1 X33.607 Y66.046 E8.03783
G1 X33.225 Y65.645 E8.04825
G1 X32.659 Y65.016 E8.06417
G1 X32.307 Y64.599 E8.07443
G1 X31.819 Y63.988 E8.08914
G1 X31.495 Y63.558 E8.09927
G1 X31.029 Y62.901 E8.11442
G1 X30.682 Y62.374 E8.12629
G1 X30.306 Y61.764 E8.13977
G1 X30.021 Y61.268 E8.15053
G1 X29.459 Y60.223 E8.17285
G1 X29.036 Y59.31 E8.19178
G1 X28.779 Y58.709 E8.20407
G1 X28.482 Y57.949 E8.21942
G1 X28.3 Y57.437 E8.22964
G1 X28.081 Y56.765 E8.24294
G1 X27.905 Y56.165 E8.2547
G1 F2880 E1.2547
G1 F600 Z0.55
;MESH:./cam2c-wedge/Cam2c_wedge.stl
G0 F3600 X41.226 Y54.541 Z0.55
;TYPE:WALL-INNER
G1 F600 Z0.3
G1 F2520 E8.2547
G1 F1200 X40.614 Y54.664 E8.26644
G1 X39.983 Y54.703 E8.27833
G1 X39.404 Y54.663 E8.28925
G1 X38.78 Y54.536 E8.30123
G1 X38.221 Y54.338 E8.31239
G1 X37.679 Y54.064 E8.32381
G1 X37.247 Y53.776 E8.33358
G1 X36.738 Y53.335 E8.34624
G1 X36.34 Y52.869 E8.35777
G1 X36.052 Y52.437 E8.36754
G1 X35.748 Y51.824 E8.38041
G1 X35.559 Y51.256 E8.39167
G1 X35.449 Y50.674 E8.40281
G1 X35.413 Y50.154 E8.41262
G1 X35.449 Y49.535 E8.42428
G1 X35.559 Y48.951 E8.43546
G1 X35.755 Y48.361 E8.44715
G1 X36.052 Y47.767 E8.45965
G1 X36.365 Y47.3 E8.47022
G1 X36.761 Y46.849 E8.48151
G1 X37.211 Y46.454 E8.49277
G1 X37.695 Y46.13 E8.50373
G1 X38.292 Y45.836 E8.51625
G1 X38.78 Y45.668 E8.52596
G1 X39.418 Y45.54 E8.5382
G1 X39.979 Y45.504 E8.54877
G1 X40.619 Y45.541 E8.56083
G1 X41.218 Y45.66 E8.57232
G1 X41.782 Y45.854 E8.58354
G1 X42.315 Y46.119 E8.59473
G1 X42.794 Y46.437 E8.60555
G1 X43.252 Y46.838 E8.617
G1 X43.688 Y47.335 E8.62944
G1 X43.997 Y47.801 E8.63995
G1 X44.255 Y48.32 E8.65086
G1 X44.462 Y48.918 E8.66276
G1 X44.576 Y49.515 E8.67419
G1 X44.612 Y50.073 E8.68471
G1 X44.575 Y50.712 E8.69675
G1 X44.448 Y51.336 E8.70873
G1 X44.277 Y51.833 E8.71861
G1 X44.01 Y52.38 E8.73006
G1 X43.661 Y52.907 E8.74195
G1 X43.255 Y53.367 E8.7535
G1 X42.83 Y53.74 E8.76413
G1 X42.283 Y54.102 E8.77647
G1 X41.734 Y54.368 E8.78795
G1 X41.226 Y54.541 E8.79804
G0 F3600 X41.325 Y54.836
G0 X52.507 Y68.67
G0 X52.539 Y68.977
G1 F1200 X53.759 Y68.775 E8.8213
G1 X54.879 Y68.515 E8.84293
G1 X55.933 Y68.205 E8.8636
G1 X57.003 Y67.821 E8.88498
G1 X58.058 Y67.367 E8.90659
G1 X59.133 Y66.828 E8.92921
G1 X60.13 Y66.246 E8.95092
G1 X61.08 Y65.614 E8.97238
G1 X62 Y64.92 E8.99406
G1 X62.872 Y64.175 E9.01564
G1 X63.702 Y63.376 E9.03731
G1 X64.478 Y62.531 E9.05889
G1 X65.199 Y61.646 E9.08036
G1 X65.874 Y60.708 E9.1021
G1 X66.487 Y59.738 E9.12368
G1 X67.037 Y58.738 E9.14515
G1 X67.534 Y57.695 E9.16688
G1 X67.736 Y57.192 E9.17708
G1 X67.736 Y42.805 E9.44771
G1 X67.53 Y42.298 E9.458
G1 X67.037 Y41.258 E9.47965
G1 X66.483 Y40.254 E9.50122
G1 X65.87 Y39.285 E9.52279
G1 X65.195 Y38.35 E9.54448
G1 X64.474 Y37.461 E9.56601
G1 X63.694 Y36.616 E9.58764
G1 X62.868 Y35.817 E9.60926
G1 X62 Y35.077 E9.63072
G1 X61.08 Y34.382 E9.65241
G1 X60.13 Y33.75 E9.67387
G1 X59.133 Y33.168 E9.69559
G1 X58.109 Y32.652 E9.71715
G1 X57.054 Y32.194 E9.73879
G1 X55.98 Y31.807 E9.76026
G1 X54.879 Y31.481 E9.78186
G1 X53.758 Y31.221 E9.80351
G1 X52.539 Y31.015 E9.82676
G1 X51.447 Y30.903 E9.84741
G1 X50.342 Y30.853 E9.86822
G1 X49.194 Y30.868 E9.88982
G1 X48.049 Y30.95 E9.91141
G1 X46.909 Y31.101 E9.93304
G1 X45.788 Y31.318 E9.95452
G1 X44.671 Y31.605 E9.97621
G1 X43.578 Y31.958 E9.99782
G1 X42.515 Y32.373 E10.01928
G1 X41.468 Y32.854 E10.04096
G1 X40.455 Y33.397 E10.06258
