;FLAVOR:Marlin
;TIME:12284
;Filament used: 23.479m
;Layer height: 0.2
;MINX:81.65
;MINY:74.15
;MINZ:0.3
;MAXX:153.35
;MAXY:145.85
;MAXZ:77.9
;TARGET_MACHINE.NAME:Unknown
;Generated with Cura_SteamEngine 5.7.1
M82 ;absolute extrusion mode
START_PRINT BED_TEMP=90 EXTRUDER_TEMP=260
G92 E0
G92 E0
G1 F2880 E-0.5
;LAYER_COUNT:389
;LAYER:0
M107
G1 F600 Z0.5
G0 F4375 X85.117 Y80.335 Z0.5
;TYPE:SKIRT
G1 F600 Z0.3
G1 F2520 E0
G1 F1500 X87.628 Y77.823 E0.23922
G1 X88.15 Y77.319 E0.28809
G1 X88.903 Y76.658 E0.35557
G1 X89.709 Y76.067 E0.42289
G1 X90.482 Y75.594 E0.48393
G1 X91.422 Y75.127 E0.55462
G1 X92.401 Y74.747 E0.62535
G1 X93.271 Y74.494 E0.68637
G1 X94.253 Y74.297 E0.75383
G1 X95.461 Y74.168 E0.83565
G1 X96.544 Y74.15 E0.90861
G1 X138.307 Y74.15 E3.72142
G1 X139.205 Y74.163 E3.78191
G1 X140.11 Y74.216 E3.84296
G1 X141.195 Y74.376 E3.91683
G1 X142.168 Y74.613 E3.98428
G1 X143.027 Y74.901 E4.0453
G1 X144.032 Y75.339 E4.11914
G1 X144.827 Y75.774 E4.18017
G1 X145.757 Y76.396 E4.25553
G1 X146.826 Y77.294 E4.34956
G1 X147.335 Y77.783 E4.3971
G1 X149.553 Y80.001 E4.60836
G1 X150.166 Y80.631 E4.66757
G1 X150.768 Y81.308 E4.72858
G1 X151.367 Y82.109 E4.79595
G1 X151.894 Y82.96 E4.86337
G1 X152.384 Y83.944 E4.9374
G1 X152.715 Y84.787 E4.9984
G1 X153.024 Y85.841 E5.07238
G1 X153.201 Y86.73 E5.13343
G1 X153.334 Y87.949 E5.21602
G1 X153.349 Y88.896 E5.27981
G1 X153.35 Y130.807 E8.10259
G1 X153.337 Y131.705 E8.16308
G1 X153.284 Y132.61 E8.22413
G1 X153.124 Y133.695 E8.298
G1 X152.887 Y134.668 E8.36545
G1 X152.599 Y135.527 E8.42647
G1 X152.161 Y136.532 E8.50031
G1 X151.726 Y137.327 E8.56134
G1 X151.108 Y138.251 E8.63621
G1 X150.303 Y139.223 E8.72122
G1 X149.881 Y139.667 E8.76247
G1 X147.51 Y142.041 E8.98845
G1 X146.862 Y142.671 E9.04932
G1 X146.184 Y143.273 E9.11039
G1 X145.302 Y143.926 E9.1843
G1 X144.529 Y144.399 E9.24534
G1 X143.592 Y144.867 E9.31588
G1 X142.705 Y145.216 E9.38008
G1 X141.65 Y145.525 E9.45412
G1 X140.761 Y145.701 E9.51516
G1 X139.545 Y145.832 E9.59753
G1 X138.438 Y145.85 E9.6721
G1 X96.545 Y145.849 E12.49367
G1 X95.795 Y145.837 E12.54419
G1 X94.89 Y145.784 E12.60525
G1 X93.805 Y145.624 E12.67912
G1 X92.832 Y145.387 E12.74656
G1 X91.973 Y145.099 E12.80758
G1 X90.968 Y144.661 E12.88142
G1 X90.173 Y144.226 E12.94246
G1 X89.249 Y143.608 E13.01733
G1 X88.278 Y142.803 E13.10228
G1 X87.846 Y142.393 E13.14239
G1 X85.453 Y140.006 E13.37004
G1 X84.877 Y139.415 E13.42562
G1 X84.242 Y138.703 E13.48988
G1 X83.587 Y137.823 E13.56376
G1 X83.113 Y137.051 E13.62478
G1 X82.622 Y136.068 E13.69878
G1 X82.276 Y135.182 E13.76285
G1 X82.005 Y134.269 E13.82699
G1 X81.788 Y133.19 E13.90112
G1 X81.669 Y132.063 E13.97745
G1 X81.65 Y130.938 E14.05323
G1 X81.651 Y89.045 E16.87479
G1 X81.663 Y88.295 E16.92532
G1 X81.716 Y87.39 E16.98637
G1 X81.876 Y86.305 E17.06024
G1 X82.113 Y85.332 E17.12769
G1 X82.401 Y84.473 E17.18871
G1 X82.839 Y83.468 E17.26255
G1 X83.274 Y82.673 E17.32358
G1 X83.892 Y81.749 E17.39845
G1 X84.697 Y80.779 E17.48335
G1 X84.847 Y80.621 E17.49802
G0 F1350 X85.117 Y80.335
G0 F4375 X85.499 Y80.717
G1 F1500 X88.003 Y78.211 E17.73663
G1 X88.507 Y77.724 E17.78383
G1 X89.223 Y77.093 E17.84811
G1 X89.991 Y76.528 E17.91232
G1 X90.764 Y76.055 E17.97336
G1 X91.618 Y75.63 E18.03761
G1 X92.552 Y75.266 E18.10512
G1 X93.422 Y75.013 E18.16615
G1 X94.358 Y74.827 E18.23042
G1 X95.47 Y74.708 E18.30574
G1 X96.553 Y74.69 E18.37869
G1 X138.3 Y74.69 E21.19043
G1 X139.173 Y74.702 E21.24923
G1 X140.078 Y74.755 E21.31029
G1 X141.068 Y74.901 E21.37769
G1 X141.996 Y75.125 E21.44199
G1 X142.855 Y75.413 E21.50301
G1 X143.773 Y75.813 E21.57045
G1 X144.568 Y76.248 E21.63149
G1 X145.41 Y76.81 E21.69967
G1 X146.452 Y77.684 E21.79127
G1 X146.953 Y78.165 E21.83805
G1 X149.166 Y80.377 E22.04879
G1 X149.762 Y80.99 E22.10637
G1 X150.364 Y81.667 E22.16739
G1 X150.934 Y82.432 E22.23164
G1 X151.434 Y83.243 E22.29581
G1 X151.881 Y84.141 E22.36337
G1 X152.212 Y84.984 E22.42437
G1 X152.494 Y85.946 E22.49189
G1 X152.671 Y86.835 E22.55294
G1 X152.794 Y87.958 E22.62903
G1 X152.809 Y88.896 E22.69221
G1 X152.81 Y130.8 E25.51452
G1 X152.798 Y131.673 E25.57332
G1 X152.745 Y132.578 E25.63438
G1 X152.599 Y133.568 E25.70178
G1 X152.375 Y134.496 E25.76608
G1 X152.087 Y135.355 E25.8271
G1 X151.687 Y136.273 E25.89454
G1 X151.252 Y137.068 E25.95558
G1 X150.692 Y137.907 E26.02352
G1 X149.911 Y138.851 E26.10604
G1 X149.499 Y139.285 E26.14634
G1 X147.133 Y141.654 E26.37184
G1 X146.503 Y142.267 E26.43105
G1 X145.825 Y142.869 E26.49211
G1 X145.02 Y143.465 E26.55957
G1 X144.247 Y143.938 E26.62061
G1 X143.394 Y144.364 E26.68483
G1 X142.507 Y144.713 E26.74903
G1 X141.545 Y144.995 E26.81655
G1 X140.656 Y145.171 E26.87758
G1 X139.536 Y145.292 E26.95346
G1 X138.438 Y145.31 E27.02742
G1 X96.553 Y145.309 E29.84845
G1 X95.827 Y145.298 E29.89735
G1 X94.922 Y145.245 E29.95841
G1 X93.932 Y145.099 E30.02581
G1 X93.004 Y144.875 E30.09011
G1 X92.145 Y144.587 E30.15113
G1 X91.227 Y144.187 E30.21857
G1 X90.432 Y143.752 E30.27961
G1 X89.593 Y143.192 E30.34754
G1 X88.65 Y142.411 E30.43001
G1 X88.218 Y142.001 E30.47013
G1 X85.84 Y139.629 E30.69634
G1 X85.264 Y139.038 E30.75193
G1 X84.645 Y138.344 E30.81456
G1 X84.047 Y137.54 E30.88205
G1 X83.573 Y136.768 E30.94306
G1 X83.125 Y135.871 E31.01059
G1 X82.794 Y135.028 E31.07159
G1 X82.523 Y134.115 E31.13573
G1 X82.325 Y133.132 E31.20327
G1 X82.209 Y132.054 E31.27629
G1 X82.19 Y130.938 E31.35147
G1 X82.191 Y89.053 E34.1725
G1 X82.202 Y88.327 E34.2214
G1 X82.255 Y87.422 E34.28246
G1 X82.401 Y86.432 E34.34986
G1 X82.625 Y85.504 E34.41416
G1 X82.913 Y84.645 E34.47518
G1 X83.313 Y83.727 E34.54262
G1 X83.748 Y82.932 E34.60366
G1 X84.308 Y82.093 E34.6716
G1 X85.089 Y81.15 E34.75406
G1 X85.228 Y81.003 E34.76769
G0 F1350 X85.499 Y80.717
G0 F4375 X85.881 Y81.099
G1 F1500 X88.378 Y78.599 E35.00567
G1 X88.865 Y78.128 E35.0513
G1 X89.544 Y77.527 E35.11237
G1 X90.273 Y76.989 E35.1734
G1 X91.046 Y76.516 E35.23443
G1 X91.858 Y76.114 E35.29546
G1 X92.703 Y75.785 E35.35653
G1 X93.573 Y75.532 E35.41756
G1 X94.462 Y75.357 E35.47858
G1 X95.479 Y75.248 E35.54747
G1 X96.562 Y75.23 E35.62042
G1 X138.293 Y75.23 E38.43108
G1 X139.141 Y75.241 E38.4882
G1 X140.046 Y75.294 E38.54925
G1 X140.942 Y75.426 E38.61025
G1 X141.824 Y75.637 E38.67133
G1 X142.683 Y75.925 E38.73235
G1 X143.514 Y76.287 E38.7934
G1 X144.309 Y76.722 E38.85444
G1 X145.063 Y77.224 E38.91545
G1 X146.078 Y78.074 E39.00462
G1 X146.571 Y78.547 E39.05063
G1 X148.779 Y80.754 E39.2609
G1 X149.358 Y81.349 E39.31681
G1 X149.96 Y82.026 E39.37783
G1 X150.5 Y82.754 E39.43888
G1 X150.974 Y83.526 E39.49989
G1 X151.378 Y84.338 E39.56098
G1 X151.709 Y85.181 E39.62197
G1 X151.964 Y86.051 E39.68304
G1 X152.141 Y86.94 E39.74409
G1 X152.254 Y87.967 E39.81367
G1 X152.269 Y88.896 E39.87625
G1 X152.27 Y130.793 E42.69809
G1 X152.259 Y131.641 E42.75521
G1 X152.206 Y132.546 E42.81627
G1 X152.074 Y133.442 E42.87726
G1 X151.863 Y134.324 E42.93834
G1 X151.575 Y135.183 E42.99937
G1 X151.213 Y136.014 E43.06041
G1 X150.778 Y136.809 E43.12145
G1 X150.276 Y137.563 E43.18246
G1 X149.519 Y138.479 E43.2625
G1 X149.117 Y138.903 E43.30185
G1 X146.757 Y141.267 E43.52683
G1 X146.144 Y141.863 E43.58441
G1 X145.466 Y142.465 E43.64548
G1 X144.738 Y143.004 E43.70649
G1 X143.965 Y143.477 E43.76752
G1 X143.154 Y143.88 E43.82852
G1 X142.31 Y144.21 E43.88955
G1 X141.44 Y144.465 E43.95061
G1 X140.551 Y144.641 E44.01165
G1 X139.527 Y144.752 E44.08102
G1 X138.438 Y144.77 E44.15438
G1 X96.561 Y144.769 E46.97487
G1 X95.859 Y144.759 E47.02216
G1 X94.954 Y144.706 E47.08321
G1 X94.058 Y144.574 E47.14421
G1 X93.176 Y144.363 E47.20529
G1 X92.317 Y144.075 E47.26631
G1 X91.486 Y143.713 E47.32736
G1 X90.691 Y143.278 E47.3884
G1 X89.937 Y142.776 E47.44941
G1 X89.021 Y142.019 E47.52944
G1 X88.599 Y141.619 E47.56861
G1 X86.227 Y139.252 E47.7943
G1 X85.651 Y138.661 E47.84988
G1 X85.048 Y137.985 E47.91089
G1 X84.507 Y137.257 E47.97198
G1 X84.033 Y136.485 E48.033
G1 X83.628 Y135.674 E48.09405
G1 X83.297 Y134.831 E48.15505
G1 X83.041 Y133.962 E48.21606
G1 X82.862 Y133.073 E48.27714
G1 X82.749 Y132.045 E48.3468
G1 X82.73 Y130.938 E48.42137
G1 X82.731 Y89.061 E51.24186
G1 X82.741 Y88.359 E51.28914
G1 X82.794 Y87.454 E51.3502
G1 X82.926 Y86.558 E51.4112
G1 X83.137 Y85.676 E51.47228
G1 X83.425 Y84.817 E51.5333
G1 X83.787 Y83.986 E51.59435
G1 X84.222 Y83.191 E51.65538
G1 X84.724 Y82.437 E51.71639
G1 X85.481 Y81.521 E51.79643
G1 X85.61 Y81.385 E51.80905
G0 F1350 X85.881 Y81.099
G1 F2880 E51.30905
G1 F600 Z0.5
;MESH:spigen-pd2101-mount.stl
G0 F4375 X95.004 Y89.33 Z0.5
;TYPE:WALL-INNER
G1 F600 Z0.3
G1 F2520 E51.80905
G1 F849.3 X95 Y118.5 E54.58503
G1 F836.1 X95.015 Y118.848 E54.6187
G0 F4375 X96.022 Y119.432
G1 F1200 X95.753 Y119.02 E54.65184
G1 X95.65 Y118.665 E54.67674
G1 X95.654 Y89.385 E56.6488
G1 F1117.2 X95.812 Y88.697 E56.69986
G1 F1045.2 X96.197 Y88.312 E56.74197
G1 F1117.2 X96.885 Y88.154 E56.79303
G1 F1200 X138.115 Y88.155 E59.56995
G1 F1117.2 X138.802 Y88.311 E59.62091
G1 F1045.2 X139.186 Y88.695 E59.66291
G1 F1117.2 X139.345 Y89.385 E59.71413
G1 F1200 X139.35 Y118.665 E61.68619
G1 X139.247 Y119.02 E61.71109
G1 X138.978 Y119.432 E61.74423
G1 X138.636 Y119.692 E61.77316
G1 X138.297 Y119.818 E61.79752
G1 X138 Y119.85 E61.81764
G1 X97 Y119.85 E64.57906
G1 X96.703 Y119.818 E64.59918
G1 X96.364 Y119.692 E64.62354
G1 X96.335 Y119.67 E64.62599
G0 F1080 X96.022 Y119.432
G0 F4375 X96.413 Y119.059
G1 F1200 X96.252 Y118.812 E64.64585
G1 X96.19 Y118.599 E64.66079
G1 X96.192 Y89.431 E66.62531
G1 X96.306 Y89.081 E66.6501
G1 X96.581 Y88.806 E66.67629
G1 X96.931 Y88.692 E66.70108
G1 X138.069 Y88.693 E69.4718
G1 X138.419 Y88.806 E69.49657
G1 X138.694 Y89.081 E69.52277
G1 X138.807 Y89.431 E69.54754
G1 X138.81 Y118.599 E71.51205
G1 X138.748 Y118.812 E71.52699
G1 X138.587 Y119.059 E71.54685
G1 X138.382 Y119.215 E71.5642
G1 X138.127 Y119.31 E71.58253
G1 X96.873 Y119.31 E74.36106
G1 X96.745 Y119.262 E74.37027
G0 F1080 X96.618 Y119.215
G0 X96.413 Y119.059
G0 F4375 X96.075 Y119.059
G0 X97.05 Y122.55
G1 F1200 X97.05 Y129.822 E74.86005
G1 X97.678 Y130.45 E74.91987
G1 X137.322 Y130.45 E77.58996
G1 X137.95 Y129.822 E77.64978
G1 X137.95 Y122.55 E78.13956
G1 X97.444 Y122.55 E80.86771
G0 F1080 X97.05 Y122.55
G0 F4375 X97 Y122.01
G1 F1200 X96.51 Y121.956 E80.90091
G1 X96.51 Y130.046 E81.44579
G1 X97.454 Y130.99 E81.5357
G1 X137.546 Y130.99 E84.23597
G1 X138.49 Y130.046 E84.32589
G1 X138.49 Y121.956 E84.87076
G1 X138 Y122.01 E84.90397
G1 X97.394 Y122.01 E87.63885
G0 F1080 X97 Y122.01
G0 F4375 X97 Y121.47
G1 F1200 X96.348 Y121.398 E87.68303
G1 X95.97 Y121.258 E87.71018
G1 X95.97 Y130.269 E88.31709
G1 X97.231 Y131.53 E88.4372
G1 X137.769 Y131.53 E91.1675
G1 X139.03 Y130.269 E91.28761
G1 X139.03 Y121.258 E91.89452
G1 X138.652 Y121.398 E91.92167
G1 X138 Y121.47 E91.96585
G1 X97.394 Y121.47 E94.70074
G0 F1080 X97 Y121.47
G0 F4375 X96.466 Y120.871
G1 F1200 X95.856 Y120.645 E94.74455
G1 X95.43 Y120.32 E94.78064
G1 X95.43 Y130.493 E95.46581
G1 X97.007 Y132.07 E95.61602
G1 X137.993 Y132.07 E98.3765
G1 X139.57 Y130.493 E98.52671
G1 X139.57 Y120.32 E99.21187
G1 X139.144 Y120.645 E99.24796
G1 X138.534 Y120.871 E99.29178
G1 X138 Y120.93 E99.32796
G1 X97 Y120.93 E102.08938
G1 X96.857 Y120.914 E102.09908
G0 F1080 X96.466 Y120.871
G0 F4375 X96.11 Y120.168
G1 F1200 X95.631 Y119.804 E102.1396
G1 X95.255 Y119.227 E102.18598
G1 F974.4 X95.015 Y118.848 E102.22319
G1 X94.89 Y119.3 E102.26209
G1 F1200 X94.89 Y130.717 E103.03104
G1 X96.783 Y132.61 E103.21135
G1 X138.217 Y132.61 E106.002
G1 X140.11 Y130.717 E106.18231
G1 X140.11 Y119.3 E106.95126
G1 F974.4 X139.985 Y118.848 E106.99016
G1 X139.745 Y119.227 E107.02737
G1 F1200 X139.369 Y119.804 E107.07376
G1 X138.89 Y120.168 E107.11427
G1 X138.415 Y120.344 E107.14839
G1 X138 Y120.39 E107.17651
G1 X97 Y120.39 E109.93794
G1 X96.585 Y120.344 E109.96606
G1 X96.479 Y120.304 E109.97369
G0 F1080 X96.11 Y120.168
G0 F4375 X96.147 Y88.647
G0 X96.83 Y87.504
G1 F844.9 X138.17 Y87.504 E113.92846
G0 F4375 X139.996 Y89.33
G1 F846 X139.998 Y103.915 E115.32191
G1 F850.4 X140 Y118.5 E116.70808
G1 F836.1 X139.985 Y118.848 E116.74175
G0 F4375 X140.65 Y130.94
G1 F1195.6 X140.65 Y127.717 E116.95963
G1 F1186.8 X140.65 Y124.494 E117.17911
G1 F1176 X140.65 Y121.271 E117.40061
G1 F1167.6 X140.65 Y118.048 E117.62371
G1 F1157.1 X140.65 Y114.825 E117.84883
G1 F1148.9 X140.65 Y111.602 E118.07555
G1 F1138.8 X140.65 Y108.379 E118.30428
G1 F1130.9 X140.65 Y105.156 E118.53462
G1 F1123.1 X140.65 Y101.933 E118.76657
G1 F1113.4 X140.65 Y98.71 E119.00053
G1 F1105.8 X140.65 Y95.487 E119.2361
G1 F1096.4 X140.65 Y92.264 E119.47367
G1 F1089.1 X140.65 Y89.041 E119.71286
G1 F1033.5 X139.808 Y88.299 E119.80062
G1 F955.8 X139.705 Y88.229 E119.81115
G1 F924.4 X139.271 Y87.795 E119.86482
G1 F955.8 X139.199 Y87.69 E119.87558
G1 F1033.5 X138.464 Y86.85 E119.96287
G1 F1083.6 X96.536 Y86.851 E123.09011
G1 F1033.5 X95.8 Y87.691 E123.17745
G1 F955.8 X95.729 Y87.795 E123.18809
G1 F924.4 X95.295 Y88.229 E123.24176
G1 F955.8 X95.191 Y88.3 E123.25241
G1 F1033.5 X94.351 Y89.036 E123.33975
G1 F1089.1 X94.351 Y92.259 E123.57893
G1 F1096.4 X94.351 Y95.482 E123.81651
G1 F1105.8 X94.351 Y98.705 E124.05207
G1 F1113.4 X94.351 Y101.928 E124.28603
G1 F1123.1 X94.351 Y105.151 E124.51798
G1 F1130.9 X94.351 Y108.374 E124.74832
G1 F1138.8 X94.351 Y111.597 E124.97705
G1 F1148.9 X94.351 Y114.82 E125.20377
G1 F1157.1 X94.351 Y118.043 E125.42889
G1 F1167.6 X94.351 Y121.266 E125.65199
G1 F1176 X94.351 Y124.489 E125.87349
G1 F1186.8 X94.351 Y127.712 E126.09298
G1 F1195.6 X94.351 Y130.935 E126.31086
G1 F1200 X94.35 Y130.94 E126.3112
G1 X96.56 Y133.15 E126.5217
G1 X138.44 Y133.15 E129.34239
G1 X140.372 Y131.218 E129.52642
G0 F1080 X140.65 Y130.94
G0 F4375 X141.19 Y131.164
G1 F1200 X141.19 Y88.836 E132.37728
G1 X138.664 Y86.31 E132.61788
G1 X96.336 Y86.311 E135.46875
G1 X93.811 Y88.836 E135.70925
G1 X93.81 Y131.164 E138.56012
G1 X96.336 Y133.69 E138.80072
G1 X138.664 Y133.69 E141.65159
G1 X140.912 Y131.442 E141.86571
G0 F1080 X141.19 Y131.164
G0 F4375 X141.73 Y131.388
;TYPE:WALL-OUTER
G1 F1200 X141.73 Y88.612 E144.74675
G1 X138.888 Y85.77 E145.01745
G1 X96.112 Y85.771 E147.89849
G1 X93.271 Y88.612 E148.16909
G1 X93.27 Y131.388 E151.05013
G1 X96.112 Y134.23 E151.32083
G1 X138.888 Y134.23 E154.20187
G1 X141.452 Y131.666 E154.44609
G0 F1080 X141.73 Y131.388
G0 F4375 X141.73 Y131.188
G0 X141.083 Y131.121
G0 X138.925 Y118.687
G0 X138.196 Y118.687
G1 F1200 X138.06 Y118.764 E154.45662
G1 X96.956 Y118.77 E157.22504
G1 X96.804 Y118.687 E157.23671
G1 X96.734 Y118.547 E157.24725
G1 X96.73 Y89.477 E159.20517
G1 X96.768 Y89.36 E159.21345
G1 X96.86 Y89.268 E159.22222
G1 X96.977 Y89.23 E159.2305
G1 X138.023 Y89.231 E161.99502
G1 X138.14 Y89.268 E162.00329
G1 X138.232 Y89.36 E162.01205
G1 X138.269 Y89.477 E162.02031
G1 X138.266 Y118.31 E163.96227
G0 F1080 X138.266 Y118.547
G0 X138.196 Y118.687
G0 F4375 X138.06 Y118.764
G0 X138.016 Y118.764
G0 X138.016 Y119.425
G0 X137.404 Y122.696
G0 X137.404 Y123.096
;TYPE:SKIN
G1 F1200 X137.404 Y129.595 E164.44862
G1 X137.095 Y129.904 E164.48133
G1 X97.905 Y129.904 E167.41412
G1 X97.596 Y129.595 E167.44682
G1 X97.596 Y123.096 E167.93318
G1 X137.049 Y123.096 E170.88566
G0 F1080 X137.404 Y123.096
G0 F4375 X137.104 Y123.527
G1 F1200 X136.972 Y123.396 E170.89957
G0 F4375 X136.124 Y123.396
G1 F1200 X137.104 Y124.376 E171.00329
G0 F4375 X137.104 Y125.224
G1 F1200 X135.275 Y123.396 E171.1968
G0 F4375 X134.427 Y123.396
G1 F1200 X137.104 Y126.073 E171.48012
G0 F4375 X137.104 Y126.921
G1 F1200 X133.578 Y123.396 E171.85323
G0 F4375 X132.73 Y123.396
G1 F1200 X137.104 Y127.77 E172.31615
G0 F4375 X137.104 Y128.618
G1 F1200 X131.881 Y123.396 E172.86886
G0 F4375 X131.033 Y123.396
G1 F1200 X137.104 Y129.467 E173.51137
G0 F4375 X136.392 Y129.604
G1 F1200 X130.184 Y123.396 E174.16839
G0 F4375 X129.335 Y123.396
G1 F1200 X135.544 Y129.604 E174.82545
G0 F4375 X134.695 Y129.604
G1 F1200 X128.487 Y123.396 E175.48246
G0 F4375 X127.638 Y123.396
G1 F1200 X133.847 Y129.604 E176.13953
G0 F4375 X132.998 Y129.604
G1 F1200 X126.79 Y123.396 E176.79654
G0 F4375 X125.941 Y123.396
G1 F1200 X132.15 Y129.604 E177.4536
G0 F4375 X131.301 Y129.604
