;FLAVOR:Marlin
;TIME:6666
;Filament used: 0m
;Layer height: 0.2
;MINX:2.14748e+06
;MINY:2.14748e+06
;MINZ:2.14748e+06
;MAXX:-2.14748e+06
;MAXY:-2.14748e+06
;MAXZ:-2.14748e+06
;TARGET_MACHINE.NAME:Unknown

;Generated with Cura_SteamEngine 5.9.0
M104 S250
M105
M109 S250
M82 ;absolute extrusion mode
START_PRINT BED_TEMP={material_bed_temperature_layer_0} EXTRUDER_TEMP={material_print_temperature_layer_0}
G92 E0
G92 E0
G1 F3000 E-6.5
;LAYER_COUNT:53
;LAYER:0
;note -- min layer time used
M107
M104 S0
G1 F600 Z0.5
G0 F3600 X54.497 Y56.8 Z0.5
;TYPE:SKIRT
G1 F600 Z0.3
G1 F2700 E0
G1 F1085.6 X53.74 Y56.79 E0.01424
G1 X51.976 Y56.708 E0.04746
G1 X49.247 Y56.628 E0.09881
G1 X46.621 Y56.626 E0.14821
G1 X43.859 Y56.703 E0.20019
G1 X41.643 Y56.8 E0.24191
G1 X39.852 Y56.786 E0.2756
G1 X39.224 Y56.721 E0.28748
G1 X38.355 Y56.492 E0.30438
G1 X37.669 Y56.177 E0.31858
G1 X37.095 Y55.802 E0.33148
G1 X36.582 Y55.347 E0.34438
G1 X36.058 Y54.708 E0.35992
G1 X35.676 Y54.047 E0.37428
G1 X35.406 Y53.337 E0.38857
G1 X35.245 Y52.571 E0.40329
G1 X35.198 Y51.926 E0.41546
G1 X35.216 Y49.843 E0.45464
G1 X35.292 Y49.153 E0.4677
G1 X35.508 Y48.356 E0.48323
G1 X35.764 Y47.778 E0.49512
G1 X36.249 Y47.034 E0.51183
G1 X36.716 Y46.524 E0.52484
G1 X37.301 Y46.053 E0.53897
G1 X38.007 Y45.649 E0.55427
G1 X38.536 Y45.444 E0.56494
G1 X39.43 Y45.245 E0.58217
G1 X40.065 Y45.198 E0.59414
G1 X42.088 Y45.21 E0.6322
G1 X43.878 Y45.292 E0.66591
G1 X46.61 Y45.372 E0.71732
G1 X49.237 Y45.374 E0.76673
G1 X51.997 Y45.297 E0.81867
G1 X54.115 Y45.2 E0.85855
G1 X55.476 Y45.2 E0.88415
G1 X56.244 Y45.214 E0.8986
G1 X57.063 Y45.31 E0.91411
G1 X57.726 Y45.496 E0.92707
G1 X58.404 Y45.801 E0.94105
G1 X58.936 Y46.141 E0.95293
G1 X59.561 Y46.689 E0.96856
G1 X60.119 Y47.39 E0.98542
G1 X60.455 Y47.998 E0.99848
G1 X60.733 Y48.764 E1.01381
G1 X60.87 Y49.462 E1.02719
G1 X60.913 Y50.073 E1.03872
G1 X60.897 Y52.148 E1.07775
G1 X60.832 Y52.776 E1.08962
G1 X60.603 Y53.645 E1.10653
G1 X60.288 Y54.331 E1.12073
G1 X59.913 Y54.905 E1.13363
G1 X59.458 Y55.418 E1.14652
G1 X58.819 Y55.942 E1.16207
G1 X58.216 Y56.296 E1.17522
G1 X57.448 Y56.594 E1.19072
G1 X56.691 Y56.755 E1.20528
G1 X56.224 Y56.795 E1.21409
G1 X54.497 Y56.8 E1.24658
G0 F3600 X54.502 Y56.4
G1 F1085.6 X53.759 Y56.39 E1.26056
G1 X51.995 Y56.308 E1.29377
G1 X49.259 Y56.228 E1.34526
G1 X46.61 Y56.226 E1.39509
G1 X43.841 Y56.303 E1.4472
G1 X41.646 Y56.4 E1.48853
G1 X39.89 Y56.388 E1.52156
G1 X39.323 Y56.334 E1.53227
G1 X38.52 Y56.128 E1.54787
G1 X37.888 Y55.842 E1.56092
G1 X37.314 Y55.467 E1.57381
G1 X36.89 Y55.091 E1.58447
G1 X36.403 Y54.505 E1.5988
G1 X36.049 Y53.902 E1.61196
G1 X35.797 Y53.253 E1.62505
G1 X35.644 Y52.541 E1.63875
G1 X35.598 Y51.929 E1.6503
G1 X35.614 Y49.884 E1.68877
G1 X35.679 Y49.255 E1.70066
G1 X35.874 Y48.518 E1.715
G1 X36.13 Y47.94 E1.72689
G1 X36.544 Y47.304 E1.74117
G1 X37.011 Y46.794 E1.75418
G1 X37.501 Y46.399 E1.76601
G1 X38.152 Y46.022 E1.78017
G1 X38.681 Y45.817 E1.79084
G1 X39.46 Y45.644 E1.80585
G1 X40.063 Y45.598 E1.81722
G1 X42.07 Y45.61 E1.85498
G1 X43.86 Y45.692 E1.88868
G1 X46.598 Y45.772 E1.94021
G1 X49.248 Y45.774 E1.99006
G1 X52.015 Y45.697 E2.04212
G1 X54.133 Y45.6 E2.08201
G1 X55.469 Y45.6 E2.10714
G1 X56.237 Y45.614 E2.12159
G1 X56.957 Y45.696 E2.13522
G1 X57.564 Y45.862 E2.14706
G1 X58.191 Y46.14 E2.15996
G1 X58.672 Y46.442 E2.17064
G1 X59.297 Y46.99 E2.18628
G1 X59.77 Y47.586 E2.20059
G1 X60.08 Y48.137 E2.21248
G1 X60.341 Y48.843 E2.22664
G1 X60.471 Y49.491 E2.23907
G1 X60.513 Y50.07 E2.24999
G1 X60.499 Y52.11 E2.28837
G1 X60.445 Y52.677 E2.29908
G1 X60.239 Y53.48 E2.31467
G1 X59.953 Y54.112 E2.32772
G1 X59.578 Y54.686 E2.34062
G1 X59.202 Y55.11 E2.35128
G1 X58.616 Y55.597 E2.36561
G1 X58.013 Y55.951 E2.37877
G1 X57.306 Y56.22 E2.393
G1 X56.657 Y56.356 E2.40547
G1 X56.19 Y56.396 E2.41429
G1 X54.502 Y56.4 E2.44604
G0 F3600 X54.507 Y56
G1 F1085.6 X53.778 Y55.99 E2.45975
G1 X52.014 Y55.908 E2.49297
G1 X49.271 Y55.828 E2.54459
G1 X46.599 Y55.826 E2.59485
G1 X43.823 Y55.903 E2.64709
G1 X41.649 Y56 E2.68802
G1 X39.924 Y55.989 E2.72047
G1 X39.42 Y55.946 E2.72999
G1 X38.682 Y55.762 E2.74429
G1 X38.105 Y55.506 E2.75617
G1 X37.577 Y55.165 E2.76799
G1 X37.196 Y54.833 E2.7775
G1 X36.748 Y54.302 E2.79057
G1 X36.394 Y53.699 E2.80372
G1 X36.171 Y53.111 E2.81555
G1 X36.043 Y52.51 E2.82711
G1 X35.998 Y51.932 E2.83801
G1 X36.012 Y49.922 E2.87582
G1 X36.066 Y49.355 E2.88654
G1 X36.24 Y48.68 E2.89965
G1 X36.496 Y48.102 E2.91154
G1 X36.841 Y47.572 E2.92344
G1 X37.264 Y47.104 E2.9353
G1 X37.704 Y46.744 E2.946
G1 X38.3 Y46.394 E2.959
G1 X38.77 Y46.207 E2.96851
G1 X39.492 Y46.043 E2.98244
G1 X40.061 Y45.998 E2.99318
G1 X42.052 Y46.01 E3.03063
G1 X43.842 Y46.092 E3.06433
G1 X46.586 Y46.172 E3.11597
G1 X49.259 Y46.174 E3.16625
G1 X52.033 Y46.097 E3.21845
G1 X54.151 Y46 E3.25834
G1 X55.462 Y46 E3.283
G1 X56.194 Y46.012 E3.29677
G1 X56.854 Y46.083 E3.30926
G1 X57.404 Y46.229 E3.31996
G1 X57.978 Y46.479 E3.33174
G1 X58.459 Y46.781 E3.34242
G1 X59.031 Y47.289 E3.35681
G1 X59.421 Y47.782 E3.36863
G1 X59.731 Y48.333 E3.38053
G1 X59.949 Y48.924 E3.39238
G1 X60.072 Y49.521 E3.40384
G1 X60.113 Y50.067 E3.41414
G1 X60.1 Y52.076 E3.45193
G1 X60.057 Y52.58 E3.46145
G1 X59.873 Y53.318 E3.47575
G1 X59.617 Y53.895 E3.48763
G1 X59.276 Y54.423 E3.49945
G1 X58.944 Y54.804 E3.50896
G1 X58.413 Y55.252 E3.52203
G1 X57.81 Y55.606 E3.53518
G1 X57.222 Y55.829 E3.54701
G1 X56.623 Y55.957 E3.55853
G1 X56.156 Y55.997 E3.56735
G1 X54.507 Y56 E3.59837
G0 F3600 X54.513 Y55.6
G1 F1085.6 X53.797 Y55.59 E3.61184
G1 X52.033 Y55.508 E3.64505
G1 X49.283 Y55.428 E3.6968
G1 X46.588 Y55.426 E3.7475
G1 X43.805 Y55.503 E3.79987
G1 X41.651 Y55.6 E3.84043
G1 X39.958 Y55.59 E3.87227
G1 X39.454 Y55.547 E3.88179
G1 X38.841 Y55.395 E3.89367
G1 X38.32 Y55.169 E3.90435
G1 X37.84 Y54.863 E3.91506
G1 X37.459 Y54.531 E3.92457
G1 X37.055 Y54.046 E3.93644
G1 X36.767 Y53.555 E3.94715
G1 X36.562 Y53.025 E3.95784
G1 X36.442 Y52.478 E3.96837
G1 X36.398 Y51.935 E3.97862
G1 X36.411 Y49.956 E4.01584
G1 X36.454 Y49.452 E4.02536
G1 X36.607 Y48.839 E4.03724
G1 X36.833 Y48.318 E4.04793
G1 X37.14 Y47.838 E4.05864
G1 X37.517 Y47.414 E4.06932
G1 X37.957 Y47.054 E4.08001
G1 X38.448 Y46.766 E4.09072
G1 X38.918 Y46.579 E4.10023
G1 X39.525 Y46.442 E4.11194
G1 X40.059 Y46.398 E4.12202
G1 X42.034 Y46.41 E4.15917
G1 X43.824 Y46.492 E4.19288
G1 X46.574 Y46.572 E4.24463
G1 X49.27 Y46.574 E4.29534
G1 X52.051 Y46.497 E4.34767
G1 X54.169 Y46.4 E4.38755
G1 X55.456 Y46.4 E4.41176
G1 X56.154 Y46.41 E4.42489
G1 X56.751 Y46.47 E4.43618
G1 X57.301 Y46.616 E4.44689
G1 X57.765 Y46.818 E4.4564
G1 X58.246 Y47.12 E4.46709
G1 X58.719 Y47.539 E4.47897
G1 X59.074 Y47.981 E4.48964
G1 X59.357 Y48.475 E4.50035
G1 X59.558 Y49.006 E4.51103
G1 X59.673 Y49.552 E4.52152
G1 X59.713 Y50.065 E4.5312
G1 X59.701 Y52.042 E4.56839
G1 X59.658 Y52.546 E4.57791
G1 X59.506 Y53.159 E4.58979
G1 X59.28 Y53.68 E4.60047
G1 X58.974 Y54.16 E4.61118
G1 X58.642 Y54.541 E4.62068
G1 X58.157 Y54.945 E4.63256
G1 X57.666 Y55.233 E4.64326
G1 X57.136 Y55.438 E4.65395
G1 X56.589 Y55.558 E4.66449
G1 X56.122 Y55.598 E4.6733
G1 X54.513 Y55.6 E4.70357
G0 F3600 X54.519 Y55.2
G1 F1085.6 X53.814 Y55.19 E4.71683
G1 X52.605 Y55.14 E4.7396
G1 X52.045 Y55.108 E4.75015
G1 X49.295 Y55.028 E4.8019
G1 X46.577 Y55.026 E4.85302
G1 X43.787 Y55.103 E4.90553
G1 X41.653 Y55.2 E4.94571
G1 X39.992 Y55.191 E4.97695
G1 X39.488 Y55.148 E4.98647
G1 X38.997 Y55.027 E4.99598
G1 X38.532 Y54.83 E5.00548
G1 X38.103 Y54.561 E5.01501
G1 X37.722 Y54.229 E5.02451
G1 X37.398 Y53.841 E5.03402
G1 X37.139 Y53.407 E5.04353
G1 X36.952 Y52.937 E5.05304
G1 X36.841 Y52.444 E5.06255
G1 X36.798 Y51.937 E5.07212
G1 X36.81 Y49.99 E5.10874
G1 X36.853 Y49.486 E5.11826
G1 X36.975 Y48.995 E5.12778
G1 X37.172 Y48.53 E5.13728
G1 X37.441 Y48.101 E5.1468
G1 X37.773 Y47.721 E5.15629
G1 X38.162 Y47.397 E5.16581
G1 X38.596 Y47.138 E5.17532
G1 X39.066 Y46.951 E5.18484
G1 X39.559 Y46.841 E5.19434
G1 X40.057 Y46.798 E5.20374
G1 X42.018 Y46.81 E5.24063
G1 X43.252 Y46.86 E5.26386
G1 X43.812 Y46.892 E5.27441
G1 X46.562 Y46.972 E5.32616
G1 X49.281 Y46.974 E5.37731
G1 X52.069 Y46.897 E5.42977
G1 X54.187 Y46.8 E5.46965
G1 X55.45 Y46.8 E5.49341
G1 X56.148 Y46.81 E5.50654
G1 X56.651 Y46.857 E5.51605
G1 X57.141 Y46.983 E5.52556
G1 X57.605 Y47.185 E5.53508
G1 X58.031 Y47.457 E5.54459
G1 X58.409 Y47.792 E5.55409
G1 X58.729 Y48.183 E5.5636
G1 X58.984 Y48.62 E5.57311
G1 X59.167 Y49.091 E5.58262
G1 X59.274 Y49.585 E5.59213
G1 X59.313 Y50.063 E5.60115
G1 X59.302 Y52.008 E5.63773
G1 X59.259 Y52.512 E5.64725
G1 X59.138 Y53.003 E5.65676
G1 X58.941 Y53.468 E5.66626
G1 X58.672 Y53.897 E5.67579
G1 X58.34 Y54.278 E5.68529
G1 X57.952 Y54.602 E5.6948
G1 X57.518 Y54.861 E5.70431
G1 X57.048 Y55.048 E5.71382
G1 X56.555 Y55.159 E5.72333
G1 X56.088 Y55.199 E5.73214
G1 X54.519 Y55.2 E5.76166
G1 F3000 E-0.73834
G1 F600 Z0.5
;MESH:./led-grill/cover.stl
G0 F3600 X55.125 Y51.31 Z0.5
;TYPE:WALL-INNER
G1 F600 Z0.3
G1 F2700 E5.76166
G1 F748.7 X55.124 Y50.689 E5.7786
G1 F750 X54.545 Y50.689 E5.79436
G1 F748.7 X54.546 Y51.31 E5.8113
G1 X55.125 Y51.31 E5.82709
G0 F3600 X55.615 Y51.8
;TYPE:WALL-OUTER
G1 F1085.6 X55.612 Y50.2 E5.85719
G1 X54.056 Y50.2 E5.88646
G1 X54.056 Y51.8 E5.91656
G1 X55.615 Y51.8 E5.94588
G0 F3600 X55.615 Y51.6
G1 F3000 E-0.55412
G1 F600 Z0.5
G0 F3600 X41.4 Y51.4 Z0.5
;TYPE:WALL-INNER
G1 F600 Z0.3
G1 F2700 E5.94588
G1 F1085.6 X41.4 Y50.6 E5.96093
G1 X40.6 Y50.6 E5.97598
G1 X40.6 Y51.4 E5.99103
G1 X41.4 Y51.4 E6.00607
G0 F3600 X41.8 Y51.8
;TYPE:WALL-OUTER
G1 F1085.6 X41.8 Y50.2 E6.03617
G1 X40.2 Y50.2 E6.06627
G1 X40.2 Y51.8 E6.09637
G1 X41.8 Y51.8 E6.12646
G0 F3600 X41.8 Y51.6
G1 F3000 E-0.37354
G1 F600 Z0.5
;MESH:NONMESH
G0 F3600 X57.048 Y55.048 Z0.5
;TIME_ELAPSED:22.524247
;LAYER:1
;note -- min layer time used
M106 S255
;TYPE:SKIRT
G1 F600 Z0.5
G1 F2700 E6.12646
G1 F600 X56.555 Y55.159 E6.1328
G1 X56.088 Y55.199 E6.13868
G1 X54.519 Y55.2 E6.15835
G1 X53.814 Y55.19 E6.16719
G1 X52.605 Y55.14 E6.18237
G1 X52.045 Y55.108 E6.1894
G1 X49.295 Y55.028 E6.2239
G1 X46.577 Y55.026 E6.25799
G1 X43.787 Y55.103 E6.29299
G1 X41.653 Y55.2 E6.31978
G1 X39.992 Y55.191 E6.34061
G1 X39.488 Y55.148 E6.34695
G1 X38.997 Y55.027 E6.35329
G1 X38.532 Y54.83 E6.35963
G1 X38.103 Y54.561 E6.36598
G1 X37.722 Y54.229 E6.37231
G1 X37.398 Y53.841 E6.37865
G1 X37.139 Y53.407 E6.38499
G1 X36.952 Y52.937 E6.39133
G1 X36.841 Y52.444 E6.39767
G1 X36.798 Y51.937 E6.40405
G1 X36.81 Y49.99 E6.42847
G1 X36.853 Y49.486 E6.43481
G1 X36.975 Y48.995 E6.44116
G1 X37.172 Y48.53 E6.44749
G1 X37.441 Y48.101 E6.45384
G1 X37.773 Y47.721 E6.46017
G1 X38.162 Y47.397 E6.46652
G1 X38.596 Y47.138 E6.47285
G1 X39.066 Y46.951 E6.4792
G1 X39.559 Y46.841 E6.48553
G1 X40.057 Y46.798 E6.4918
G1 X42.018 Y46.81 E6.51639
G1 X43.252 Y46.86 E6.53188
G1 X43.812 Y46.892 E6.53891
G1 X46.562 Y46.972 E6.57341
G1 X49.281 Y46.974 E6.60751
G1 X52.069 Y46.897 E6.64249
G1 X54.187 Y46.8 E6.66908
G1 X55.45 Y46.8 E6.68491
G1 X56.148 Y46.81 E6.69367
G1 X56.651 Y46.857 E6.7
G1 X57.141 Y46.983 E6.70635
G1 X57.605 Y47.185 E6.71269
G1 X58.031 Y47.457 E6.71903
G1 X58.409 Y47.792 E6.72537
G1 X58.729 Y48.183 E6.7317
G1 X58.984 Y48.62 E6.73805
G1 X59.167 Y49.091 E6.74438
G1 X59.274 Y49.585 E6.75072
G1 X59.313 Y50.063 E6.75674
G1 X59.302 Y52.008 E6.78113
G1 X59.259 Y52.512 E6.78747
G1 X59.138 Y53.003 E6.79381
G1 X58.941 Y53.468 E6.80015
G1 X58.672 Y53.897 E6.8065
G1 X58.34 Y54.278 E6.81283
G1 X57.952 Y54.602 E6.81917
G1 X57.518 Y54.861 E6.82551
G1 X57.048 Y55.048 E6.83185
G1 F3000 E0.33185
G1 F600 Z0.7
;MESH:./led-grill/cover.stl
G0 F6300 X55.289 Y51.309 Z0.7
;TYPE:WALL-INNER
G1 F600 Z0.5
G1 F2700 E6.83185
G1 F412.4 X55.289 Y50.691 E6.84313
G1 X54.707 Y50.691 E6.85375
G1 X54.707 Y51.309 E6.86503
G1 X55.289 Y51.309 E6.87564
G0 F6300 X55.78 Y51.8
;TYPE:WALL-OUTER
G1 F600 X55.78 Y50.2 E6.89571
G1 X54.216 Y50.2 E6.91532
G1 X54.216 Y51.8 E6.93539
G1 X55.78 Y51.8 E6.955
G0 F6300 X55.78 Y51.6
G1 F3000 E0.455
G1 F600 Z0.7
G0 F6300 X41.4 Y51.4 Z0.7
;TYPE:WALL-INNER
G1 F600 Z0.5
G1 F2700 E6.955
G1 F600 X41.4 Y50.6 E6.96503
G1 X40.6 Y50.6 E6.97506
G1 X40.6 Y51.4 E6.9851
G1 X41.4 Y51.4 E6.99513
G0 F6300 X41.8 Y51.8
;TYPE:WALL-OUTER
G1 F600 X41.8 Y50.2 E7.01519
G1 X40.2 Y50.2 E7.03526
G1 X40.2 Y51.8 E7.05532
G1 X41.8 Y51.8 E7.07539
G0 F6300 X41.8 Y51.6
G1 F3000 E0.57539
G1 F600 Z0.7
;MESH:NONMESH
G0 F6300 X57.048 Y55.048 Z0.7
;TIME_ELAPSED:31.583375
;LAYER:2
;note -- min layer time used
;TYPE:SKIRT
G1 F600 Z0.7
G1 F2700 E7.07539
G1 F600 X56.555 Y55.159 E7.08173
G1 X56.088 Y55.199 E7.0876
G1 X54.519 Y55.2 E7.10728
G1 X53.814 Y55.19 E7.11612
G1 X52.605 Y55.14 E7.13129
G1 X52.045 Y55.108 E7.13833
G1 X49.295 Y55.028 E7.17283
G1 X46.577 Y55.026 E7.20691
G1 X43.787 Y55.103 E7.24192
G1 X41.653 Y55.2 E7.2687
G1 X39.992 Y55.191 E7.28953
G1 X39.488 Y55.148 E7.29588
G1 X38.997 Y55.027 E7.30222
G1 X38.532 Y54.83 E7.30855
G1 X38.103 Y54.561 E7.3149
G1 X37.722 Y54.229 E7.32124
G1 X37.398 Y53.841 E7.32758
G1 X37.139 Y53.407 E7.33392
G1 X36.952 Y52.937 E7.34026
G1 X36.841 Y52.444 E7.3466
G1 X36.798 Y51.937 E7.35298
G1 X36.81 Y49.99 E7.37739
G1 X36.853 Y49.486 E7.38374
G1 X36.975 Y48.995 E7.39008
G1 X37.172 Y48.53 E7.39641
G1 X37.441 Y48.101 E7.40276
G1 X37.773 Y47.721 E7.40909
G1 X38.162 Y47.397 E7.41544
G1 X38.596 Y47.138 E7.42178
G1 X39.066 Y46.951 E7.42812
G1 X39.559 Y46.841 E7.43446
G1 X40.057 Y46.798 E7.44073
G1 X42.018 Y46.81 E7.46532
G1 X43.252 Y46.86 E7.48081
G1 X43.812 Y46.892 E7.48784
G1 X46.562 Y46.972 E7.52234
G1 X49.281 Y46.974 E7.55644
G1 X52.069 Y46.897 E7.59141
G1 X54.187 Y46.8 E7.618
G1 X55.45 Y46.8 E7.63384
G1 X56.148 Y46.81 E7.64259
G1 X56.651 Y46.857 E7.64893
G1 X57.141 Y46.983 E7.65527
G1 X57.605 Y47.185 E7.66162
G1 X58.031 Y47.457 E7.66796
G1 X58.409 Y47.792 E7.67429
G1 X58.729 Y48.183 E7.68063
G1 X58.984 Y48.62 E7.68697
G1 X59.167 Y49.091 E7.69331
G1 X59.274 Y49.585 E7.69965
G1 X59.313 Y50.063 E7.70566
G1 X59.302 Y52.008 E7.73005
G1 X59.259 Y52.512 E7.7364
G1 X59.138 Y53.003 E7.74274
G1 X58.941 Y53.468 E7.74907
G1 X58.672 Y53.897 E7.75542
G1 X58.34 Y54.278 E7.76176
G1 X57.952 Y54.602 E7.7681
G1 X57.518 Y54.861 E7.77444
G1 X57.048 Y55.048 E7.78078
G1 F3000 E1.28078
G1 F600 Z0.9
;MESH:./led-grill/cover.stl
G0 F9000 X55.415 Y51.307 Z0.9
;TYPE:WALL-INNER
G1 F600 Z0.7
G1 F2700 E7.78078
G1 F408.9 X55.415 Y50.693 E7.79208
G1 X54.827 Y50.693 E7.8029
G1 X54.828 Y51.307 E7.8142
G1 X55.415 Y51.307 E7.825
G0 F9000 X55.908 Y51.8
;TYPE:WALL-OUTER
G1 F600 X55.908 Y50.2 E7.84507
G1 X54.333 Y50.2 E7.86482
G1 X54.336 Y51.8 E7.88488
G1 X55.908 Y51.8 E7.9046
G0 F9000 X55.908 Y51.6
G1 F3000 E1.4046
G1 F600 Z0.9
G0 F9000 X41.4 Y51.4 Z0.9
;TYPE:WALL-INNER
G1 F600 Z0.7
G1 F2700 E7.9046
G1 F600 X41.4 Y50.6 E7.91463
G1 X40.6 Y50.6 E7.92466
G1 X40.6 Y51.4 E7.93469
G1 X41.4 Y51.4 E7.94473
G0 F9000 X41.8 Y51.8
;TYPE:WALL-OUTER
G1 F600 X41.8 Y50.2 E7.96479
G1 X40.2 Y50.2 E7.98485
G1 X40.2 Y51.8 E8.00492
G1 X41.8 Y51.8 E8.02498
G0 F9000 X41.8 Y51.6
;MESH:NONMESH
G0 F600 X41.8 Y51.6 Z0.9
G0 F9000 X41.4 Y51.4
;TIME_ELAPSED:40.384323
;LAYER:3
;note -- min layer time used
;TYPE:WALL-INNER
;MESH:./led-grill/cover.stl
G1 F600 X41.4 Y50.6 E8.03502
G1 X40.6 Y50.6 E8.04505
G1 X40.6 Y51.4 E8.05508
G1 X41.4 Y51.4 E8.06511
G0 F9000 X41.8 Y51.8
;TYPE:WALL-OUTER
G1 F600 X41.8 Y50.2 E8.08518
G1 X40.2 Y50.2 E8.10524
G1 X40.2 Y51.8 E8.12531
G1 X41.8 Y51.8 E8.14537
G0 F9000 X41.8 Y51.6
G1 F3000 E1.64537
G1 F600 Z1.1
G0 F9000 X55.64 Y51.4 Z1.1
;TYPE:WALL-INNER
G1 F600 Z0.9
G1 F2700 E8.14537
G1 F600 X55.64 Y50.6 E8.1554
G1 X54.831 Y50.6 E8.16555
G1 X54.83 Y51.4 E8.17558
G1 X55.64 Y51.4 E8.18574
G0 F9000 X56.04 Y51.8
;TYPE:WALL-OUTER
G1 F600 X56.04 Y50.2 E8.2058
G1 X54.432 Y50.2 E8.22597
G1 X54.429 Y51.8 E8.24603
G1 X56.04 Y51.8 E8.26624
G0 F9000 X56.04 Y51.6
G0 X55.289 Y51
;TYPE:SKIN
G1 F545.5 X55.262 Y51.048 E8.26699
G1 X55.207 Y51.048 E8.26775
G1 X55.179 Y51 E8.26852
G1 X55.206 Y50.952 E8.26928
G1 X55.261 Y50.952 E8.27004
G1 X55.289 Y51 E8.2708
G1 F3000 E1.7708
G1 F600 Z1.1
;MESH:NONMESH
G0 F9000 X41.4 Y51.4 Z1.1
;TIME_ELAPSED:43.053222
;LAYER:4
;note -- min layer time used
;TYPE:WALL-INNER
;MESH:./led-grill/cover.stl
G1 F600 Z1.1
