;FLAVOR:Marlin
;TIME:6666
;Filament used: 0m
;Layer height: 0.2
;MINX:2.14748e+06
;MINY:2.14748e+06
;MINZ:2.14748e+06
;MAXX:-2.14748e+06
;MAXY:-2.14748e+06
;MAXZ:-2.14748e+06

;Generated with Cura_SteamEngine 4.13.0
M104 S260
M105
M109 S260
M82 ;absolute extrusion mode
START_PRINT BED_TEMP={material_bed_temperature_layer_0} EXTRUDER_TEMP={material_print_temperature_layer_0}
G92 E0
G92 E0
G1 F2880 E-7
;LAYER_COUNT:53
;LAYER:0
M107
G1 F600 Z0.55
G0 F3600 X37.098 Y46.193 Z0.55
;TYPE:SKIRT
G1 F600 Z0.3
G1 F2520 E0
G1 F900 X37.613 Y45.85 E0.01164
G1 X38.169 Y45.576 E0.0233
G1 X38.755 Y45.376 E0.03495
G1 X39.362 Y45.253 E0.0466
G1 X39.875 Y45.211 E0.05628
G1 X40.33 Y45.2 E0.06484
G1 X41.361 Y45.2 E0.08423
G1 X42.067 Y45.21 E0.09752
G1 X42.201 Y45.214 E0.10004
G1 X43.344 Y45.263 E0.12156
G1 X43.88 Y45.294 E0.13166
G1 X46.574 Y45.372 E0.18235
G1 X49.273 Y45.374 E0.23312
G1 X51.957 Y45.3 E0.28363
G1 X53.713 Y45.212 E0.3167
G1 X54.187 Y45.2 E0.32562
G1 X55.177 Y45.2 E0.34424
G1 X55.875 Y45.21 E0.35738
G1 X56.492 Y45.259 E0.36902
G1 X57.098 Y45.387 E0.38067
G1 X57.683 Y45.592 E0.39233
G1 X58.236 Y45.871 E0.40398
G1 X58.749 Y46.218 E0.41563
G1 X59.213 Y46.628 E0.42728
G1 X59.62 Y47.095 E0.43893
G1 X59.963 Y47.61 E0.45057
G1 X60.238 Y48.166 E0.46224
G1 X60.438 Y48.752 E0.47388
G1 X60.562 Y49.359 E0.48554
G1 X60.604 Y49.875 E0.49528
G1 X60.615 Y50.326 E0.50376
G1 X60.616 Y51.327 E0.52259
G1 X60.606 Y52.056 E0.53631
G1 X60.557 Y52.673 E0.54795
G1 X60.43 Y53.279 E0.5596
G1 X60.225 Y53.864 E0.57126
G1 X59.947 Y54.417 E0.5829
G1 X59.6 Y54.93 E0.59455
G1 X59.19 Y55.394 E0.6062
G1 X58.723 Y55.802 E0.61786
G1 X58.208 Y56.146 E0.62951
G1 X57.653 Y56.42 E0.64115
G1 X57.067 Y56.621 E0.65281
G1 X56.46 Y56.745 E0.66446
G1 X55.664 Y56.797 E0.67947
G1 X55.505 Y56.8 E0.68246
G1 X54.496 Y56.8 E0.70144
G1 X53.791 Y56.79 E0.7147
G1 X53.657 Y56.786 E0.71722
G1 X52.513 Y56.737 E0.73876
G1 X51.977 Y56.706 E0.74886
G1 X49.283 Y56.628 E0.79956
G1 X46.585 Y56.626 E0.85031
G1 X43.899 Y56.7 E0.90085
G1 X42.144 Y56.788 E0.93391
G1 X41.67 Y56.8 E0.94283
G1 X40.645 Y56.8 E0.96211
G1 X39.947 Y56.791 E0.97524
G1 X39.33 Y56.743 E0.98688
G1 X38.723 Y56.616 E0.99854
G1 X38.139 Y56.412 E1.01018
G1 X37.585 Y56.134 E1.02184
G1 X37.072 Y55.787 E1.03349
G1 X36.607 Y55.378 E1.04514
G1 X36.2 Y54.911 E1.05679
G1 X35.855 Y54.397 E1.06844
G1 X35.58 Y53.842 E1.08009
G1 X35.379 Y53.256 E1.09174
G1 X35.254 Y52.649 E1.1034
G1 X35.211 Y52.121 E1.11336
G1 X35.2 Y51.658 E1.12207
G1 X35.201 Y50.602 E1.14194
G1 X35.211 Y49.937 E1.15445
G1 X35.26 Y49.319 E1.16611
G1 X35.388 Y48.714 E1.17774
G1 X35.593 Y48.129 E1.1894
G1 X35.872 Y47.576 E1.20105
G1 X36.22 Y47.064 E1.2127
G1 X36.631 Y46.6 E1.22436
G1 X37.098 Y46.193 E1.23601
G0 F3600 X37.483 Y46.407
G1 F900 X37.991 Y46.1 E1.24718
G1 X38.534 Y45.864 E1.25831
G1 X39.105 Y45.703 E1.26947
G1 X39.886 Y45.611 E1.28427
G1 X40.33 Y45.6 E1.29262
G1 X41.355 Y45.6 E1.3119
G1 X42.061 Y45.61 E1.32518
G1 X43.321 Y45.662 E1.3489
G1 X43.88 Y45.694 E1.35944
G1 X46.562 Y45.772 E1.40991
G1 X49.284 Y45.774 E1.46111
G1 X51.988 Y45.699 E1.51199
G1 X53.725 Y45.612 E1.54471
G1 X54.187 Y45.6 E1.5534
G1 X55.171 Y45.6 E1.57191
G1 X55.869 Y45.61 E1.58504
G1 X56.46 Y45.659 E1.5962
G1 X57.039 Y45.786 E1.60735
G1 X57.596 Y45.99 E1.61851
G1 X58.12 Y46.268 E1.62966
G1 X58.602 Y46.613 E1.64081
G1 X59.034 Y47.02 E1.65198
G1 X59.406 Y47.481 E1.66312
G1 X59.714 Y47.988 E1.67428
G1 X59.95 Y48.532 E1.68543
G1 X60.111 Y49.102 E1.69658
G1 X60.204 Y49.887 E1.71145
G1 X60.215 Y50.326 E1.71971
G1 X60.216 Y51.321 E1.73842
G1 X60.206 Y52.05 E1.75214
G1 X60.158 Y52.641 E1.76329
G1 X60.03 Y53.221 E1.77446
G1 X59.827 Y53.777 E1.7856
G1 X59.55 Y54.302 E1.79676
G1 X59.205 Y54.784 E1.80791
G1 X58.798 Y55.216 E1.81908
G1 X58.338 Y55.589 E1.83022
G1 X57.831 Y55.897 E1.84138
G1 X57.287 Y56.133 E1.85253
G1 X56.716 Y56.295 E1.86369
G1 X55.952 Y56.388 E1.87817
G1 X55.505 Y56.4 E1.88658
G1 X54.502 Y56.4 E1.90545
G1 X53.797 Y56.39 E1.91871
G1 X52.536 Y56.338 E1.94245
G1 X51.977 Y56.306 E1.95299
G1 X49.295 Y56.228 E2.00346
G1 X46.574 Y56.226 E2.05464
G1 X43.868 Y56.301 E2.10556
G1 X42.132 Y56.388 E2.13826
G1 X41.67 Y56.4 E2.14695
G1 X40.65 Y56.4 E2.16614
G1 X39.952 Y56.391 E2.17927
G1 X39.361 Y56.343 E2.19042
G1 X38.782 Y56.216 E2.20157
G1 X38.225 Y56.013 E2.21272
G1 X37.7 Y55.737 E2.22388
G1 X37.218 Y55.392 E2.23503
G1 X36.786 Y54.986 E2.24618
G1 X36.412 Y54.525 E2.25735
G1 X36.104 Y54.019 E2.26849
G1 X35.867 Y53.475 E2.27965
G1 X35.705 Y52.905 E2.2908
G1 X35.611 Y52.11 E2.30586
G1 X35.6 Y51.658 E2.31436
G1 X35.6 Y50.608 E2.33412
G1 X35.61 Y49.943 E2.34663
G1 X35.659 Y49.352 E2.35778
G1 X35.787 Y48.773 E2.36894
G1 X35.992 Y48.216 E2.3801
G1 X36.269 Y47.692 E2.39125
G1 X36.615 Y47.21 E2.40241
G1 X37.022 Y46.779 E2.41356
G1 X37.483 Y46.407 E2.4247
G0 F3600 X37.412 Y46.968
G1 F900 X37.866 Y46.632 E2.43533
G1 X38.364 Y46.363 E2.44597
G1 X38.894 Y46.168 E2.4566
G1 X39.447 Y46.049 E2.46724
G1 X40.218 Y46.002 E2.48177
G1 X40.33 Y46 E2.48388
G1 X41.35 Y46 E2.50306
G1 X42.056 Y46.01 E2.51634
G1 X43.298 Y46.062 E2.53973
G1 X43.846 Y46.094 E2.55005
G1 X46.55 Y46.172 E2.60094
G1 X49.294 Y46.174 E2.65255
G1 X51.975 Y46.1 E2.703
G1 X53.737 Y46.012 E2.73619
G1 X54.187 Y46 E2.74466
G1 X55.165 Y46 E2.76305
G1 X55.863 Y46.01 E2.77618
G1 X56.427 Y46.058 E2.78683
G1 X56.977 Y46.185 E2.79745
G1 X57.505 Y46.389 E2.8081
G1 X57.999 Y46.664 E2.81873
G1 X58.448 Y47.007 E2.82936
G1 X58.845 Y47.409 E2.83999
G1 X59.182 Y47.864 E2.85064
G1 X59.45 Y48.361 E2.86126
G1 X59.646 Y48.891 E2.87189
G1 X59.766 Y49.444 E2.88254
G1 X59.813 Y50.219 E2.89714
G1 X59.815 Y50.327 E2.89917
G1 X59.816 Y51.316 E2.91778
G1 X59.806 Y52.045 E2.93149
G1 X59.758 Y52.608 E2.94212
G1 X59.631 Y53.159 E2.95276
G1 X59.428 Y53.687 E2.9634
G1 X59.153 Y54.18 E2.97401
G1 X58.811 Y54.63 E2.98465
G1 X58.408 Y55.028 E2.9953
G1 X57.954 Y55.364 E3.00593
G1 X57.457 Y55.633 E3.01656
G1 X56.927 Y55.83 E3.02719
G1 X56.374 Y55.949 E3.03783
G1 X55.638 Y55.998 E3.05171
G1 X55.505 Y56 E3.05421
G1 X54.507 Y56 E3.07298
G1 X53.802 Y55.99 E3.08625
G1 X52.559 Y55.938 E3.10965
G1 X52.011 Y55.906 E3.11997
G1 X49.307 Y55.828 E3.17086
G1 X46.563 Y55.826 E3.22247
G1 X43.881 Y55.9 E3.27294
G1 X42.12 Y55.988 E3.30611
G1 X41.67 Y56 E3.31458
G1 X40.655 Y56 E3.33367
G1 X39.957 Y55.991 E3.3468
G1 X39.394 Y55.943 E3.35743
G1 X38.843 Y55.817 E3.36806
G1 X38.315 Y55.615 E3.3787
G1 X37.821 Y55.34 E3.38933
G1 X37.371 Y54.998 E3.39996
G1 X36.973 Y54.596 E3.4106
G1 X36.637 Y54.142 E3.42123
G1 X36.367 Y53.645 E3.43187
G1 X36.17 Y53.115 E3.4425
G1 X36.05 Y52.563 E3.45313
G1 X36.001 Y51.766 E3.46815
G1 X36 Y50.614 E3.48982
G1 X36.01 Y49.949 E3.50233
G1 X36.059 Y49.386 E3.51296
G1 X36.186 Y48.835 E3.5236
G1 X36.39 Y48.307 E3.53424
G1 X36.666 Y47.814 E3.54487
G1 X37.009 Y47.365 E3.5555
G1 X37.412 Y46.968 E3.56614
G0 F3600 X37.8 Y47.168
G1 F900 X38.246 Y46.871 E3.57622
G1 X38.732 Y46.643 E3.58632
G1 X39.246 Y46.491 E3.5964
G1 X39.909 Y46.41 E3.60897
G1 X40.33 Y46.4 E3.61689
G1 X41.344 Y46.4 E3.63596
G1 X42.15 Y46.413 E3.65112
G1 X43.275 Y46.461 E3.67231
G1 X43.847 Y46.494 E3.68308
G1 X46.538 Y46.572 E3.73372
G1 X49.27 Y46.574 E3.78511
G1 X52.05 Y46.497 E3.83743
G1 X53.749 Y46.412 E3.86943
G1 X54.187 Y46.4 E3.87767
G1 X55.16 Y46.4 E3.89597
G1 X55.858 Y46.41 E3.9091
G1 X56.392 Y46.458 E3.91919
G1 X56.913 Y46.584 E3.92927
G1 X57.41 Y46.787 E3.93937
G1 X57.871 Y47.061 E3.94946
G1 X58.286 Y47.4 E3.95954
G1 X58.646 Y47.798 E3.96963
G1 X58.943 Y48.244 E3.97971
G1 X59.171 Y48.73 E3.98981
G1 X59.323 Y49.244 E3.99989
G1 X59.405 Y49.909 E4.0125
G1 X59.415 Y50.327 E4.02036
G1 X59.416 Y51.31 E4.03885
G1 X59.406 Y52.039 E4.05257
G1 X59.358 Y52.574 E4.06267
G1 X59.232 Y53.095 E4.07275
G1 X59.03 Y53.592 E4.08284
G1 X58.756 Y54.053 E4.09293
G1 X58.417 Y54.468 E4.10301
G1 X58.02 Y54.829 E4.11311
G1 X57.574 Y55.126 E4.12318
G1 X57.088 Y55.354 E4.13328
G1 X56.575 Y55.507 E4.14335
G1 X55.926 Y55.588 E4.15566
G1 X55.505 Y55.6 E4.16358
G1 X54.513 Y55.6 E4.18224
G1 X53.708 Y55.587 E4.19738
G1 X52.582 Y55.539 E4.21858
G1 X52.01 Y55.506 E4.22936
G1 X49.319 Y55.428 E4.28
G1 X46.588 Y55.426 E4.33137
G1 X43.807 Y55.503 E4.3837
G1 X42.108 Y55.588 E4.4157
G1 X41.67 Y55.6 E4.42395
G1 X40.661 Y55.6 E4.44293
G1 X39.963 Y55.591 E4.45606
G1 X39.428 Y55.544 E4.46616
G1 X38.907 Y55.418 E4.47624
G1 X38.41 Y55.216 E4.48633
G1 X37.949 Y54.943 E4.49641
G1 X37.533 Y54.604 E4.50651
G1 X37.172 Y54.208 E4.51659
G1 X36.874 Y53.762 E4.52668
G1 X36.646 Y53.276 E4.53677
G1 X36.493 Y52.762 E4.54686
G1 X36.41 Y52.088 E4.55964
G1 X36.4 Y51.658 E4.56773
G1 X36.4 Y50.62 E4.58725
G1 X36.41 Y49.955 E4.59976
G1 X36.458 Y49.421 E4.60985
G1 X36.585 Y48.9 E4.61993
G1 X36.788 Y48.403 E4.63003
G1 X37.062 Y47.942 E4.64012
G1 X37.402 Y47.527 E4.65021
G1 X37.8 Y47.168 E4.66029
G0 F3600 X38.185 Y47.38
G1 F900 X38.622 Y47.126 E4.6698
G1 X39.093 Y46.943 E4.67931
G1 X39.588 Y46.837 E4.68883
G1 X40.24 Y46.801 E4.70111
G1 X41.338 Y46.8 E4.72177
G1 X42.044 Y46.81 E4.73505
G1 X43.252 Y46.86 E4.75779
G1 X43.812 Y46.892 E4.76834
G1 X46.562 Y46.972 E4.82009
G1 X49.281 Y46.974 E4.87124
G1 X52.039 Y46.898 E4.92314
G1 X53.761 Y46.811 E4.95557
G1 X54.187 Y46.8 E4.96359
G1 X55.154 Y46.8 E4.98178
G1 X55.852 Y46.81 E4.99491
G1 X56.355 Y46.857 E5.00441
G1 X56.845 Y46.983 E5.01393
G1 X57.309 Y47.185 E5.02345
G1 X57.735 Y47.457 E5.03295
G1 X58.113 Y47.792 E5.04246
G1 X58.433 Y48.183 E5.05196
G1 X58.688 Y48.62 E5.06148
G1 X58.871 Y49.091 E5.07098
G1 X58.978 Y49.585 E5.08049
G1 X59.014 Y50.241 E5.09285
G1 X59.016 Y51.305 E5.11286
G1 X59.006 Y52.034 E5.12658
G1 X58.959 Y52.537 E5.13608
G1 X58.833 Y53.027 E5.1456
G1 X58.632 Y53.491 E5.15511
G1 X58.361 Y53.917 E5.16461
G1 X58.025 Y54.296 E5.17413
G1 X57.634 Y54.616 E5.18364
G1 X57.198 Y54.871 E5.19314
G1 X56.727 Y55.055 E5.20265
G1 X56.233 Y55.161 E5.21215
G1 X55.611 Y55.198 E5.22388
G1 X55.505 Y55.2 E5.22587
G1 X54.519 Y55.2 E5.24442
G1 X53.814 Y55.19 E5.25768
G1 X52.605 Y55.14 E5.28044
G1 X52.045 Y55.108 E5.29099
G1 X49.295 Y55.028 E5.34274
G1 X46.577 Y55.026 E5.39387
G1 X43.819 Y55.102 E5.44577
G1 X42.096 Y55.189 E5.47822
G1 X41.67 Y55.2 E5.48624
G1 X40.666 Y55.2 E5.50512
G1 X39.968 Y55.191 E5.51825
G1 X39.464 Y55.144 E5.52778
G1 X38.974 Y55.019 E5.53729
G1 X38.51 Y54.818 E5.5468
G1 X38.084 Y54.547 E5.5563
G1 X37.705 Y54.212 E5.56581
G1 X37.384 Y53.821 E5.57533
G1 X37.129 Y53.385 E5.58483
G1 X36.945 Y52.914 E5.59434
G1 X36.838 Y52.42 E5.60385
G1 X36.801 Y51.744 E5.61658
G1 X36.8 Y50.626 E5.63761
G1 X36.81 Y49.961 E5.65012
G1 X36.858 Y49.458 E5.65963
G1 X36.984 Y48.968 E5.66915
G1 X37.186 Y48.504 E5.67867
G1 X37.458 Y48.078 E5.68817
G1 X37.794 Y47.701 E5.69767
G1 X38.185 Y47.38 E5.70719
G1 F2880 E-1.29281
G1 F600 Z0.55
;MESH:./led-grill/cover.stl
G0 F3600 X41.4 Y51.4 Z0.55
;TYPE:WALL-INNER
G1 F600 Z0.3
G1 F2520 E5.70719
G1 F600 X40.6 Y51.4 E5.72224
G1 X40.6 Y50.6 E5.73729
G1 X41.4 Y50.6 E5.75233
G1 X41.4 Y51.4 E5.76738
G0 F3600 X41.8 Y51.8
;TYPE:WALL-OUTER
G1 F600 X40.2 Y51.8 E5.79748
G1 X40.2 Y50.2 E5.82758
G1 X41.8 Y50.2 E5.85767
G1 X41.8 Y51.8 E5.88777
G0 F3600 X41.6 Y51.8
G0 X41 Y51.118
G1 F2880 E-1.11223
G1 F600 Z0.55
G0 F3600 X41 Y51 Z0.55
G0 X55.216 Y51.4
M104 S255
;TYPE:WALL-INNER
G1 F600 Z0.3
G1 F2520 E5.88777
G1 F600 X54.457 Y51.4 E5.90205
G1 X54.457 Y50.6 E5.9171
G1 X55.215 Y50.6 E5.93135
G1 X55.216 Y51.4 E5.9464
G0 F3600 X55.616 Y51.8
;TYPE:WALL-OUTER
G1 F600 X54.057 Y51.8 E5.97573
G1 X54.057 Y50.2 E6.00582
G1 X55.615 Y50.2 E6.03513
G1 X55.616 Y51.8 E6.06523
G0 F3600 X55.416 Y51.8
G0 X54.933 Y51
G1 F2880 E-0.93477
G1 F600 Z0.55
;MESH:NONMESH
G0 F3600 X54.857 Y50.999 Z0.55
G0 X41.4 Y51.4
;TIME_ELAPSED:26.681760
;LAYER:1
M106 S255
;MESH:./led-grill/cover.stl
G0 F5700 X41.4 Y51.4 Z0.75
;TYPE:WALL-INNER
G1 F600 Z0.5
G1 F2520 E6.06523
G1 F775.9 X40.6 Y51.4 E6.07526
G1 X40.6 Y50.6 E6.08529
G1 X41.4 Y50.6 E6.09533
G1 X41.4 Y51.4 E6.10536
G0 F5700 X41.8 Y51.8
;TYPE:WALL-OUTER
G1 F600 X40.2 Y51.8 E6.12542
G1 X40.2 Y50.2 E6.14549
G1 X41.8 Y50.2 E6.16555
G1 X41.8 Y51.8 E6.18562
G0 F5700 X41.6 Y51.8
G0 X41 Y51.118
G1 F2880 E-0.81438
G1 F600 Z0.75
G0 F5700 X41 Y51 Z0.75
G0 X55.38 Y51.4
;TYPE:WALL-INNER
G1 F600 Z0.5
G1 F2520 E6.18562
G1 F775.9 X54.618 Y51.4 E6.19517
G1 X54.619 Y50.6 E6.2052
G1 X55.38 Y50.6 E6.21475
G1 X55.38 Y51.4 E6.22478
G0 F5700 X55.78 Y51.8
;TYPE:WALL-OUTER
G1 F600 X54.218 Y51.8 E6.24437
G1 X54.219 Y50.2 E6.26443
G1 X55.78 Y50.2 E6.28401
G1 X55.78 Y51.8 E6.30407
G0 F5700 X55.58 Y51.8
G0 X54.98 Y51.118
G1 F2880 E-0.69593
G1 F600 Z0.75
;MESH:NONMESH
G0 F5700 X55.018 Y51 Z0.75
G0 X41.4 Y51.4
;TIME_ELAPSED:29.684842
;LAYER:2
;MESH:./led-grill/cover.stl
G0 F7800 X41.4 Y51.4 Z0.95
;TYPE:WALL-INNER
G1 F600 Z0.7
G1 F2520 E6.30407
G1 F868.4 X40.6 Y51.4 E6.3141
G1 X40.6 Y50.6 E6.32414
G1 X41.4 Y50.6 E6.33417
G1 X41.4 Y51.4 E6.3442
G0 F7800 X41.8 Y51.8
;TYPE:WALL-OUTER
G1 F600 X40.2 Y51.8 E6.36427
G1 X40.2 Y50.2 E6.38433
G1 X41.8 Y50.2 E6.4044
G1 X41.8 Y51.8 E6.42446
G0 F7800 X41.6 Y51.8
G0 X41 Y51.118
G1 F2880 E-0.57554
G1 F600 Z0.95
G0 F7800 X41 Y51 Z0.95
G0 X55.511 Y51.4
;TYPE:WALL-INNER
G1 F600 Z0.7
G1 F2520 E6.42446
G1 F868.4 X54.735 Y51.4 E6.43419
G1 X54.735 Y50.6 E6.44422
G1 X55.511 Y50.6 E6.45396
G1 X55.511 Y51.4 E6.46399
G0 F7800 X55.911 Y51.8
;TYPE:WALL-OUTER
G1 F600 X54.335 Y51.8 E6.48375
G1 X54.335 Y50.2 E6.50382
G1 X55.911 Y50.2 E6.52358
G1 X55.911 Y51.8 E6.54364
G0 F7800 X55.711 Y51.8
G0 X55.111 Y51.118
G1 F2880 E-0.45636
G1 F600 Z0.95
;MESH:NONMESH
G0 F7800 X55.135 Y51 Z0.95
G0 X41.4 Y51.4
;TIME_ELAPSED:32.581136
;LAYER:3
;MESH:./led-grill/cover.stl
G0 X41.4 Y51.4 Z1.15
;TYPE:WALL-INNER
G1 F600 Z0.9
G1 F2520 E6.54364
G1 F1100 X40.6 Y51.4 E6.55368
G1 X40.6 Y50.6 E6.56371
G1 X41.4 Y50.6 E6.57374
G1 X41.4 Y51.4 E6.58377
G0 F7800 X41.8 Y51.8
;TYPE:WALL-OUTER
G1 F760 X40.2 Y51.8 E6.60384
G1 X40.2 Y50.2 E6.6239
G1 X41.8 Y50.2 E6.64397
G1 X41.8 Y51.8 E6.66403
G0 F7800 X41.6 Y51.8
G0 X41 Y51.118
G1 F2880 E-0.33597
G1 F600 Z1.15
G0 F7800 X41 Y51 Z1.15
G0 X55.643 Y51.4
;TYPE:WALL-INNER
G1 F600 Z0.9
G1 F2520 E6.66403
G1 F1100 X54.831 Y51.4 E6.67421
G1 X54.832 Y50.6 E6.68425
G1 X55.643 Y50.6 E6.69442
G1 X55.643 Y51.4 E6.70445
G0 F7800 X56.043 Y51.8
;TYPE:WALL-OUTER
G1 F760 X54.431 Y51.8 E6.72466
G1 X54.432 Y50.2 E6.74473
G1 X56.043 Y50.2 E6.76493
G1 X56.043 Y51.8 E6.785
G0 F7800 X55.843 Y51.8
G0 X55.462 Y50.886
;TYPE:SKIN
G1 F600 X55.128 Y51.219 E6.79091
G0 F7800 X55.231 Y51
G1 F2880 E-0.20909
G1 F600 Z1.15
;MESH:NONMESH
G0 F7800 X55.231 Y51 Z1.15
G0 X41.4 Y51.4
;TIME_ELAPSED:35.187607
;LAYER:4
;MESH:./led-grill/cover.stl
G0 X41.4 Y51.4 Z1.35
;TYPE:WALL-INNER
G1 F600 Z1.1
G1 F2520 E6.79091
G1 F1100 X40.6 Y51.4 E6.80094
G1 X40.6 Y50.6 E6.81097
G1 X41.4 Y50.6 E6.82101
G1 X41.4 Y51.4 E6.83104
G0 F7800 X41.8 Y51.8
;TYPE:WALL-OUTER
G1 F760 X40.2 Y51.8 E6.8511
G1 X40.2 Y50.2 E6.87117
G1 X41.8 Y50.2 E6.89123
G1 X41.8 Y51.8 E6.9113
G0 F7800 X41.6 Y51.8
G0 X41 Y51.118
G1 F2880 E-0.0887
G1 F600 Z1.35
G0 F7800 X41 Y51 Z1.35
G0 X55.774 Y51.4
;TYPE:WALL-INNER
G1 F600 Z1.1
G1 F2520 E6.9113
G1 F1100 X54.913 Y51.4 E6.9221
G1 X54.914 Y50.6 E6.93213
G1 X55.774 Y50.6 E6.94291
G1 X55.774 Y51.4 E6.95294
G0 F7800 X56.174 Y51.8
;TYPE:WALL-OUTER
G1 F760 X54.513 Y51.8 E6.97377
G1 X54.514 Y50.2 E6.99384
G1 X56.174 Y50.2 E7.01466
G1 X56.174 Y51.8 E7.03472
G0 F7800 X55.974 Y51.8
G0 X55.179 Y51.219
;TYPE:SKIN
G1 F600 X55.092 Y51.132 E7.03626
G0 F7800 X55.305 Y50.78
G1 F600 X55.593 Y51.067 E7.04136
G0 F7800 X55.374 Y51
G1 F2880 E0.04136
G1 F600 Z1.35
;MESH:NONMESH
G0 F7800 X55.374 Y51 Z1.35
G0 X41.4 Y51.4
;TIME_ELAPSED:37.829937
;LAYER:5
;MESH:./led-grill/cover.stl
G0 X41.4 Y51.4 Z1.55
;TYPE:WALL-INNER
G1 F600 Z1.3
G1 F2520 E7.04136
G1 F1100 X40.6 Y51.4 E7.05139
G1 X40.6 Y50.6 E7.06143
G1 X41.4 Y50.6 E7.07146
G1 X41.4 Y51.4 E7.08149
G0 F7800 X41.8 Y51.8
;TYPE:WALL-OUTER
G1 F760 X40.2 Y51.8 E7.10156
G1 X40.2 Y50.2 E7.12162
G1 X41.8 Y50.2 E7.14168
G1 X41.8 Y51.8 E7.16175
G0 F7800 X41.6 Y51.8
G0 X41 Y51.118
G1 F2880 E0.16175
G1 F600 Z1.55
G0 F7800 X41 Y51 Z1.55
G0 X55.906 Y51.4
;TYPE:WALL-INNER
G1 F600 Z1.3
G1 F2520 E7.16175
G1 F1100 X54.981 Y51.4 E7.17335
G1 X54.982 Y50.6 E7.18338
G1 X55.906 Y50.6 E7.19497
G1 X55.906 Y51.4 E7.205
