;FLAVOR:Marlin
;TIME:6666
;Filament used: 0m
;Layer height: 0.2
;MINX:2.14748e+06
;MINY:2.14748e+06
;MINZ:2.14748e+06
;MAXX:-2.14748e+06
;MAXY:-2.14748e+06
;MAXZ:-2.14748e+06
;TARGET_MACHINE.NAME:Unknown

;Generated with Cura_SteamEngine 5.9.0
M104 S215
M105
M109 S215
M82 ;absolute extrusion mode
START_PRINT BED_TEMP={material_bed_temperature_layer_0} EXTRUDER_TEMP={material_print_temperature_layer_0}
G92 E0
G92 E0
G1 F2700 E-5
;LAYER_COUNT:144
;LAYER:0
M107
G1 F600 Z0.4
G0 F3600 X31.011 Y38.921 Z0.4
;TYPE:SKIRT
G1 F600 Z0.3
G1 F2400 E0
G1 F1800 X31.082 Y38.259 E0.01252
G1 X31.249 Y37.652 E0.02437
G1 X31.509 Y37.077 E0.03624
G1 X31.858 Y36.549 E0.04814
G1 X32.284 Y36.084 E0.06
G1 X32.779 Y35.691 E0.07189
G1 X33.325 Y35.382 E0.0837
G1 X33.857 Y35.18 E0.0944
G1 X34.516 Y35.04 E0.10707
G1 X34.961 Y35.003 E0.11547
G1 X64.351 Y35 E0.66831
G1 X65.083 Y35.012 E0.68209
G1 X65.743 Y35.083 E0.69457
G1 X66.293 Y35.229 E0.70528
G1 X66.867 Y35.479 E0.71705
G1 X67.348 Y35.781 E0.72774
G1 X67.92 Y36.289 E0.74213
G1 X68.31 Y36.782 E0.75395
G1 X68.62 Y37.333 E0.76584
G1 X68.839 Y37.925 E0.77772
G1 X68.954 Y38.482 E0.78842
G1 X68.999 Y39.24 E0.8027
G1 X69 Y60.314 E1.19911
G1 X68.989 Y61.075 E1.21343
G1 X68.92 Y61.736 E1.22593
G1 X68.753 Y62.345 E1.23781
G1 X68.493 Y62.919 E1.24966
G1 X68.145 Y63.448 E1.26157
G1 X67.719 Y63.914 E1.27345
G1 X67.225 Y64.307 E1.28532
G1 X66.674 Y64.618 E1.29723
G1 X66.086 Y64.836 E1.30902
G1 X65.532 Y64.952 E1.31967
G1 X64.76 Y64.999 E1.33422
G1 X35.656 Y65 E1.88168
G1 X34.924 Y64.989 E1.89545
G1 X34.262 Y64.919 E1.90797
G1 X33.653 Y64.752 E1.91985
G1 X33.078 Y64.491 E1.93173
G1 X32.551 Y64.144 E1.9436
G1 X32.085 Y63.717 E1.95549
G1 X31.692 Y63.222 E1.96738
G1 X31.382 Y62.673 E1.97924
G1 X31.163 Y62.081 E1.99111
G1 X31.04 Y61.486 E2.00254
G1 X31.003 Y61.033 E2.01109
G1 X31 Y39.621 E2.41386
G1 X31.011 Y38.921 E2.42703
G0 F3600 X31.409 Y38.961
G1 F1800 X31.469 Y38.362 E2.43835
G1 X31.615 Y37.814 E2.44902
G1 X31.845 Y37.295 E2.4597
G1 X32.155 Y36.817 E2.47042
G1 X32.535 Y36.395 E2.4811
G1 X32.978 Y36.038 E2.4918
G1 X33.471 Y35.755 E2.50249
G1 X33.942 Y35.571 E2.512
G1 X34.549 Y35.439 E2.52369
G1 X34.994 Y35.402 E2.53209
G1 X64.345 Y35.4 E3.0842
G1 X65.043 Y35.41 E3.09733
G1 X65.64 Y35.47 E3.10862
G1 X66.19 Y35.616 E3.11932
G1 X66.654 Y35.818 E3.12884
G1 X67.135 Y36.12 E3.13952
G1 X67.608 Y36.539 E3.15141
G1 X67.963 Y36.981 E3.16207
G1 X68.246 Y37.475 E3.17278
G1 X68.447 Y38.006 E3.18346
G1 X68.562 Y38.563 E3.19416
G1 X68.599 Y39.24 E3.20691
G1 X68.6 Y60.309 E3.60323
G1 X68.591 Y61.036 E3.61691
G1 X68.533 Y61.633 E3.62819
G1 X68.387 Y62.183 E3.6389
G1 X68.157 Y62.702 E3.64958
G1 X67.848 Y63.18 E3.66028
G1 X67.467 Y63.603 E3.67099
G1 X67.026 Y63.96 E3.68166
G1 X66.532 Y64.244 E3.69238
G1 X66.001 Y64.445 E3.70306
G1 X65.507 Y64.553 E3.71257
G1 X64.76 Y64.599 E3.72665
G1 X35.661 Y64.6 E4.27402
G1 X34.963 Y64.591 E4.28715
G1 X34.365 Y64.532 E4.29845
G1 X33.815 Y64.386 E4.30916
G1 X33.295 Y64.155 E4.31986
G1 X32.819 Y63.847 E4.33053
G1 X32.396 Y63.466 E4.34124
G1 X32.039 Y63.023 E4.35194
G1 X31.756 Y62.531 E4.36261
G1 X31.554 Y61.999 E4.37332
G1 X31.439 Y61.453 E4.38381
G1 X31.402 Y61 E4.39236
G1 X31.4 Y39.626 E4.79442
G1 X31.409 Y38.961 E4.80693
G0 F3600 X31.809 Y38.966
G1 F1800 X31.856 Y38.462 E4.81645
G1 X31.982 Y37.973 E4.82595
G1 X32.183 Y37.509 E4.83546
G1 X32.454 Y37.082 E4.84498
G1 X32.789 Y36.704 E4.85448
G1 X33.18 Y36.383 E4.86399
G1 X33.617 Y36.128 E4.87351
G1 X34.088 Y35.944 E4.88302
G1 X34.582 Y35.838 E4.89253
G1 X35.027 Y35.801 E4.90093
G1 X64.339 Y35.8 E5.4523
G1 X65.037 Y35.81 E5.46543
G1 X65.54 Y35.857 E5.47493
G1 X66.03 Y35.983 E5.48445
G1 X66.494 Y36.185 E5.49397
G1 X66.92 Y36.457 E5.50348
G1 X67.298 Y36.792 E5.51298
G1 X67.618 Y37.183 E5.52248
G1 X67.873 Y37.62 E5.532
G1 X68.056 Y38.091 E5.54151
G1 X68.163 Y38.585 E5.55101
G1 X68.199 Y39.24 E5.56335
G1 X68.2 Y60.304 E5.95958
G1 X68.191 Y61.031 E5.97326
G1 X68.145 Y61.534 E5.98276
G1 X68.02 Y62.024 E5.99227
G1 X67.819 Y62.488 E6.00178
G1 X67.548 Y62.915 E6.01129
G1 X67.213 Y63.294 E6.02081
G1 X66.823 Y63.615 E6.03031
G1 X66.387 Y63.871 E6.03982
G1 X65.916 Y64.054 E6.04933
G1 X65.422 Y64.162 E6.05884
G1 X64.76 Y64.199 E6.07131
G1 X35.666 Y64.2 E6.61858
G1 X34.968 Y64.191 E6.63172
G1 X34.464 Y64.144 E6.64124
G1 X33.974 Y64.019 E6.65075
G1 X33.51 Y63.818 E6.66026
G1 X33.084 Y63.547 E6.66976
G1 X32.705 Y63.212 E6.67927
G1 X32.384 Y62.821 E6.68879
G1 X32.129 Y62.385 E6.69829
G1 X31.945 Y61.914 E6.7078
G1 X31.838 Y61.42 E6.71731
G1 X31.801 Y60.967 E6.72586
G1 X31.8 Y39.631 E7.1272
G1 X31.809 Y38.966 E7.13971
G1 F2700 E2.13971
G1 F600 Z0.4
;MESH:./car-screen-support/car-screen-support.stl
G0 F3600 X64.4 Y60.4 Z0.4
;TYPE:WALL-INNER
G1 F600 Z0.3
G1 F2400 E7.13971
G1 F1800 X64.4 Y39.6 E7.53097
G1 X35.6 Y39.6 E8.07272
G1 X35.6 Y60.4 E8.46398
G1 X64.4 Y60.4 E9.00572
G0 F3600 X64.8 Y60.8
;TYPE:WALL-OUTER
G1 F1800 X64.8 Y39.2 E9.41203
G1 X35.2 Y39.2 E9.96882
G1 X35.2 Y60.8 E10.37513
G1 X64.8 Y60.8 E10.93192
G0 F3600 X64.8 Y60.6
G0 X64.02 Y60.02
;TYPE:SKIN
G1 F1800 X35.98 Y60.02 E11.45937
G1 X35.98 Y39.98 E11.83633
G1 X64.02 Y39.98 E12.36378
G1 X64.02 Y60.02 E12.74074
G0 F3600 X63.373 Y40.18
G1 F1800 X63.82 Y40.627 E12.75263
G0 F3600 X63.82 Y41.193
G1 F1800 X62.807 Y40.18 E12.77958
G0 F3600 X62.242 Y40.18
G1 F1800 X63.82 Y41.758 E12.82156
G0 F3600 X63.82 Y42.324
G1 F1800 X61.676 Y40.18 E12.8786
G0 F3600 X61.11 Y40.18
G1 F1800 X63.82 Y42.89 E12.95069
G0 F3600 X63.82 Y43.455
G1 F1800 X60.545 Y40.18 E13.03781
G0 F3600 X59.979 Y40.18
G1 F1800 X63.82 Y44.021 E13.13999
G0 F3600 X63.82 Y44.587
G1 F1800 X59.413 Y40.18 E13.25722
G0 F3600 X58.848 Y40.18
G1 F1800 X63.82 Y45.152 E13.38949
G0 F3600 X63.82 Y45.718
G1 F1800 X58.282 Y40.18 E13.53681
G0 F3600 X57.716 Y40.18
G1 F1800 X63.82 Y46.284 E13.69919
G0 F3600 X63.82 Y46.849
G1 F1800 X57.15 Y40.18 E13.87661
G0 F3600 X56.585 Y40.18
G1 F1800 X63.82 Y47.415 E14.06908
G0 F3600 X63.82 Y47.981
G1 F1800 X56.019 Y40.18 E14.2766
G0 F3600 X55.453 Y40.18
G1 F1800 X63.82 Y48.546 E14.49917
G0 F3600 X63.82 Y49.112
G1 F1800 X54.888 Y40.18 E14.73678
G0 F3600 X54.322 Y40.18
G1 F1800 X63.82 Y49.678 E14.98945
G0 F3600 X63.82 Y50.243
G1 F1800 X53.756 Y40.18 E15.25716
G0 F3600 X53.191 Y40.18
G1 F1800 X63.82 Y50.809 E15.53991
G0 F3600 X63.82 Y51.375
G1 F1800 X52.625 Y40.18 E15.83772
G0 F3600 X52.059 Y40.18
G1 F1800 X63.82 Y51.941 E16.15059
G0 F3600 X63.82 Y52.506
G1 F1800 X51.494 Y40.18 E16.47849
G0 F3600 X50.928 Y40.18
G1 F1800 X63.82 Y53.072 E16.82145
G0 F3600 X63.82 Y53.638
G1 F1800 X50.362 Y40.18 E17.17946
G0 F3600 X49.797 Y40.18
G1 F1800 X63.82 Y54.203 E17.5525
G0 F3600 X63.82 Y54.769
G1 F1800 X49.231 Y40.18 E17.9406
G0 F3600 X48.665 Y40.18
G1 F1800 X63.82 Y55.335 E18.34375
G0 F3600 X63.82 Y55.9
G1 F1800 X48.1 Y40.18 E18.76194
G0 F3600 X47.534 Y40.18
G1 F1800 X63.82 Y56.466 E19.19518
G0 F3600 X63.82 Y57.032
G1 F1800 X46.968 Y40.18 E19.64348
G0 F3600 X46.402 Y40.18
G1 F1800 X63.82 Y57.597 E20.10682
G0 F3600 X63.82 Y58.163
G1 F1800 X45.837 Y40.18 E20.58521
G0 F3600 X45.271 Y40.18
G1 F1800 X63.82 Y58.729 E21.07865
G0 F3600 X63.82 Y59.294
G1 F1800 X44.705 Y40.18 E21.58714
G0 F3600 X44.14 Y40.18
G1 F1800 X63.78 Y59.82 E22.10961
G0 F3600 X63.214 Y59.82
G1 F1800 X43.574 Y40.18 E22.63207
G0 F3600 X43.008 Y40.18
G1 F1800 X62.648 Y59.82 E23.15454
G0 F3600 X62.083 Y59.82
G1 F1800 X42.443 Y40.18 E23.677
G0 F3600 X41.877 Y40.18
G1 F1800 X61.517 Y59.82 E24.19947
G0 F3600 X60.951 Y59.82
G1 F1800 X41.311 Y40.18 E24.72194
G0 F3600 X40.746 Y40.18
G1 F1800 X60.386 Y59.82 E25.2444
G0 F3600 X59.82 Y59.82
G1 F1800 X40.18 Y40.18 E25.76687
G0 F3600 X39.614 Y40.18
G1 F1800 X59.254 Y59.82 E26.28933
G0 F3600 X58.688 Y59.82
G1 F1800 X39.049 Y40.18 E26.81179
G0 F3600 X38.483 Y40.18
G1 F1800 X58.123 Y59.82 E27.33425
G0 F3600 X57.557 Y59.82
G1 F1800 X37.917 Y40.18 E27.85672
G0 F3600 X37.352 Y40.18
G1 F1800 X56.991 Y59.82 E28.37917
G0 F3600 X56.426 Y59.82
G1 F1800 X36.786 Y40.18 E28.90164
G0 F3600 X36.22 Y40.18
G1 F1800 X55.86 Y59.82 E29.42411
G0 F3600 X55.294 Y59.82
G1 F1800 X36.18 Y40.705 E29.93259
G0 F3600 X36.18 Y41.271
G1 F1800 X54.729 Y59.82 E30.42603
G0 F3600 X54.163 Y59.82
G1 F1800 X36.18 Y41.837 E30.90442
G0 F3600 X36.18 Y42.402
G1 F1800 X53.597 Y59.82 E31.36776
G0 F3600 X53.032 Y59.82
G1 F1800 X36.18 Y42.968 E31.81606
G0 F3600 X36.18 Y43.534
G1 F1800 X52.466 Y59.82 E32.24931
G0 F3600 X51.9 Y59.82
G1 F1800 X36.18 Y44.099 E32.6675
G0 F3600 X36.18 Y44.665
G1 F1800 X51.335 Y59.82 E33.07066
G0 F3600 X50.769 Y59.82
G1 F1800 X36.18 Y45.231 E33.45876
G0 F3600 X36.18 Y45.796
G1 F1800 X50.203 Y59.82 E33.83181
G0 F3600 X49.637 Y59.82
G1 F1800 X36.18 Y46.362 E34.18981
G0 F3600 X36.18 Y46.928
G1 F1800 X49.072 Y59.82 E34.53277
G0 F3600 X48.506 Y59.82
G1 F1800 X36.18 Y47.494 E34.86067
G0 F3600 X36.18 Y48.059
G1 F1800 X47.94 Y59.82 E35.17352
G0 F3600 X47.375 Y59.82
G1 F1800 X36.18 Y48.625 E35.47133
G0 F3600 X36.18 Y49.191
G1 F1800 X46.809 Y59.82 E35.75409
G0 F3600 X46.243 Y59.82
G1 F1800 X36.18 Y49.756 E36.0218
G0 F3600 X36.18 Y50.322
G1 F1800 X45.678 Y59.82 E36.27446
G0 F3600 X45.112 Y59.82
G1 F1800 X36.18 Y50.888 E36.51207
G0 F3600 X36.18 Y51.453
G1 F1800 X44.546 Y59.82 E36.73464
G0 F3600 X43.981 Y59.82
G1 F1800 X36.18 Y52.019 E36.94216
G0 F3600 X36.18 Y52.585
G1 F1800 X43.415 Y59.82 E37.13463
G0 F3600 X42.849 Y59.82
G1 F1800 X36.18 Y53.15 E37.31205
G0 F3600 X36.18 Y53.716
G1 F1800 X42.284 Y59.82 E37.47443
G0 F3600 X41.718 Y59.82
G1 F1800 X36.18 Y54.282 E37.62176
G0 F3600 X36.18 Y54.847
G1 F1800 X41.152 Y59.82 E37.75403
G0 F3600 X40.587 Y59.82
M104 S210
G1 F1800 X36.18 Y55.413 E37.87127
G0 F3600 X36.18 Y55.979
G1 F1800 X40.021 Y59.82 E37.97345
G0 F3600 X39.455 Y59.82
G1 F1800 X36.18 Y56.545 E38.06057
G0 F3600 X36.18 Y57.11
G1 F1800 X38.889 Y59.82 E38.13265
G0 F3600 X38.324 Y59.82
G1 F1800 X36.18 Y57.676 E38.18968
G0 F3600 X36.18 Y58.242
G1 F1800 X37.758 Y59.82 E38.23166
G0 F3600 X37.192 Y59.82
G1 F1800 X36.18 Y58.807 E38.2586
G0 F3600 X36.18 Y59.373
G1 F1800 X36.627 Y59.82 E38.27049
G0 F3600 X36.627 Y59.79
G1 F2700 E33.27049
G1 F600 Z0.4
;MESH:NONMESH
G0 F3600 X36.627 Y59.79 Z0.4
G0 X31.809 Y38.966
;TIME_ELAPSED:73.724776
;LAYER:1
M106 S255
G0 F6000 X31.809 Y38.966 Z0.6
;TYPE:SKIRT
G1 F600 Z0.5
G1 F2400 E38.27049
G1 F1800 X31.856 Y38.462 E38.27684
G1 X31.982 Y37.973 E38.28317
G1 X32.183 Y37.509 E38.28951
G1 X32.454 Y37.082 E38.29585
G1 X32.789 Y36.704 E38.30219
G1 X33.18 Y36.383 E38.30853
G1 X33.617 Y36.128 E38.31487
G1 X34.088 Y35.944 E38.32122
G1 X34.582 Y35.838 E38.32755
G1 X35.027 Y35.801 E38.33315
G1 X64.339 Y35.8 E38.70074
G1 X65.037 Y35.81 E38.70949
G1 X65.54 Y35.857 E38.71582
G1 X66.03 Y35.983 E38.72217
G1 X66.494 Y36.185 E38.72852
G1 X66.92 Y36.457 E38.73485
G1 X67.298 Y36.792 E38.74119
G1 X67.618 Y37.183 E38.74752
G1 X67.873 Y37.62 E38.75387
G1 X68.056 Y38.091 E38.76021
G1 X68.163 Y38.585 E38.76654
G1 X68.199 Y39.24 E38.77477
G1 X68.2 Y60.304 E39.03892
G1 X68.191 Y61.031 E39.04804
G1 X68.145 Y61.534 E39.05437
G1 X68.02 Y62.024 E39.06071
G1 X67.819 Y62.488 E39.06706
G1 X67.548 Y62.915 E39.0734
G1 X67.213 Y63.294 E39.07974
G1 X66.823 Y63.615 E39.08607
G1 X66.387 Y63.871 E39.09242
G1 X65.916 Y64.054 E39.09875
G1 X65.422 Y64.162 E39.10509
G1 X64.76 Y64.199 E39.11341
G1 X35.666 Y64.2 E39.47826
G1 X34.968 Y64.191 E39.48701
G1 X34.464 Y64.144 E39.49336
G1 X33.974 Y64.019 E39.4997
G1 X33.51 Y63.818 E39.50604
G1 X33.084 Y63.547 E39.51237
G1 X32.705 Y63.212 E39.51872
G1 X32.384 Y62.821 E39.52506
G1 X32.129 Y62.385 E39.53139
G1 X31.945 Y61.914 E39.53774
G1 X31.838 Y61.42 E39.54407
G1 X31.801 Y60.967 E39.54977
G1 X31.8 Y39.631 E39.81734
G1 X31.809 Y38.966 E39.82568
G1 F2700 E34.82568
G1 F600 Z0.6
;MESH:./car-screen-support/car-screen-support.stl
G0 F6000 X64.4 Y60.4 Z0.6
;TYPE:WALL-INNER
G1 F600 Z0.5
G1 F2400 E39.82568
G1 F2700 X64.4 Y39.6 E40.08652
G1 X35.6 Y39.6 E40.44768
G1 X35.6 Y60.4 E40.70852
G1 X64.4 Y60.4 E41.06968
G0 F6000 X64.8 Y60.8
;TYPE:WALL-OUTER
G1 F2340 X64.8 Y39.2 E41.34055
G1 X35.2 Y39.2 E41.71175
G1 X35.2 Y60.8 E41.98262
G1 X64.8 Y60.8 E42.35381
G0 F6000 X64.8 Y60.6
G0 X64.02 Y60.02
;TYPE:SKIN
G1 F1800 X35.98 Y60.02 E42.70545
G1 X35.98 Y39.98 E42.95676
G1 X64.02 Y39.98 E43.30839
G1 X64.02 Y60.02 E43.5597
G0 F6000 X63.82 Y59.5
G1 F1800 X63.499 Y59.821 E43.56539
G0 F6000 X62.933 Y59.821
G1 F1800 X63.82 Y58.934 E43.58112
G0 F6000 X63.82 Y58.368
G1 F1800 X62.368 Y59.821 E43.60688
G0 F6000 X61.802 Y59.821
G1 F1800 X63.82 Y57.802 E43.64268
G0 F6000 X63.82 Y57.237
G1 F1800 X61.236 Y59.821 E43.6885
G0 F6000 X60.67 Y59.821
G1 F1800 X63.82 Y56.671 E43.74437
G0 F6000 X63.82 Y56.105
G1 F1800 X60.105 Y59.821 E43.81026
G0 F6000 X59.539 Y59.821
G1 F1800 X63.82 Y55.54 E43.88618
G0 F6000 X63.82 Y54.974
G1 F1800 X58.973 Y59.821 E43.97215
G0 F6000 X58.408 Y59.821
G1 F1800 X63.82 Y54.408 E44.06813
G0 F6000 X63.82 Y53.843
G1 F1800 X57.842 Y59.821 E44.17415
G0 F6000 X57.276 Y59.821
G1 F1800 X63.82 Y53.277 E44.29021
G0 F6000 X63.82 Y52.711
G1 F1800 X56.711 Y59.821 E44.41629
G0 F6000 X56.145 Y59.821
G1 F1800 X63.82 Y52.146 E44.55241
G0 F6000 X63.82 Y51.58
G1 F1800 X55.579 Y59.821 E44.69856
G0 F6000 X55.014 Y59.821
G1 F1800 X63.82 Y51.014 E44.85474
G0 F6000 X63.82 Y50.449
G1 F1800 X54.448 Y59.821 E45.02095
G0 F6000 X53.882 Y59.821
G1 F1800 X63.82 Y49.883 E45.1972
G0 F6000 X63.82 Y49.317
G1 F1800 X53.317 Y59.821 E45.38348
G0 F6000 X52.751 Y59.821
G1 F1800 X63.82 Y48.751 E45.57979
G0 F6000 X63.82 Y48.186
G1 F1800 X52.185 Y59.821 E45.78614
G0 F6000 X51.62 Y59.821
G1 F1800 X63.82 Y47.62 E46.00251
G0 F6000 X63.82 Y47.054
G1 F1800 X51.054 Y59.821 E46.22892
G0 F6000 X50.488 Y59.821
G1 F1800 X63.82 Y46.489 E46.46536
G0 F6000 X63.82 Y45.923
G1 F1800 X49.922 Y59.821 E46.71184
G0 F6000 X49.357 Y59.821
G1 F1800 X63.82 Y45.357 E46.96834
G0 F6000 X63.82 Y44.792
G1 F1800 X48.791 Y59.821 E47.23488
G0 F6000 X48.225 Y59.821
G1 F1800 X63.82 Y44.226 E47.51145
G0 F6000 X63.82 Y43.66
G1 F1800 X47.66 Y59.821 E47.79806
G0 F6000 X47.094 Y59.821
G1 F1800 X63.82 Y43.095 E48.09469
G0 F6000 X63.82 Y42.529
G1 F1800 X46.528 Y59.821 E48.40136
G0 F6000 X45.963 Y59.821
G1 F1800 X63.82 Y41.963 E48.71806
G0 F6000 X63.82 Y41.398
G1 F1800 X45.397 Y59.821 E49.04478
G0 F6000 X44.831 Y59.821
G1 F1800 X63.82 Y40.832 E49.38155
G0 F6000 X63.82 Y40.266
G1 F1800 X44.266 Y59.821 E49.72834
G0 F6000 X43.7 Y59.821
G1 F1800 X63.341 Y40.18 E50.07667
G0 F6000 X62.775 Y40.18
G1 F1800 X43.134 Y59.821 E50.425
G0 F6000 X42.569 Y59.821
G1 F1800 X62.209 Y40.18 E50.77332
G0 F6000 X61.643 Y40.18
G1 F1800 X42.003 Y59.821 E51.12164
G0 F6000 X41.437 Y59.821
G1 F1800 X61.078 Y40.18 E51.46997
G0 F6000 X60.512 Y40.18
G1 F1800 X40.871 Y59.821 E51.8183
G0 F6000 X40.306 Y59.821
G1 F1800 X59.946 Y40.18 E52.16662
G0 F6000 X59.381 Y40.18
G1 F1800 X39.74 Y59.821 E52.51495
G0 F6000 X39.174 Y59.821
G1 F1800 X58.815 Y40.18 E52.86327
G0 F6000 X58.249 Y40.18
G1 F1800 X38.609 Y59.821 E53.21159
G0 F6000 X38.043 Y59.821
G1 F1800 X57.684 Y40.18 E53.55992
G0 F6000 X57.118 Y40.18
G1 F1800 X37.477 Y59.821 E53.90825
G0 F6000 X36.912 Y59.821
G1 F1800 X56.552 Y40.18 E54.25657
G0 F6000 X55.987 Y40.18
G1 F1800 X36.346 Y59.821 E54.6049
G0 F6000 X36.181 Y59.42
G1 F1800 X55.421 Y40.18 E54.94612
G0 F6000 X54.855 Y40.18
G1 F1800 X36.181 Y58.855 E55.2773
G0 F6000 X36.181 Y58.289
G1 F1800 X54.29 Y40.18 E55.59846
G0 F6000 X53.724 Y40.18
G1 F1800 X36.181 Y57.723 E55.90958
G0 F6000 X36.181 Y57.158
G1 F1800 X53.158 Y40.18 E56.21067
G0 F6000 X52.592 Y40.18
G1 F1800 X36.181 Y56.592 E56.50173
G0 F6000 X36.181 Y56.026
G1 F1800 X52.027 Y40.18 E56.78275
G0 F6000 X51.461 Y40.18
G1 F1800 X36.181 Y55.461 E57.05375
G0 F6000 X36.181 Y54.895
G1 F1800 X50.895 Y40.18 E57.31471
G0 F6000 X50.33 Y40.18
G1 F1800 X36.181 Y54.329 E57.56564
G0 F6000 X36.181 Y53.763
G1 F1800 X49.764 Y40.18 E57.80653
G0 F6000 X49.198 Y40.18
G1 F1800 X36.181 Y53.198 E58.03739
G0 F6000 X36.181 Y52.632
G1 F1800 X48.633 Y40.18 E58.25822
G0 F6000 X48.067 Y40.18
G1 F1800 X36.181 Y52.066 E58.46902
G0 F6000 X36.181 Y51.501
G1 F1800 X47.501 Y40.18 E58.66979
G0 F6000 X46.936 Y40.18
G1 F1800 X36.181 Y50.935 E58.86052
G0 F6000 X36.181 Y50.369
G1 F1800 X46.37 Y40.18 E59.04122
G0 F6000 X45.804 Y40.18
