;FLAVOR:Marlin
;TIME:6666
;Filament used: 0m
;Layer height: 0.2
;MINX:2.14748e+06
;MINY:2.14748e+06
;MINZ:2.14748e+06
;MAXX:-2.14748e+06
;MAXY:-2.14748e+06
;MAXZ:-2.14748e+06

;Generated with Cura_SteamEngine 4.13.0
M104 S250
M105
M109 S250
M82 ;absolute extrusion mode
START_PRINT BED_TEMP={material_bed_temperature_layer_0} EXTRUDER_TEMP={material_print_temperature_layer_0}
G92 E0
G92 E0
G1 F3000 E-6.5
;LAYER_COUNT:145
;LAYER:0
M107
G1 F600 Z0.5
G0 F3600 X32.406 Y35.972 Z0.5
;TYPE:SKIRT
G1 F600 Z0.3
G1 F2700 E0
G1 F1800 X32.86 Y35.635 E0.01064
G1 X33.357 Y35.366 E0.02127
G1 X33.887 Y35.169 E0.0319
G1 X34.44 Y35.05 E0.04254
G1 X35.218 Y35.002 E0.0572
G1 X35.33 Y35 E0.05931
G1 X64.35 Y35 E0.60519
G1 X65.048 Y35.01 E0.61833
G1 X65.612 Y35.058 E0.62897
G1 X66.162 Y35.185 E0.63959
G1 X66.69 Y35.389 E0.65024
G1 X67.184 Y35.664 E0.66087
G1 X67.633 Y36.007 E0.6715
G1 X68.03 Y36.409 E0.68213
G1 X68.367 Y36.864 E0.69278
G1 X68.635 Y37.361 E0.7034
G1 X68.831 Y37.891 E0.71403
G1 X68.951 Y38.444 E0.72468
G1 X68.998 Y39.218 E0.73926
G1 X69 Y39.33 E0.74137
G1 X69 Y60.314 E1.13609
G1 X68.991 Y61.041 E1.14977
G1 X68.944 Y61.604 E1.16039
G1 X68.818 Y62.155 E1.17103
G1 X68.616 Y62.683 E1.18166
G1 X68.341 Y63.177 E1.19229
G1 X67.999 Y63.627 E1.20293
G1 X67.597 Y64.025 E1.21357
G1 X67.144 Y64.362 E1.22419
G1 X66.647 Y64.632 E1.23483
G1 X66.117 Y64.829 E1.24546
G1 X65.565 Y64.95 E1.25609
G1 X64.782 Y64.998 E1.27085
G1 X64.67 Y65 E1.27296
G1 X35.655 Y65 E1.81875
G1 X34.957 Y64.991 E1.83188
G1 X34.394 Y64.943 E1.8425
G1 X33.843 Y64.817 E1.85314
G1 X33.315 Y64.615 E1.86377
G1 X32.821 Y64.34 E1.87441
G1 X32.371 Y63.998 E1.88504
G1 X31.973 Y63.596 E1.89568
G1 X31.637 Y63.142 E1.9063
G1 X31.367 Y62.645 E1.91694
G1 X31.17 Y62.115 E1.92758
G1 X31.05 Y61.563 E1.9382
G1 X31.001 Y60.766 E1.95323
G1 X31 Y39.62 E2.35099
G1 X31.009 Y38.955 E2.3635
G1 X31.057 Y38.392 E2.37413
G1 X31.183 Y37.841 E2.38476
G1 X31.386 Y37.313 E2.39541
G1 X31.662 Y36.819 E2.40605
G1 X32.004 Y36.369 E2.41668
G1 X32.406 Y35.972 E2.42731
G0 F3600 X32.794 Y36.171
G1 F1800 X33.241 Y35.873 E2.43741
G1 X33.726 Y35.645 E2.4475
G1 X34.24 Y35.492 E2.45758
G1 X34.908 Y35.41 E2.47024
G1 X35.33 Y35.4 E2.47818
G1 X64.345 Y35.4 E3.02397
G1 X65.043 Y35.41 E3.0371
G1 X65.577 Y35.458 E3.04719
G1 X66.098 Y35.584 E3.05727
G1 X66.595 Y35.787 E3.06737
G1 X67.056 Y36.061 E3.07746
G1 X67.471 Y36.4 E3.08754
G1 X67.831 Y36.798 E3.09763
G1 X68.128 Y37.244 E3.10771
G1 X68.356 Y37.73 E3.11781
G1 X68.508 Y38.244 E3.12789
G1 X68.59 Y38.909 E3.1405
G1 X68.6 Y39.33 E3.14842
G1 X68.6 Y60.309 E3.54304
G1 X68.591 Y61.036 E3.55672
G1 X68.544 Y61.57 E3.5668
G1 X68.419 Y62.091 E3.57688
G1 X68.217 Y62.588 E3.58697
G1 X67.944 Y63.05 E3.59707
G1 X67.606 Y63.466 E3.60715
G1 X67.209 Y63.827 E3.61724
G1 X66.763 Y64.125 E3.62733
G1 X66.278 Y64.353 E3.63742
G1 X65.764 Y64.507 E3.64751
G1 X65.092 Y64.59 E3.66025
G1 X64.67 Y64.6 E3.66819
G1 X35.661 Y64.6 E4.21386
G1 X34.963 Y64.591 E4.22699
G1 X34.428 Y64.544 E4.23709
G1 X33.907 Y64.418 E4.24718
G1 X33.41 Y64.216 E4.25727
G1 X32.949 Y63.943 E4.26735
G1 X32.533 Y63.604 E4.27744
G1 X32.172 Y63.208 E4.28752
G1 X31.874 Y62.762 E4.29761
G1 X31.646 Y62.276 E4.30771
G1 X31.493 Y61.762 E4.3178
G1 X31.41 Y61.088 E4.33057
G1 X31.4 Y60.658 E4.33866
G1 X31.4 Y39.625 E4.7343
G1 X31.409 Y38.96 E4.74681
G1 X31.457 Y38.426 E4.7569
G1 X31.583 Y37.905 E4.76698
G1 X31.785 Y37.408 E4.77707
G1 X32.058 Y36.947 E4.78715
G1 X32.397 Y36.531 E4.79725
G1 X32.794 Y36.171 E4.80733
G0 F3600 X32.789 Y36.704
G1 F1800 X33.18 Y36.383 E4.81684
G1 X33.617 Y36.128 E4.82636
G1 X34.088 Y35.944 E4.83587
G1 X34.582 Y35.838 E4.84538
G1 X35.24 Y35.801 E4.85777
G1 X64.339 Y35.8 E5.40514
G1 X65.037 Y35.81 E5.41827
G1 X65.54 Y35.857 E5.42778
G1 X66.03 Y35.983 E5.43729
G1 X66.494 Y36.185 E5.44681
G1 X66.92 Y36.457 E5.45632
G1 X67.298 Y36.792 E5.46582
G1 X67.618 Y37.183 E5.47532
G1 X67.873 Y37.62 E5.48484
G1 X68.056 Y38.091 E5.49435
G1 X68.163 Y38.585 E5.50385
G1 X68.199 Y39.24 E5.51619
G1 X68.2 Y60.304 E5.91242
G1 X68.191 Y61.031 E5.9261
G1 X68.145 Y61.534 E5.9356
G1 X68.02 Y62.024 E5.94511
G1 X67.819 Y62.488 E5.95462
G1 X67.548 Y62.915 E5.96413
G1 X67.213 Y63.294 E5.97365
G1 X66.823 Y63.615 E5.98315
G1 X66.387 Y63.871 E5.99266
G1 X65.916 Y64.054 E6.00217
G1 X65.422 Y64.162 E6.01168
G1 X64.76 Y64.199 E6.02415
G1 X35.666 Y64.2 E6.57142
G1 X34.968 Y64.191 E6.58456
G1 X34.464 Y64.144 E6.59408
G1 X33.974 Y64.019 E6.60359
G1 X33.51 Y63.818 E6.6131
G1 X33.084 Y63.547 E6.6226
G1 X32.705 Y63.212 E6.63211
G1 X32.384 Y62.821 E6.64163
G1 X32.129 Y62.385 E6.65113
G1 X31.945 Y61.914 E6.66064
G1 X31.838 Y61.42 E6.67015
G1 X31.801 Y60.744 E6.68289
G1 X31.8 Y39.631 E7.08003
G1 X31.809 Y38.966 E7.09254
G1 X31.856 Y38.462 E7.10206
G1 X31.982 Y37.973 E7.11156
G1 X32.183 Y37.509 E7.12108
G1 X32.454 Y37.082 E7.13059
G1 X32.789 Y36.704 E7.14009
G1 F3000 E0.64009
G1 F600 Z0.5
;MESH:./car-screen-support/car-screen-support.stl
G0 F3600 X64.4 Y60.4 Z0.5
;TYPE:WALL-INNER
G1 F600 Z0.3
G1 F2700 E7.14009
G1 F1500 X35.6 Y60.4 E7.68183
G1 X35.6 Y39.6 E8.07309
G1 X64.4 Y39.6 E8.61484
G1 X64.4 Y60.4 E9.0061
G0 F3600 X64.8 Y60.8
;TYPE:WALL-OUTER
G1 F1500 X35.2 Y60.8 E9.56289
G1 X35.2 Y39.2 E9.9692
G1 X64.8 Y39.2 E10.52599
G1 X64.8 Y60.8 E10.9323
G0 F3600 X64.6 Y60.8
G0 X64.01 Y60.01
;TYPE:SKIN
G1 F1500 X35.99 Y60.01 E11.45937
G1 X35.99 Y39.99 E11.83596
G1 X64.01 Y39.99 E12.36303
G1 X64.01 Y60.01 E12.73962
G0 F3600 X63.829 Y40.636
G1 F1500 X63.363 Y40.17 E12.75201
G0 F3600 X62.797 Y40.17
G1 F1500 X63.829 Y41.202 E12.77947
G0 F3600 X63.829 Y41.768
G1 F1500 X62.231 Y40.17 E12.82198
G0 F3600 X61.666 Y40.17
G1 F1500 X63.829 Y42.333 E12.87952
G0 F3600 X63.829 Y42.899
G1 F1500 X61.1 Y40.17 E12.95211
G0 F3600 X60.534 Y40.17
G1 F1500 X63.829 Y43.465 E13.03977
G0 F3600 X63.829 Y44.03
G1 F1500 X59.969 Y40.17 E13.14245
G0 F3600 X59.403 Y40.17
G1 F1500 X63.829 Y44.596 E13.26019
G0 F3600 X63.829 Y45.162
G1 F1500 X58.837 Y40.17 E13.39299
G0 F3600 X58.271 Y40.17
G1 F1500 X63.829 Y45.727 E13.54083
G0 F3600 X63.829 Y46.293
G1 F1500 X57.706 Y40.17 E13.70372
G0 F3600 X57.14 Y40.17
G1 F1500 X63.829 Y46.859 E13.88166
G0 F3600 X63.829 Y47.424
G1 F1500 X56.574 Y40.17 E14.07464
G0 F3600 X56.009 Y40.17
G1 F1500 X63.829 Y47.99 E14.28267
G0 F3600 X63.829 Y48.556
G1 F1500 X55.443 Y40.17 E14.50576
G0 F3600 X54.877 Y40.17
G1 F1500 X63.829 Y49.122 E14.7439
G0 F3600 X63.829 Y49.687
G1 F1500 X54.312 Y40.17 E14.99707
G0 F3600 X53.746 Y40.17
G1 F1500 X63.829 Y50.253 E15.2653
G0 F3600 X63.829 Y50.819
G1 F1500 X53.18 Y40.17 E15.54859
G0 F3600 X52.615 Y40.17
G1 F1500 X63.829 Y51.384 E15.84691
G0 F3600 X63.829 Y51.95
G1 F1500 X52.049 Y40.17 E16.16028
G0 F3600 X51.483 Y40.17
G1 F1500 X63.829 Y52.516 E16.48871
G0 F3600 X63.829 Y53.081
G1 F1500 X50.918 Y40.17 E16.83217
G0 F3600 X50.352 Y40.17
G1 F1500 X63.829 Y53.647 E17.19069
G0 F3600 X63.829 Y54.213
G1 F1500 X49.786 Y40.17 E17.56426
G0 F3600 X49.22 Y40.17
G1 F1500 X63.829 Y54.778 E17.95288
G0 F3600 X63.829 Y55.344
G1 F1500 X48.655 Y40.17 E18.35654
G0 F3600 X48.089 Y40.17
G1 F1500 X63.829 Y55.91 E18.77526
G0 F3600 X63.829 Y56.475
G1 F1500 X47.523 Y40.17 E19.20902
G0 F3600 X46.958 Y40.17
G1 F1500 X63.829 Y57.041 E19.65782
G0 F3600 X63.829 Y57.607
G1 F1500 X46.392 Y40.17 E20.12168
G0 F3600 X45.826 Y40.17
G1 F1500 X63.829 Y58.172 E20.60059
G0 F3600 X63.829 Y58.738
G1 F1500 X45.261 Y40.17 E21.09454
G0 F3600 X44.695 Y40.17
G1 F1500 X63.829 Y59.304 E21.60354
G0 F3600 X63.789 Y59.829
G1 F1500 X44.129 Y40.17 E22.12653
G0 F3600 X43.564 Y40.17
G1 F1500 X63.223 Y59.829 E22.6495
G0 F3600 X62.658 Y59.829
G1 F1500 X42.998 Y40.17 E23.17248
G0 F3600 X42.432 Y40.17
G1 F1500 X62.092 Y59.829 E23.69547
G0 F3600 X61.526 Y59.829
G1 F1500 X41.867 Y40.17 E24.21844
G0 F3600 X41.301 Y40.17
G1 F1500 X60.961 Y59.829 E24.74143
G0 F3600 X60.395 Y59.829
G1 F1500 X40.735 Y40.17 E25.26441
G0 F3600 X40.17 Y40.17
G1 F1500 X59.829 Y59.829 E25.78738
G0 F3600 X59.264 Y59.829
G1 F1500 X39.604 Y40.17 E26.31037
G0 F3600 X39.038 Y40.17
G1 F1500 X58.698 Y59.829 E26.83335
G0 F3600 X58.132 Y59.829
G1 F1500 X38.472 Y40.17 E27.35634
G0 F3600 X37.907 Y40.17
G1 F1500 X57.566 Y59.829 E27.87931
G0 F3600 X57.001 Y59.829
G1 F1500 X37.341 Y40.17 E28.40229
G0 F3600 X36.775 Y40.17
G1 F1500 X56.435 Y59.829 E28.92528
G0 F3600 X55.869 Y59.829
G1 F1500 X36.21 Y40.17 E29.44825
G0 F3600 X36.169 Y40.695
G1 F1500 X55.304 Y59.829 E29.95727
G0 F3600 X54.738 Y59.829
G1 F1500 X36.169 Y41.261 E30.45123
G0 F3600 X36.169 Y41.826
G1 F1500 X54.172 Y59.829 E30.93015
G0 F3600 X53.607 Y59.829
G1 F1500 X36.169 Y42.392 E31.39402
G0 F3600 X36.169 Y42.958
G1 F1500 X53.041 Y59.829 E31.84284
G0 F3600 X52.475 Y59.829
G1 F1500 X36.169 Y43.523 E32.27662
G0 F3600 X36.169 Y44.089
G1 F1500 X51.91 Y59.829 E32.69535
G0 F3600 X51.344 Y59.829
G1 F1500 X36.169 Y44.655 E33.09902
G0 F3600 X36.169 Y45.22
G1 F1500 X50.778 Y59.829 E33.48765
G0 F3600 X50.213 Y59.829
G1 F1500 X36.169 Y45.786 E33.86124
G0 F3600 X36.169 Y46.352
G1 F1500 X49.647 Y59.829 E34.21977
G0 F3600 X49.081 Y59.829
G1 F1500 X36.169 Y46.917 E34.56326
G0 F3600 X36.169 Y47.483
G1 F1500 X48.516 Y59.829 E34.8917
G0 F3600 X47.95 Y59.829
G1 F1500 X36.169 Y48.049 E35.20509
G0 F3600 X36.169 Y48.615
G1 F1500 X47.384 Y59.829 E35.50342
G0 F3600 X46.818 Y59.829
G1 F1500 X36.169 Y49.18 E35.7867
G0 F3600 X36.169 Y49.746
G1 F1500 X46.253 Y59.829 E36.05495
G0 F3600 X45.687 Y59.829
G1 F1500 X36.169 Y50.312 E36.30813
G0 F3600 X36.169 Y50.877
G1 F1500 X45.121 Y59.829 E36.54627
G0 F3600 X44.556 Y59.829
G1 F1500 X36.169 Y51.443 E36.76937
G0 F3600 X36.169 Y52.009
G1 F1500 X43.99 Y59.829 E36.97741
G0 F3600 X43.424 Y59.829
G1 F1500 X36.169 Y52.574 E37.17041
G0 F3600 X36.169 Y53.14
G1 F1500 X42.859 Y59.829 E37.34837
G0 F3600 X42.293 Y59.829
G1 F1500 X36.169 Y53.706 E37.51127
G0 F3600 X36.169 Y54.271
G1 F1500 X41.727 Y59.829 E37.65912
G0 F3600 X41.162 Y59.829
G1 F1500 X36.169 Y54.837 E37.79193
G0 F3600 X36.169 Y55.403
M104 S245
G1 F1500 X40.596 Y59.829 E37.90969
G0 F3600 X40.03 Y59.829
G1 F1500 X36.169 Y55.968 E38.0124
G0 F3600 X36.169 Y56.534
G1 F1500 X39.465 Y59.829 E38.10007
G0 F3600 X38.899 Y59.829
G1 F1500 X36.169 Y57.1 E38.17268
G0 F3600 X36.169 Y57.665
G1 F1500 X38.333 Y59.829 E38.23024
G0 F3600 X37.767 Y59.829
G1 F1500 X36.169 Y58.231 E38.27275
G0 F3600 X36.169 Y58.797
G1 F1500 X37.202 Y59.829 E38.30022
G0 F3600 X36.636 Y59.829
G1 F1500 X36.169 Y59.363 E38.31263
;MESH:NONMESH
G0 F600 X36.169 Y59.363 Z0.5
G0 F3600 X64.33 Y60.33
G0 X64.4 Y60.4
;TIME_ELAPSED:84.881673
;LAYER:1
M106 S255
;TYPE:WALL-INNER
;MESH:./car-screen-support/car-screen-support.stl
G1 F2850 X35.6 Y60.4 E38.67379
G1 X35.6 Y39.6 E38.93463
G1 X64.4 Y39.6 E39.29579
G1 X64.4 Y60.4 E39.55663
G0 F6300 X64.8 Y60.8
;TYPE:WALL-OUTER
G1 F2100 X35.2 Y60.8 E39.92783
G1 X35.2 Y39.2 E40.1987
G1 X64.8 Y39.2 E40.5699
G1 X64.8 Y60.8 E40.84077
G0 F6300 X64.6 Y60.8
G0 X64.01 Y60.01
;TYPE:SKIN
G1 F1650 X35.99 Y60.01 E41.19215
G1 X35.99 Y39.99 E41.44321
G1 X64.01 Y39.99 E41.79459
G1 X64.01 Y60.01 E42.04565
G0 F6300 X63.829 Y59.49
G1 F1650 X63.489 Y59.829 E42.05167
G0 F6300 X62.924 Y59.829
G1 F1650 X63.829 Y58.924 E42.06772
G0 F6300 X63.829 Y58.358
G1 F1650 X62.358 Y59.829 E42.09381
G0 F6300 X61.792 Y59.829
G1 F1650 X63.829 Y57.793 E42.12992
G0 F6300 X63.829 Y57.227
G1 F1650 X61.226 Y59.829 E42.17608
G0 F6300 X60.661 Y59.829
G1 F1650 X63.829 Y56.661 E42.23226
G0 F6300 X63.829 Y56.096
G1 F1650 X60.095 Y59.829 E42.29847
G0 F6300 X59.529 Y59.829
G1 F1650 X63.829 Y55.53 E42.37472
G0 F6300 X63.829 Y54.964
G1 F1650 X58.964 Y59.829 E42.461
G0 F6300 X58.398 Y59.829
G1 F1650 X63.829 Y54.399 E42.55731
G0 F6300 X63.829 Y53.833
G1 F1650 X57.832 Y59.829 E42.66366
G0 F6300 X57.267 Y59.829
G1 F1650 X63.829 Y53.267 E42.78004
G0 F6300 X63.829 Y52.702
G1 F1650 X56.701 Y59.829 E42.90644
G0 F6300 X56.135 Y59.829
G1 F1650 X63.829 Y52.136 E43.04288
G0 F6300 X63.829 Y51.57
G1 F1650 X55.57 Y59.829 E43.18935
G0 F6300 X55.004 Y59.829
G1 F1650 X63.829 Y51.005 E43.34585
G0 F6300 X63.829 Y50.439
G1 F1650 X54.438 Y59.829 E43.51239
G0 F6300 X53.873 Y59.829
G1 F1650 X63.829 Y49.873 E43.68896
G0 F6300 X63.829 Y49.307
G1 F1650 X53.307 Y59.829 E43.87556
G0 F6300 X52.741 Y59.829
G1 F1650 X63.829 Y48.742 E44.0722
G0 F6300 X63.829 Y48.176
G1 F1650 X52.175 Y59.829 E44.27887
G0 F6300 X51.61 Y59.829
G1 F1650 X63.829 Y47.61 E44.49557
G0 F6300 X63.829 Y47.045
G1 F1650 X51.044 Y59.829 E44.7223
G0 F6300 X50.478 Y59.829
G1 F1650 X63.829 Y46.479 E44.95907
G0 F6300 X63.829 Y45.913
G1 F1650 X49.913 Y59.829 E45.20587
G0 F6300 X49.347 Y59.829
G1 F1650 X63.829 Y45.348 E45.46269
G0 F6300 X63.829 Y44.782
G1 F1650 X48.781 Y59.829 E45.72956
G0 F6300 X48.216 Y59.829
G1 F1650 X63.829 Y44.216 E46.00645
G0 F6300 X63.829 Y43.651
G1 F1650 X47.65 Y59.829 E46.29337
G0 F6300 X47.084 Y59.829
G1 F1650 X63.829 Y43.085 E46.59033
G0 F6300 X63.829 Y42.519
G1 F1650 X46.519 Y59.829 E46.89732
G0 F6300 X45.953 Y59.829
G1 F1650 X63.829 Y41.954 E47.21434
G0 F6300 X63.829 Y41.388
G1 F1650 X45.387 Y59.829 E47.54139
G0 F6300 X44.822 Y59.829
G1 F1650 X63.829 Y40.822 E47.87848
G0 F6300 X63.829 Y40.257
G1 F1650 X44.256 Y59.829 E48.22559
G0 F6300 X43.69 Y59.829
G1 F1650 X63.351 Y40.169 E48.57427
G0 F6300 X62.785 Y40.169
G1 F1650 X43.125 Y59.829 E48.92293
G0 F6300 X42.559 Y59.829
G1 F1650 X62.219 Y40.169 E49.2716
G0 F6300 X61.654 Y40.169
G1 F1650 X41.993 Y59.829 E49.62027
G0 F6300 X41.427 Y59.829
G1 F1650 X61.088 Y40.169 E49.96895
G0 F6300 X60.522 Y40.169
G1 F1650 X40.862 Y59.829 E50.31761
G0 F6300 X40.296 Y59.829
G1 F1650 X59.956 Y40.169 E50.66628
G0 F6300 X59.391 Y40.169
G1 F1650 X39.73 Y59.829 E51.01495
G0 F6300 X39.165 Y59.829
G1 F1650 X58.825 Y40.169 E51.36362
G0 F6300 X58.259 Y40.169
G1 F1650 X38.599 Y59.829 E51.71228
G0 F6300 X38.033 Y59.829
G1 F1650 X57.694 Y40.169 E52.06096
G0 F6300 X57.128 Y40.169
G1 F1650 X37.468 Y59.829 E52.40962
G0 F6300 X36.902 Y59.829
G1 F1650 X56.562 Y40.169 E52.75829
G0 F6300 X55.997 Y40.169
G1 F1650 X36.336 Y59.829 E53.10696
G0 F6300 X36.169 Y59.43
G1 F1650 X55.431 Y40.169 E53.44856
G0 F6300 X54.865 Y40.169
G1 F1650 X36.169 Y58.865 E53.78013
G0 F6300 X36.169 Y58.299
G1 F1650 X54.3 Y40.169 E54.10167
G0 F6300 X53.734 Y40.169
G1 F1650 X36.169 Y57.733 E54.41317
G0 F6300 X36.169 Y57.168
G1 F1650 X53.168 Y40.169 E54.71464
G0 F6300 X52.603 Y40.169
G1 F1650 X36.169 Y56.602 E55.00609
G0 F6300 X36.169 Y56.036
G1 F1650 X52.037 Y40.169 E55.28749
G0 F6300 X51.471 Y40.169
G1 F1650 X36.169 Y55.471 E55.55887
G0 F6300 X36.169 Y54.905
G1 F1650 X50.906 Y40.169 E55.82022
G0 F6300 X50.34 Y40.169
G1 F1650 X36.169 Y54.339 E56.07153
G0 F6300 X36.169 Y53.774
G1 F1650 X49.774 Y40.169 E56.31281
G0 F6300 X49.208 Y40.169
G1 F1650 X36.169 Y53.208 E56.54406
G0 F6300 X36.169 Y52.642
G1 F1650 X48.643 Y40.169 E56.76527
G0 F6300 X48.077 Y40.169
G1 F1650 X36.169 Y52.077 E56.97646
G0 F6300 X36.169 Y51.511
G1 F1650 X47.511 Y40.169 E57.1776
G0 F6300 X46.946 Y40.169
G1 F1650 X36.169 Y50.945 E57.36872
G0 F6300 X36.169 Y50.379
G1 F1650 X46.38 Y40.169 E57.5498
G0 F6300 X45.814 Y40.169
G1 F1650 X36.169 Y49.814 E57.72085
G0 F6300 X36.169 Y49.248
G1 F1650 X45.249 Y40.169 E57.88188
G0 F6300 X44.683 Y40.169
G1 F1650 X36.169 Y48.682 E58.03286
G0 F6300 X36.169 Y48.117
G1 F1650 X44.117 Y40.169 E58.17382
G0 F6300 X43.552 Y40.169
G1 F1650 X36.169 Y47.551 E58.30474
G0 F6300 X36.169 Y46.985
G1 F1650 X42.986 Y40.169 E58.42563
G0 F6300 X42.42 Y40.169
G1 F1650 X36.169 Y46.42 E58.53649
G0 F6300 X36.169 Y45.854
G1 F1650 X41.855 Y40.169 E58.63732
G0 F6300 X41.289 Y40.169
G1 F1650 X36.169 Y45.288 E58.72812
G0 F6300 X36.169 Y44.723
G1 F1650 X40.723 Y40.169 E58.80888
G0 F6300 X40.158 Y40.169
G1 F1650 X36.169 Y44.157 E58.87962
G0 F6300 X36.169 Y43.591
G1 F1650 X39.592 Y40.169 E58.94031
G0 F6300 X39.026 Y40.169
G1 F1650 X36.169 Y43.026 E58.99098
G0 F6300 X36.169 Y42.46
G1 F1650 X38.46 Y40.169 E59.03161
G0 F6300 X37.895 Y40.169
G1 F1650 X36.169 Y41.894 E59.06221
G0 F6300 X36.169 Y41.328
G1 F1650 X37.329 Y40.169 E59.08278
G0 F6300 X36.763 Y40.169
G1 F1650 X36.169 Y40.763 E59.09331
G1 X36.141 Y40.791
;MESH:NONMESH
G0 F600 X36.141 Y40.791 Z0.7
G0 F6300 X64.33 Y60.33
G0 X64.4 Y60.4
;TIME_ELAPSED:145.082884
;LAYER:2
;TYPE:WALL-INNER
